;FLAVOR:Marlin
;TIME:121
;Filament used: 0.38105m
;Layer height: 0.4
;Generated with Cura_SteamEngine 2.7.0
M190 S60
M104 S220
M109 S220
G28 ;Home
G1 Z15.0 F6000 ;Move the platform down 15mm
;Prime the extruder
G92 E0
G1 F200 E3
G92 E0
;LAYER_COUNT:3
;LAYER:0
M107
G0 F3600 X28.122 Y57.186 Z0.3
;TYPE:WALL-OUTER
G1 F2400 X28.734 Y56.969 E0.04859
G1 X29.364 Y56.838 E0.09675
G1 X30.007 Y56.794 E0.14498
G1 X52.668 Y56.794 E1.84082
G1 X53.304 Y55.94 E1.92051
G1 X53.91 Y55.282 E1.98745
G1 X54.591 Y54.68 E2.05547
G1 X55.315 Y54.164 E2.122
G1 X56.095 Y53.72 E2.18917
G1 X56.924 Y53.356 E2.25693
G1 X57.775 Y53.085 E2.32376
G1 X58.665 Y52.898 E2.39182
G1 X59.547 Y52.806 E2.45818
G1 X60.453 Y52.806 E2.52598
G1 X61.335 Y52.898 E2.59235
G1 X62.225 Y53.085 E2.6604
G1 X63.076 Y53.356 E2.72724
G1 X63.905 Y53.72 E2.79499
G1 X64.685 Y54.164 E2.86216
G1 X65.409 Y54.68 E2.92869
G1 X66.09 Y55.282 E2.99671
G1 X66.696 Y55.94 E3.06366
G1 X67.332 Y56.794 E3.14334
G1 X94.993 Y56.794 E5.21336
G1 X95.636 Y56.838 E5.26159
G1 X96.266 Y56.969 E5.30975
G1 X96.878 Y57.186 E5.35834
G1 X97.44 Y57.478 E5.40574
G1 X97.965 Y57.848 E5.4538
G1 X98.434 Y58.286 E5.50183
G1 X98.84 Y58.786 E5.55003
G1 X99.171 Y59.331 E5.59774
G1 X99.427 Y59.92 E5.6458
G1 X99.601 Y60.54 E5.694
G1 X99.688 Y61.172 E5.74174
G1 X99.688 Y61.816 E5.78993
G1 X99.601 Y62.448 E5.83767
G1 X99.427 Y63.068 E5.88586
G1 X99.171 Y63.657 E5.93392
G1 X98.84 Y64.202 E5.98164
G1 X98.434 Y64.702 E6.02984
G1 X97.965 Y65.14 E6.07787
G1 X97.44 Y65.51 E6.12593
G1 X96.878 Y65.802 E6.17333
G1 X96.266 Y66.019 E6.22192
G1 X95.636 Y66.15 E6.27007
G1 X94.993 Y66.194 E6.31831
G1 X80.2 Y66.194 E7.42534
G1 X80.2 Y69.479 E7.67118
G1 X80.157 Y69.963 E7.70754
G1 X80.036 Y70.416 E7.74263
G1 X79.837 Y70.843 E7.77788
G1 X79.566 Y71.23 E7.81324
G1 X79.236 Y71.56 E7.84817
G1 X78.849 Y71.831 E7.88352
G1 X78.422 Y72.03 E7.91878
G1 X77.969 Y72.151 E7.95387
G1 X77.5 Y72.193 E7.9891
G1 X77.031 Y72.151 E8.02434
G1 X76.578 Y72.03 E8.05943
G1 X76.151 Y71.831 E8.09469
G1 X75.764 Y71.56 E8.13004
G1 X75.434 Y71.23 E8.16497
G1 X75.163 Y70.843 E8.20032
G1 X74.964 Y70.416 E8.23558
G1 X74.843 Y69.963 E8.27067
G1 X74.8 Y69.479 E8.30703
G1 X74.8 Y66.194 E8.55286
G1 X67.332 Y66.194 E9.11173
G1 X66.696 Y67.048 E9.19142
G1 X66.09 Y67.706 E9.25836
G1 X65.409 Y68.308 E9.32638
G1 X64.685 Y68.824 E9.39291
G1 X63.905 Y69.268 E9.46008
G1 X63.076 Y69.632 E9.52784
G1 X62.225 Y69.903 E9.59467
G1 X61.335 Y70.09 E9.66273
G1 X60.453 Y70.182 E9.72909
G1 X59.547 Y70.182 E9.79689
G1 X58.665 Y70.09 E9.86326
G1 X57.775 Y69.903 E9.93131
G1 X56.924 Y69.632 E9.99815
G1 X56.095 Y69.268 E10.0659
G1 X55.315 Y68.824 E10.13307
G1 X54.591 Y68.308 E10.1996
G1 X53.91 Y67.706 E10.26762
G1 X53.304 Y67.048 E10.33457
G1 X52.668 Y66.194 E10.41425
G1 X30.007 Y66.194 E12.1101
G1 X29.364 Y66.15 E12.15833
G1 X28.734 Y66.019 E12.20648
G1 X28.122 Y65.802 E12.25508
G1 X27.56 Y65.51 E12.30247
G1 X27.035 Y65.14 E12.35054
G1 X26.566 Y64.702 E12.39856
G1 X26.16 Y64.202 E12.44676
G1 X25.829 Y63.657 E12.49448
G1 X25.573 Y63.068 E12.54254
G1 X25.399 Y62.448 E12.59073
G1 X25.312 Y61.816 E12.63847
G1 X25.312 Y61.172 E12.68666
G1 X25.399 Y60.54 E12.73441
G1 X25.573 Y59.92 E12.7826
G1 X25.829 Y59.331 E12.83066
G1 X26.16 Y58.786 E12.87838
G1 X26.566 Y58.286 E12.92658
G1 X27.035 Y57.848 E12.9746
G1 X27.56 Y57.478 E13.02266
G1 X28.122 Y57.186 E13.07006
G0 F3600 X28.404 Y57.086
G0 X28.436 Y57.181
G0 X58.158 Y61.022
G0 X58.254 Y61.046
G1 F2400 X58.198 Y61.494 E13.10385
G1 X58.254 Y61.942 E13.13763
G1 X58.421 Y62.363 E13.17153
G1 X58.687 Y62.728 E13.20533
G1 X59.034 Y63.015 E13.23903
G1 X59.442 Y63.209 E13.27283
G1 X59.887 Y63.293 E13.30672
G1 X60.338 Y63.264 E13.34055
G1 X60.768 Y63.125 E13.37436
G1 X61.149 Y62.883 E13.40814
G1 X61.459 Y62.554 E13.44197
G1 X61.676 Y62.157 E13.47583
G1 X61.788 Y61.72 E13.50959
G1 X61.788 Y61.268 E13.54341
G1 X61.676 Y60.831 E13.57717
G1 X61.459 Y60.434 E13.61103
G1 X61.149 Y60.105 E13.64486
G1 X60.768 Y59.863 E13.67864
G1 X60.338 Y59.724 E13.71246
G1 X59.887 Y59.695 E13.74628
G1 X59.442 Y59.779 E13.78017
G1 X59.034 Y59.973 E13.81398
G1 X58.687 Y60.26 E13.84767
G1 X58.421 Y60.625 E13.88147
G1 X58.254 Y61.046 E13.91537
G0 F3600 X58.217 Y61.344
G0 X58.118 Y61.332
G0 X58.216 Y61.951
G0 X58.386 Y62.382
G0 X58.658 Y62.755
G0 X59.013 Y63.048
G0 X59.43 Y63.247
G0 X74.828 Y66.166
G0 X76.286 Y68.794
G0 X76.372 Y68.843
G1 F2400 X76.242 Y69.157 E13.9408
G1 X76.197 Y69.494 E13.96624
G1 X76.242 Y69.831 E13.99169
G1 X76.372 Y70.145 E14.01712
G1 X76.579 Y70.415 E14.04258
G1 X76.849 Y70.622 E14.06804
G1 X77.163 Y70.752 E14.09347
G1 X77.5 Y70.797 E14.11892
G1 X77.837 Y70.752 E14.14436
G1 X78.151 Y70.622 E14.16979
G1 X78.421 Y70.415 E14.19525
G1 X78.628 Y70.145 E14.22071
G1 X78.758 Y69.831 E14.24615
G1 X78.803 Y69.494 E14.27159
G1 X78.758 Y69.157 E14.29703
G1 X78.628 Y68.843 E14.32246
G1 X78.421 Y68.573 E14.34792
G1 X78.151 Y68.366 E14.37339
G1 X77.837 Y68.236 E14.39882
G1 X77.5 Y68.191 E14.42426
G1 X77.163 Y68.236 E14.4497
G1 X76.849 Y68.366 E14.47514
G1 X76.579 Y68.573 E14.5006
G1 X76.372 Y68.843 E14.52606
G0 F3600 X76.257 Y69.12
G0 X76.165 Y69.082
G0 X76.551 Y68.545
G0 X80.172 Y66.166
G0 X93.158 Y61.966
G0 X93.254 Y61.942
G1 F2400 X93.421 Y62.363 E14.55995
G1 X93.687 Y62.728 E14.59375
G1 X94.034 Y63.015 E14.62745
G1 X94.442 Y63.209 E14.66126
G1 X94.887 Y63.293 E14.69515
G1 X95.338 Y63.264 E14.72897
G1 X95.768 Y63.125 E14.76279
G1 X96.149 Y62.883 E14.79656
G1 X96.459 Y62.554 E14.83039
G1 X96.676 Y62.157 E14.86425
G1 X96.788 Y61.72 E14.89801
G1 X96.788 Y61.268 E14.93184
G1 X96.676 Y60.831 E14.9656
G1 X96.459 Y60.434 E14.99946
G1 X96.149 Y60.105 E15.03328
G1 X95.768 Y59.863 E15.06706
G1 X95.338 Y59.724 E15.10088
G1 X94.887 Y59.695 E15.1347
G1 X94.442 Y59.779 E15.16859
G1 X94.034 Y59.973 E15.2024
G1 X93.687 Y60.26 E15.2361
G1 X93.421 Y60.625 E15.2699
G1 X93.254 Y61.046 E15.30379
G1 X93.198 Y61.494 E15.33758
G1 X93.254 Y61.942 E15.37136
G0 F3600 X93.364 Y62.221
G0 X93.271 Y62.257
G0 X93.158 Y61.494
G0 X93.216 Y61.037
G0 X93.386 Y60.606
G0 X93.658 Y60.233
G0 X94.013 Y59.94
G0 X94.43 Y59.741
G0 X94.885 Y59.656
G0 X99.22 Y60.188
;TYPE:SKIN
G1 F2400 X96.3 Y57.268 E15.6804
G1 X96.194 Y57.162
G0 F3600 X95.267 Y57.083
G1 F2400 X99.417 Y61.233 E16.1196
G1 X99.523 Y61.339
G0 F3600 X99.383 Y62.047
G1 F2400 X94.399 Y57.064 E16.64702
G1 X94.293 Y56.958
G0 F3600 X93.55 Y57.064
G1 F2400 X99.235 Y62.748 E17.24863
G1 X99.341 Y62.854
G0 F3600 X99.002 Y63.364
G1 F2400 X97.056 Y61.418 E17.45458
G1 X96.95 Y61.312
G0 F3600 X96.952 Y62.163
G1 F2400 X98.7 Y63.911 E17.63958
G1 X98.806 Y64.017
G0 F3600 X98.335 Y64.394
G1 F2400 X96.666 Y62.725 E17.81622
G1 X96.56 Y62.619
G0 F3600 X96.239 Y63.146
G1 F2400 X97.911 Y64.819 E17.99322
G1 X98.017 Y64.925
G0 F3600 X97.43 Y65.186
G1 F2400 X95.68 Y63.436 E18.17843
G1 X95.574 Y63.33
G0 F3600 X94.955 Y63.559
G1 F2400 X96.887 Y65.492 E18.38295
G1 X96.993 Y65.598
G0 F3600 X96.275 Y65.728
G1 F2400 X87.611 Y57.064 E19.29989
G1 X87.505 Y56.958
G0 F3600 X88.459 Y57.064
G1 F2400 X92.93 Y61.535 E19.77307
G1 X93.036 Y61.641
G0 F3600 X93.056 Y60.812
G1 F2400 X89.308 Y57.064 E20.16973
G1 X89.202 Y56.958
G0 F3600 X90.156 Y57.064
G1 F2400 X93.352 Y60.259 E20.50792
G1 X93.458 Y60.365
G0 F3600 X93.776 Y59.835
G1 F2400 X91.005 Y57.064 E20.80119
G1 X90.899 Y56.958
G0 F3600 X91.853 Y57.064
G1 F2400 X94.324 Y59.534 E21.06265
G1 X94.43 Y59.64
G0 F3600 X95.074 Y59.435
G1 F2400 X92.702 Y57.064 E21.31363
G1 X92.596 Y56.958
G0 F3600 X86.762 Y57.064
G1 F2400 X95.582 Y65.883 E22.24702
G1 X95.688 Y65.989
G0 F3600 X94.773 Y65.923
G1 F2400 X85.914 Y57.064 E23.1846
G1 X85.808 Y56.958
G0 F3600 X85.065 Y57.064
G1 F2400 X93.924 Y65.923 E24.12217
G1 X94.03 Y66.029
G0 F3600 X93.076 Y65.923
G1 F2400 X84.217 Y57.064 E25.05975
G1 X84.111 Y56.958
G0 F3600 X83.368 Y57.064
G1 F2400 X92.227 Y65.923 E25.99733
G1 X92.333 Y66.029
G0 F3600 X91.379 Y65.923
G1 F2400 X82.52 Y57.064 E26.9349
G1 X82.414 Y56.958
G0 F3600 X81.671 Y57.064
G1 F2400 X90.53 Y65.923 E27.87248
G1 X90.636 Y66.029
G0 F3600 X89.682 Y65.923
G1 F2400 X80.823 Y57.064 E28.81005
G1 X80.717 Y56.958
G0 F3600 X79.974 Y57.064
G1 F2400 X88.833 Y65.923 E29.74763
G1 X88.939 Y66.029
G0 F3600 X87.985 Y65.923
G1 F2400 X79.125 Y57.064 E30.68526
G1 X79.019 Y56.958
G0 F3600 X78.277 Y57.064
G1 F2400 X87.136 Y65.923 E31.62283
G1 X87.242 Y66.029
G0 F3600 X86.288 Y65.923
G1 F2400 X77.428 Y57.064 E32.56046
G1 X77.322 Y56.958
G0 F3600 X76.58 Y57.064
G1 F2400 X85.439 Y65.923 E33.49804
G1 X85.545 Y66.029
G0 F3600 X84.591 Y65.923
G1 F2400 X75.731 Y57.064 E34.43566
G1 X75.625 Y56.958
G0 F3600 X74.883 Y57.064
G1 F2400 X83.742 Y65.923 E35.37324
G1 X83.848 Y66.029
G0 F3600 X82.894 Y65.923
G1 F2400 X74.034 Y57.064 E36.31087
G1 X73.928 Y56.958
G0 F3600 X73.186 Y57.064
G1 F2400 X82.045 Y65.923 E37.24844
G1 X82.151 Y66.029
G0 F3600 X81.197 Y65.923
G1 F2400 X72.337 Y57.064 E38.18607
G1 X72.231 Y56.958
G0 F3600 X71.489 Y57.064
G1 F2400 X80.348 Y65.923 E39.12365
G1 X80.454 Y66.029
G0 F3600 X79.929 Y66.352
G1 F2400 X70.64 Y57.064 E40.10668
G1 X70.534 Y56.958
G0 F3600 X69.792 Y57.064
G1 F2400 X79.929 Y67.201 E41.17951
G1 X80.035 Y67.307
G0 F3600 X79.929 Y68.049
G1 F2400 X68.943 Y57.064 E42.34214
G1 X68.837 Y56.958
G0 F3600 X68.095 Y57.064
G1 F2400 X79.929 Y68.898 E43.59457
G1 X80.035 Y69.004
G0 F3600 X79.906 Y69.724
G1 F2400 X78.78 Y68.597 E43.71379
G1 X78.674 Y68.491
G0 F3600 X78.395 Y68.213
G1 F2400 X67.246 Y57.064 E44.89372
G1 X67.14 Y56.958
G0 F3600 X67.047 Y56.865
G1 F2400 X64.663 Y54.481 E45.14603
G1 X64.557 Y54.375
G0 F3600 X62.925 Y53.591
G1 F2400 X77.281 Y67.948 E46.66542
G1 X77.387 Y68.054
G0 F3600 X76.656 Y68.171
G1 F2400 X75.069 Y66.584 E46.83338
G1 X74.963 Y66.478
G0 F3600 X75.069 Y67.432
G1 F2400 X76.226 Y68.589 E46.95583
G1 X76.332 Y68.695
G0 F3600 X75.967 Y69.179
G1 F2400 X75.069 Y68.281 E47.05086
G1 X74.963 Y68.175
G0 F3600 X75.069 Y69.129
G1 F2400 X76.076 Y70.136 E47.15744
G1 X76.182 Y70.242
G0 F3600 X75.146 Y70.055
G1 F2400 X76.937 Y71.846 E47.34698
G1 X77.043 Y71.952
G0 F3600 X77.831 Y71.891
G1 F2400 X76.857 Y70.917 E47.45007
G1 X76.751 Y70.811
G0 F3600 X78.151 Y71.362
G1 F2400 X78.71 Y71.074 E47.51807
G1 X79.126 Y70.641 E47.58292
G1 X79.392 Y70.058 E47.65222
G0 F3600 X79.044 Y69.71
G0 X78.662 Y68.824
G0 X78.449 Y68.545
G0 X74.408 Y65.923
G1 F2400 X61.746 Y53.261 E48.99228
G1 X61.64 Y53.155
G0 F3600 X60.744 Y53.107
G1 F2400 X73.56 Y65.923 E50.34863
G1 X73.666 Y66.029
G0 F3600 X72.711 Y65.923
G1 F2400 X59.864 Y53.076 E51.70827
G1 X59.758 Y52.97
G0 F3600 X59.067 Y53.127
G1 F2400 X71.863 Y65.923 E53.06251
G1 X71.969 Y66.029
G0 F3600 X71.014 Y65.923
G1 F2400 X58.334 Y53.243 E54.40448
G1 X58.228 Y53.137
G0 F3600 X57.65 Y53.407
G1 F2400 X70.166 Y65.923 E55.72908
G1 X70.272 Y66.029
G0 F3600 X69.317 Y65.923
G1 F2400 X57.008 Y53.614 E57.03178
G1 X56.902 Y53.508
G0 F3600 X56.418 Y53.873
G1 F2400 X68.469 Y65.923 E58.30712
G1 X68.575 Y66.029
G0 F3600 X67.62 Y65.923
G1 F2400 X55.861 Y54.164 E59.55162
G1 X55.755 Y54.058
G0 F3600 X55.332 Y54.483
G1 F2400 X60.299 Y59.45 E60.07729
G1 X60.405 Y59.556
G0 F3600 X59.493 Y59.493
G1 F2400 X54.835 Y54.835 E60.57026
G1 X54.729 Y54.729
G0 F3600 X54.379 Y55.227
G1 F2400 X58.892 Y59.74 E61.04788
G1 X58.998 Y59.846
G0 F3600 X58.44 Y60.138
G1 F2400 X53.945 Y55.642 E61.52366
G1 X53.839 Y55.536
G0 F3600 X53.537 Y56.083
G1 F2400 X58.116 Y60.661 E62.00821
G1 X58.222 Y60.767
G0 F3600 X57.945 Y61.34
G1 F2400 X53.173 Y56.567 E62.5133
G1 X53.067 Y56.461
G0 F3600 X52.81 Y57.053
G1 F2400 X58.138 Y62.38 E63.07713
G1 X58.244 Y62.486
G0 F3600 X59.104 Y63.347
G1 F2400 X64.419 Y68.662 E63.63963
G1 X64.525 Y68.768
G0 F3600 X64.925 Y68.319
G1 F2400 X60.152 Y63.546 E64.14477
G1 X60.046 Y63.44
G0 F3600 X60.838 Y63.384
G1 F2400 X65.404 Y67.95 E64.62801
G1 X65.51 Y68.056
G0 F3600 X65.854 Y67.552
G1 F2400 X61.357 Y63.054 E65.10399
G1 X61.251 Y62.948
G0 F3600 X61.745 Y62.593
G1 F2400 X66.266 Y67.115 E65.58251
G1 X66.372 Y67.221
G0 F3600 X66.652 Y66.652
G1 F2400 X61.995 Y61.995 E66.07538
G1 X61.889 Y61.889
G0 F3600 X62.048 Y61.2
G1 F2400 X67.015 Y66.166 E66.601
G1 X67.121 Y66.272
G0 F3600 X63.879 Y68.97
G1 F2400 X51.972 Y57.063 E67.86115
G1 X51.866 Y56.957
G0 F3600 X51.123 Y57.063
G1 F2400 X63.298 Y69.237 E69.14962
G1 X63.404 Y69.343
G0 F3600 X62.684 Y69.472
G1 F2400 X50.275 Y57.063 E70.4629
G1 X50.169 Y56.957
G0 F3600 X49.426 Y57.063
G1 F2400 X62.029 Y69.666 E71.79672
G1 X62.135 Y69.772
G0 F3600 X61.328 Y69.814
G1 F2400 X48.578 Y57.063 E73.14614
G1 X48.472 Y56.957
G0 F3600 X47.729 Y57.063
G1 F2400 X60.564 Y69.898 E74.50451
G1 X60.67 Y70.004
G0 F3600 X59.728 Y69.91
G1 F2400 X46.881 Y57.063 E75.86415
G1 X46.775 Y56.957
G0 F3600 X46.032 Y57.063
G1 F2400 X58.8 Y69.831 E77.21542
G1 X58.906 Y69.937
G0 F3600 X57.721 Y69.601
G1 F2400 X45.184 Y57.063 E78.54231
G1 X45.078 Y56.957
G0 F3600 X44.335 Y57.063
G1 F2400 X56.359 Y69.087 E79.81484
G1 X56.465 Y69.193
G0 F3600 X52.347 Y65.923
G1 F2400 X43.487 Y57.063 E80.75253
G1 X43.381 Y56.957
G0 F3600 X42.638 Y57.063
G1 F2400 X51.498 Y65.923 E81.69021
G1 X51.604 Y66.029
G0 F3600 X50.65 Y65.923
G1 F2400 X41.79 Y57.063 E82.62789
G1 X41.684 Y56.957
G0 F3600 X40.941 Y57.063
G1 F2400 X49.801 Y65.923 E83.56557
G1 X49.907 Y66.029
G0 F3600 X48.953 Y65.923
G1 F2400 X40.092 Y57.063 E84.5033
G1 X39.986 Y56.957
G0 F3600 X39.244 Y57.063
G1 F2400 X48.104 Y65.923 E85.44099
G1 X48.21 Y66.029
G0 F3600 X47.255 Y65.923
G1 F2400 X38.395 Y57.063 E86.37867
G1 X38.289 Y56.957
G0 F3600 X37.547 Y57.063
G1 F2400 X46.407 Y65.923 E87.31635
G1 X46.513 Y66.029
G0 F3600 X45.558 Y65.923
G1 F2400 X36.698 Y57.063 E88.25403
G1 X36.592 Y56.957
G0 F3600 X35.85 Y57.063
G1 F2400 X44.71 Y65.923 E89.19171
G1 X44.816 Y66.029
G0 F3600 X43.861 Y65.923
G1 F2400 X35.001 Y57.063 E90.12939
G1 X34.895 Y56.957
G0 F3600 X34.153 Y57.063
G1 F2400 X43.013 Y65.923 E91.06707
G1 X43.119 Y66.029
G0 F3600 X42.164 Y65.923
G1 F2400 X33.304 Y57.063 E92.00475
G1 X33.198 Y56.957
G0 F3600 X32.456 Y57.063
G1 F2400 X41.316 Y65.923 E92.94244
G1 X41.422 Y66.029
G0 F3600 X40.467 Y65.923
G1 F2400 X31.607 Y57.063 E93.88012
G1 X31.501 Y56.957
G0 F3600 X30.759 Y57.063
G1 F2400 X39.619 Y65.923 E94.8178
G1 X39.725 Y66.029
G0 F3600 X38.77 Y65.923
G1 F2400 X29.916 Y57.069 E95.75484
G1 X29.81 Y56.963
G0 F3600 X29.154 Y57.156
G1 F2400 X37.922 Y65.923 E96.68274
G1 X38.028 Y66.029
G0 F3600 X37.073 Y65.923
G1 F2400 X28.491 Y57.341 E97.591
G1 X28.385 Y57.235
G0 F3600 X27.903 Y57.602
G1 F2400 X36.225 Y65.923 E98.47169
G1 X36.331 Y66.029
G0 F3600 X35.376 Y65.923
G1 F2400 X27.384 Y57.931 E99.3175
G1 X27.278 Y57.825
G0 F3600 X26.924 Y58.32
G1 F2400 X34.528 Y65.923 E100.12221
G1 X34.634 Y66.029
G0 F3600 X33.679 Y65.923
G1 F2400 X26.522 Y58.766 E100.87965
G1 X26.416 Y58.66
G0 F3600 X26.179 Y59.271
G1 F2400 X32.83 Y65.923 E101.5836
G1 X32.936 Y66.029
G0 F3600 X31.982 Y65.923
G1 F2400 X25.901 Y59.842 E102.22717
G1 X25.795 Y59.736
G0 F3600 X25.694 Y60.484
G1 F2400 X31.133 Y65.923 E102.8028
G1 X31.239 Y66.029
G0 F3600 X30.285 Y65.923
G1 F2400 X25.581 Y61.219 E103.30064
G1 X25.475 Y61.113
G0 F3600 X25.624 Y62.111
G1 F2400 X29.392 Y65.879 E103.69942
G1 X29.498 Y65.985
G0 F3600 X28.205 Y65.541
G1 F2400 X25.971 Y63.306 E103.9359
G1 X25.865 Y63.2
G0 F3600 X26.219 Y63.049
G0 X28.161 Y57.277
G0 X28.122 Y57.186
;TIME_ELAPSED:40.874997
;LAYER:1
M140 S60
G1 F3000 E97.4359
M106 S255
G0 F5400 X28.122 Y57.186 Z0.7
;TYPE:WALL-OUTER
G1 F3000 E103.9359
G1 F2400 X28.734 Y56.969 E104.00069
G1 X29.364 Y56.838 E104.0649
G1 X30.007 Y56.794 E104.12921
G1 X52.668 Y56.794 E106.39033
G1 X53.304 Y55.94 E106.49658
G1 X53.91 Y55.282 E106.58584
G1 X54.591 Y54.68 E106.67653
G1 X55.315 Y54.164 E106.76524
G1 X56.095 Y53.72 E106.8548
G1 X56.924 Y53.356 E106.94514
G1 X57.775 Y53.085 E107.03425
G1 X58.665 Y52.898 E107.12499
G1 X59.547 Y52.806 E107.21348
G1 X60.453 Y52.806 E107.30388
G1 X61.335 Y52.898 E107.39236
G1 X62.225 Y53.085 E107.48311
G1 X63.076 Y53.356 E107.57222
G1 X63.905 Y53.72 E107.66256
G1 X64.685 Y54.164 E107.75212
G1 X65.409 Y54.68 E107.84083
G1 X66.09 Y55.282 E107.93152
G1 X66.696 Y55.94 E108.02078
G1 X67.332 Y56.794 E108.12703
G1 X94.993 Y56.794 E110.88705
G1 X95.636 Y56.838 E110.95136
G1 X96.266 Y56.969 E111.01557
