;FLAVOR:Marlin
;TIME:278
;Filament used: 0.948253m
;Layer height: 0.4
;Generated with Cura_SteamEngine 2.7.0
M190 S60
M104 S220
M109 S220
G28 ;Home
G1 Z15.0 F6000 ;Move the platform down 15mm
;Prime the extruder
G92 E0
G1 F200 E3
G92 E0
;LAYER_COUNT:5
;LAYER:0
M107
G0 F3600 X45.3 Y32.8 Z0.3
;TYPE:WALL-OUTER
G1 F2400 X54.7 Y32.8 E0.70345
G1 X54.7 Y59.8 E2.72401
G1 X79.7 Y59.8 E4.59489
G1 X79.7 Y92.2 E7.01955
G1 X45.3 Y92.2 E9.59389
G1 X45.3 Y32.8 E14.0391
G0 F3600 X45.6 Y32.8
G0 X45.6 Y32.9
G0 X49.009 Y37.509
G0 X49.079 Y37.579
G1 F2400 X48.872 Y37.849 E14.06456
G1 X48.742 Y38.163 E14.09
G1 X48.697 Y38.5 E14.11544
G1 X48.742 Y38.837 E14.14088
G1 X48.872 Y39.151 E14.16632
G1 X49.079 Y39.421 E14.19178
G1 X49.349 Y39.628 E14.21724
G1 X49.663 Y39.758 E14.24267
G1 X50 Y39.803 E14.26811
G1 X50.337 Y39.758 E14.29356
G1 X50.651 Y39.628 E14.31899
G1 X50.921 Y39.421 E14.34445
G1 X51.128 Y39.151 E14.36991
G1 X51.258 Y38.837 E14.39534
G1 X51.303 Y38.5 E14.42078
G1 X51.258 Y38.163 E14.44623
G1 X51.128 Y37.849 E14.47166
G1 X50.921 Y37.579 E14.49712
G1 X50.651 Y37.372 E14.52258
G1 X50.337 Y37.242 E14.54801
G1 X50 Y37.197 E14.57346
G1 X49.663 Y37.242 E14.5989
G1 X49.349 Y37.372 E14.62433
G1 X49.079 Y37.579 E14.64979
G0 F3600 X48.897 Y37.817
G0 X48.818 Y37.756
G0 X48.657 Y38.5
G0 X50 Y53.097
G0 X50 Y53.197
G1 F2400 X49.663 Y53.242 E14.67524
G1 X49.349 Y53.372 E14.70067
G1 X49.079 Y53.579 E14.72613
G1 X48.872 Y53.849 E14.75159
G1 X48.742 Y54.163 E14.77702
G1 X48.697 Y54.5 E14.80247
G1 X48.742 Y54.837 E14.82791
G1 X48.872 Y55.151 E14.85334
G1 X49.079 Y55.421 E14.8788
G1 X49.349 Y55.628 E14.90426
G1 X49.663 Y55.758 E14.9297
G1 X50 Y55.803 E14.95514
G1 X50.337 Y55.758 E14.98058
G1 X50.651 Y55.628 E15.00601
G1 X50.921 Y55.421 E15.03147
G1 X51.128 Y55.151 E15.05694
G1 X51.258 Y54.837 E15.08237
G1 X51.303 Y54.5 E15.10781
G1 X51.258 Y54.163 E15.13325
G1 X51.128 Y53.849 E15.15869
G1 X50.921 Y53.579 E15.18415
G1 X50.651 Y53.372 E15.20961
G1 X50.337 Y53.242 E15.23504
G1 X50 Y53.197 E15.26048
G0 F3600 X49.702 Y53.236
G0 X49.688 Y53.137
G0 X50.347 Y53.204
G0 X54.664 Y55.559
G0 X54.672 Y59.828
G0 X67.786 Y61.95
G0 X67.872 Y61.999
G1 F2400 X67.742 Y62.313 E15.28592
G1 X67.697 Y62.65 E15.31136
G1 X67.742 Y62.987 E15.3368
G1 X67.872 Y63.301 E15.36224
G1 X68.079 Y63.571 E15.3877
G1 X68.349 Y63.778 E15.41316
G1 X68.663 Y63.908 E15.43859
G1 X69 Y63.953 E15.46403
G1 X69.337 Y63.908 E15.48948
G1 X69.651 Y63.778 E15.51491
G1 X69.921 Y63.571 E15.54037
G1 X70.128 Y63.301 E15.56583
G1 X70.258 Y62.987 E15.59126
G1 X70.303 Y62.65 E15.6167
G1 X70.258 Y62.313 E15.64215
G1 X70.128 Y61.999 E15.66758
G1 X69.921 Y61.729 E15.69304
G1 X69.651 Y61.522 E15.7185
G1 X69.337 Y61.392 E15.74393
G1 X69 Y61.347 E15.76938
G1 X68.663 Y61.392 E15.79482
G1 X68.349 Y61.522 E15.82025
G1 X68.079 Y61.729 E15.84571
G1 X67.872 Y61.999 E15.87117
G0 F3600 X67.757 Y62.276
G0 X67.665 Y62.238
G0 X67.704 Y62.997
G0 X68.638 Y67.696
G0 X68.663 Y67.792
G1 F2400 X68.349 Y67.922 E15.89661
G1 X68.079 Y68.129 E15.92207
G1 X67.872 Y68.399 E15.94753
G1 X67.742 Y68.713 E15.97296
G1 X67.697 Y69.05 E15.9984
G1 X67.742 Y69.387 E16.02385
G1 X67.872 Y69.701 E16.04928
G1 X68.079 Y69.971 E16.07474
G1 X68.349 Y70.178 E16.1002
G1 X68.663 Y70.308 E16.12563
G1 X69 Y70.353 E16.15108
G1 X69.337 Y70.308 E16.17652
G1 X69.651 Y70.178 E16.20195
G1 X69.921 Y69.971 E16.22741
G1 X70.128 Y69.701 E16.25287
G1 X70.258 Y69.387 E16.27831
G1 X70.303 Y69.05 E16.30375
G1 X70.258 Y68.713 E16.32919
G1 X70.128 Y68.399 E16.35462
G1 X69.921 Y68.129 E16.38008
G1 X69.651 Y67.922 E16.40555
G1 X69.337 Y67.792 E16.43098
G1 X69 Y67.747 E16.45642
G1 X68.663 Y67.792 E16.48186
G0 F3600 X68.386 Y67.907
G0 X68.348 Y67.815
G0 X67.838 Y68.38
G0 X67.704 Y68.703
G0 X66.344 Y85.143
G0 X66.32 Y85.239
G1 F2400 X65.983 Y85.2 E16.50725
G1 X65.647 Y85.248 E16.53265
G1 X65.335 Y85.382 E16.55806
G1 X65.068 Y85.592 E16.58348
G1 X64.865 Y85.864 E16.60888
G1 X64.739 Y86.18 E16.63434
G1 X64.7 Y86.517 E16.65973
G1 X64.748 Y86.853 E16.68513
G1 X64.882 Y87.165 E16.71054
G1 X65.092 Y87.432 E16.73596
G1 X65.364 Y87.635 E16.76136
G1 X65.68 Y87.761 E16.78682
G1 X66.017 Y87.8 E16.81221
G1 X66.353 Y87.752 E16.83761
G1 X66.665 Y87.618 E16.86302
G1 X66.932 Y87.408 E16.88844
G1 X67.135 Y87.136 E16.91384
G1 X67.261 Y86.82 E16.9393
G1 X67.3 Y86.483 E16.96468
G1 X67.252 Y86.147 E16.99008
G1 X67.118 Y85.835 E17.01549
G1 X66.908 Y85.568 E17.04092
G1 X66.636 Y85.365 E17.06631
G1 X66.32 Y85.239 E17.09177
G0 F3600 X66.022 Y85.205
G0 X66.033 Y85.106
G0 X53.403 Y86.5
G0 X53.303 Y86.5
G1 F2400 X53.258 Y86.163 E17.11722
G1 X53.128 Y85.849 E17.14265
G1 X52.921 Y85.579 E17.16811
G1 X52.651 Y85.372 E17.19357
G1 X52.337 Y85.242 E17.219
G1 X52 Y85.197 E17.24445
G1 X51.663 Y85.242 E17.26989
G1 X51.349 Y85.372 E17.29532
G1 X51.079 Y85.579 E17.32078
G1 X50.872 Y85.849 E17.34624
G1 X50.742 Y86.163 E17.37168
G1 X50.697 Y86.5 E17.39712
G1 X50.742 Y86.837 E17.42256
G1 X50.872 Y87.151 E17.44799
G1 X51.079 Y87.421 E17.47345
G1 X51.349 Y87.628 E17.49892
G1 X51.663 Y87.758 E17.52435
G1 X52 Y87.803 E17.54979
G1 X52.337 Y87.758 E17.57523
G1 X52.651 Y87.628 E17.60067
G1 X52.921 Y87.421 E17.62613
G1 X53.128 Y87.151 E17.65159
G1 X53.258 Y86.837 E17.67702
G1 X53.303 Y86.5 E17.70246
G0 F3600 X53.264 Y86.202
G0 X53.363 Y86.188
G0 X53.296 Y86.847
G0 X53.162 Y87.17
G0 X52.949 Y87.449
G0 X46.108 Y91.928
;TYPE:SKIN
G1 F2400 X45.569 Y91.39 E17.75945
G0 F3600 X45.569 Y90.541
G1 F2400 X46.956 Y91.928 E17.90625
G1 X47.062 Y92.034
G0 F3600 X47.805 Y91.928
G1 F2400 X45.569 Y89.692 E18.14289
G1 X45.463 Y89.586
G0 F3600 X45.569 Y88.844
G1 F2400 X48.653 Y91.928 E18.46928
G1 X48.759 Y92.034
G0 F3600 X49.502 Y91.928
G1 F2400 X45.569 Y87.995 E18.88552
G1 X45.463 Y87.889
G0 F3600 X45.569 Y87.147
G1 F2400 X50.35 Y91.928 E19.39151
G1 X50.456 Y92.034
G0 F3600 X51.199 Y91.928
G1 F2400 X45.569 Y86.298 E19.98735
G1 X45.463 Y86.192
G0 F3600 X45.569 Y85.45
G1 F2400 X52.048 Y91.928 E20.67299
G1 X52.154 Y92.034
G0 F3600 X52.896 Y91.928
G1 F2400 X45.569 Y84.601 E21.44843
G1 X45.463 Y84.495
G0 F3600 X45.569 Y83.753
G1 F2400 X53.745 Y91.928 E22.31366
G1 X53.851 Y92.034
G0 F3600 X54.593 Y91.928
G1 F2400 X45.569 Y82.904 E23.2687
G1 X45.463 Y82.798
G0 F3600 X45.569 Y82.056
G1 F2400 X50.52 Y87.007 E23.79268
G1 X50.626 Y87.113
G0 F3600 X50.477 Y86.115
G1 F2400 X45.569 Y81.207 E24.31211
G1 X45.463 Y81.101
G0 F3600 X45.569 Y80.359
G1 F2400 X50.76 Y85.55 E24.86149
G1 X50.866 Y85.656
G0 F3600 X51.202 Y85.143
G1 F2400 X45.569 Y79.51 E25.45765
G1 X45.463 Y79.404
G0 F3600 X45.569 Y78.662
G1 F2400 X51.851 Y84.944 E26.12249
G1 X51.957 Y85.05
G0 F3600 X52.67 Y85.338
G0 X52.949 Y85.551
G0 X53.162 Y85.83
G0 X53.554 Y86.647
G1 F2400 X58.836 Y91.928 E26.68145
G1 X58.942 Y92.034
G0 F3600 X59.684 Y91.928
G1 F2400 X45.569 Y77.813 E28.17528
G1 X45.463 Y77.707
G0 F3600 X45.569 Y76.965
G1 F2400 X60.533 Y91.928 E29.75892
G1 X60.639 Y92.034
G0 F3600 X61.381 Y91.928
G1 F2400 X45.569 Y76.116 E31.43235
G1 X45.463 Y76.01
G0 F3600 X45.569 Y75.267
G1 F2400 X62.23 Y91.928 E33.19564
G1 X62.336 Y92.034
G0 F3600 X63.078 Y91.928
G1 F2400 X45.569 Y74.419 E35.04867
G1 X45.463 Y74.313
G0 F3600 X45.569 Y73.57
G1 F2400 X63.927 Y91.928 E36.99155
G1 X64.033 Y92.034
G0 F3600 X64.775 Y91.928
G1 F2400 X45.569 Y72.722 E39.02418
G1 X45.463 Y72.616
G0 F3600 X45.569 Y71.873
G1 F2400 X65.624 Y91.928 E41.14667
G1 X65.73 Y92.034
G0 F3600 X66.472 Y91.928
G1 F2400 X45.569 Y71.025 E43.35889
G1 X45.463 Y70.919
G0 F3600 X45.569 Y70.176
G1 F2400 X67.321 Y91.928 E45.66098
G1 X67.427 Y92.034
G0 F3600 X68.17 Y91.928
G1 F2400 X45.569 Y69.328 E48.05286
G1 X45.463 Y69.222
G0 F3600 X45.569 Y68.479
G1 F2400 X69.018 Y91.928 E50.53454
G1 X69.124 Y92.034
G0 F3600 X69.867 Y91.928
G1 F2400 X66.009 Y88.07 E50.94284
G1 X65.903 Y87.964
G0 F3600 X66.688 Y87.901
G1 F2400 X70.715 Y91.928 E51.36903
G1 X70.821 Y92.034
G0 F3600 X71.564 Y91.928
G1 F2400 X67.172 Y87.536 E51.83385
G1 X67.066 Y87.43
G0 F3600 X67.479 Y86.996
G1 F2400 X72.412 Y91.928 E52.35587
G1 X72.518 Y92.034
G0 F3600 X73.261 Y91.928
G1 F2400 X67.532 Y86.199 E52.96219
G1 X67.426 Y86.093
G0 F3600 X66.935 Y85.54
G0 X66.296 Y84.964
G1 F2400 X45.569 Y64.237 E55.15579
G1 X45.463 Y64.131
G0 F3600 X45.569 Y65.085
G1 F2400 X65.5 Y85.016 E57.26515
G1 X65.606 Y85.122
G0 F3600 X64.964 Y85.329
G1 F2400 X45.569 Y65.934 E59.31779
G1 X45.463 Y65.828
G0 F3600 X45.569 Y66.782
G1 F2400 X64.596 Y85.809 E61.33147
G1 X64.702 Y85.915
G0 F3600 X64.431 Y86.493
G1 F2400 X45.569 Y67.631 E63.3277
G1 X45.463 Y67.525
G0 F3600 X45.569 Y63.388
G1 F2400 X74.109 Y91.928 E66.34817
G1 X74.215 Y92.034
G0 F3600 X74.958 Y91.928
G1 F2400 X45.569 Y62.54 E69.45845
G1 X45.463 Y62.434
G0 F3600 X45.568 Y61.69
G1 F2400 X75.806 Y91.928 E72.65863
G1 X75.912 Y92.034
G0 F3600 X76.655 Y91.928
G1 F2400 X45.568 Y60.842 E75.94861
G1 X45.462 Y60.736
G0 F3600 X45.568 Y59.993
G1 F2400 X77.503 Y91.928 E79.32839
G1 X77.609 Y92.034
G0 F3600 X78.352 Y91.928
G1 F2400 X45.568 Y59.145 E82.79797
G1 X45.462 Y59.039
G0 F3600 X45.568 Y58.296
G1 F2400 X79.2 Y91.928 E86.35735
G1 X79.306 Y92.034
G0 F3600 X79.43 Y91.309
G1 F2400 X45.568 Y57.448 E89.94102
G1 X45.462 Y57.342
G0 F3600 X45.568 Y56.599
G1 F2400 X79.43 Y90.46 E93.52468
G1 X79.536 Y90.566
G0 F3600 X79.43 Y89.612
G1 F2400 X45.568 Y55.751 E97.10835
G1 X45.462 Y55.645
G0 F3600 X45.568 Y54.902
G1 F2400 X79.43 Y88.763 E100.69202
G1 X79.536 Y88.869
G0 F3600 X79.43 Y87.915
G1 F2400 X45.568 Y54.054 E104.27569
G1 X45.462 Y53.948
G0 F3600 X45.568 Y53.205
G1 F2400 X79.43 Y87.066 E107.85935
G1 X79.536 Y87.172
G0 F3600 X79.43 Y86.218
G1 F2400 X45.568 Y52.357 E111.44302
G1 X45.462 Y52.251
G0 F3600 X45.568 Y51.508
G1 F2400 X48.441 Y54.38 E111.74703
G1 X48.547 Y54.486
G0 F3600 X48.631 Y53.723
G1 F2400 X45.568 Y50.659 E112.07125
G1 X45.462 Y50.553
G0 F3600 X45.568 Y49.811
G1 F2400 X49.03 Y53.273 E112.43764
G1 X49.136 Y53.379
G0 F3600 X49.586 Y52.98
G1 F2400 X45.568 Y48.962 E112.86288
G1 X45.462 Y48.856
G0 F3600 X45.568 Y48.114
G1 F2400 X50.449 Y52.995 E113.37945
G1 X50.555 Y53.101
G0 F3600 X51.503 Y54.049
G1 F2400 X54.429 Y56.975 E113.68912
G1 X54.535 Y57.081
G0 F3600 X54.429 Y57.823
G1 F2400 X51.517 Y54.911 E113.9973
G1 X51.411 Y54.805
G0 F3600 X51.224 Y55.467
G1 F2400 X54.429 Y58.672 E114.3365
G1 X54.535 Y58.778
G0 F3600 X54.429 Y59.52
G1 F2400 X50.776 Y55.867 E114.72311
G1 X50.67 Y55.761
G0 F3600 X50.119 Y56.058
G1 F2400 X79.43 Y85.369 E117.82518
G1 X79.536 Y85.475
G0 F3600 X79.43 Y84.521
G1 F2400 X54.978 Y60.07 E120.41296
G1 X54.872 Y59.964
G0 F3600 X55.827 Y60.07
G1 F2400 X79.43 Y83.672 E122.91089
G1 X79.536 Y83.778
G0 F3600 X79.43 Y82.824
G1 F2400 X56.676 Y60.07 E125.31901
G1 X56.57 Y59.964
G0 F3600 X57.524 Y60.07
G1 F2400 X79.43 Y81.975 E127.63734
G1 X79.536 Y82.081
G0 F3600 X79.43 Y81.127
G1 F2400 X68.916 Y70.613 E128.75007
G1 X68.81 Y70.507
G0 F3600 X69.63 Y70.478
G1 F2400 X79.43 Y80.278 E129.78723
G1 X79.536 Y80.384
G0 F3600 X79.43 Y79.43
G1 F2400 X70.135 Y70.135 E130.77095
G1 X70.029 Y70.029
G0 F3600 X70.457 Y69.609
G1 F2400 X79.43 Y78.581 E131.72054
G1 X79.536 Y78.687
G0 F3600 X79.43 Y77.732
G1 F2400 X70.546 Y68.849 E132.66071
G1 X70.44 Y68.743
G0 F3600 X69.949 Y68.101
G0 X69.198 Y67.501
G1 F2400 X61.767 Y60.07 E133.44715
G1 X61.661 Y59.964
G0 F3600 X62.615 Y60.07
G1 F2400 X79.43 Y76.884 E135.22668
G1 X79.536 Y76.99
G0 F3600 X79.43 Y76.035
G1 F2400 X63.464 Y60.07 E136.91636
G1 X63.358 Y59.964
G0 F3600 X64.312 Y60.07
G1 F2400 X67.605 Y63.362 E137.26482
G1 X67.711 Y63.468
G0 F3600 X68.287 Y64.044
G1 F2400 X79.43 Y75.187 E138.44412
G1 X79.536 Y75.293
G0 F3600 X79.43 Y74.338
G1 F2400 X69.278 Y64.187 E139.51848
G1 X69.172 Y64.081
G0 F3600 X69.881 Y63.941
G1 F2400 X79.43 Y73.49 E140.52908
G1 X79.536 Y73.596
G0 F3600 X79.43 Y72.641
G1 F2400 X70.303 Y63.515 E141.49497
G1 X70.197 Y63.409
G0 F3600 X70.539 Y62.902
G1 F2400 X79.43 Y71.793 E142.43593
G1 X79.536 Y71.899
G0 F3600 X79.43 Y70.944
G1 F2400 X70.374 Y61.888 E143.39435
G1 X70.268 Y61.782
G0 F3600 X69.759 Y61.274
G1 F2400 X68.555 Y60.07 E143.52178
G1 X68.449 Y59.964
G0 F3600 X69.403 Y60.07
G1 F2400 X79.43 Y70.096 E144.58291
G1 X79.536 Y70.202
G0 F3600 X79.43 Y69.247
G1 F2400 X70.252 Y60.07 E145.55419
G1 X70.146 Y59.964
G0 F3600 X71.101 Y60.07
G1 F2400 X79.43 Y68.399 E146.43568
G1 X79.536 Y68.505
G0 F3600 X79.43 Y67.55
G1 F2400 X71.949 Y60.07 E147.22736
G1 X71.843 Y59.964
G0 F3600 X72.798 Y60.07
G1 F2400 X79.43 Y66.702 E147.92925
G1 X79.536 Y66.808
G0 F3600 X79.43 Y65.853
G1 F2400 X73.646 Y60.07 E148.54133
G1 X73.54 Y59.964
G0 F3600 X74.495 Y60.07
G1 F2400 X79.43 Y65.005 E149.06362
G1 X79.536 Y65.111
G0 F3600 X79.43 Y64.156
G1 F2400 X75.343 Y60.07 E149.49611
G1 X75.237 Y59.964
G0 F3600 X76.192 Y60.07
G1 F2400 X79.43 Y63.307 E149.83874
G1 X79.536 Y63.413
G0 F3600 X79.43 Y62.459
G1 F2400 X77.04 Y60.07 E150.09163
G1 X76.934 Y59.964
G0 F3600 X77.889 Y60.07
G1 F2400 X79.43 Y61.61 E150.25467
G1 X79.536 Y61.716
G0 F3600 X79.43 Y60.762
G1 F2400 X78.737 Y60.07 E150.32796
G0 F3600 X68.745 Y61.108
G1 F2400 X67.706 Y60.07 E150.43786
G1 X67.6 Y59.964
G0 F3600 X66.858 Y60.07
G1 F2400 X68.133 Y61.345 E150.5728
G1 X68.239 Y61.451
G0 F3600 X67.708 Y61.768
G1 F2400 X66.009 Y60.07 E150.75256
G1 X65.903 Y59.964
G0 F3600 X65.161 Y60.07
G1 F2400 X67.462 Y62.371 E150.99608
G1 X67.568 Y62.477
G0 F3600 X68.44 Y67.591
G1 F2400 X60.918 Y60.07 E151.7921
G1 X60.812 Y59.964
G0 F3600 X60.07 Y60.07
G1 F2400 X67.913 Y67.913 E152.62215
G1 X68.019 Y68.019
G0 F3600 X67.571 Y68.42
G1 F2400 X59.221 Y60.07 E153.50586
G1 X59.115 Y59.964
G0 F3600 X58.373 Y60.07
G1 F2400 X67.436 Y69.133 E154.46502
G1 X67.542 Y69.239
G0 F3600 X54.672 Y59.828
G0 X54.429 Y56.126
G1 F2400 X45.568 Y47.265 E155.40281
G1 X45.462 Y47.159
G0 F3600 X45.568 Y46.417
G1 F2400 X54.429 Y55.278 E156.3406
G1 X54.535 Y55.384
G0 F3600 X54.429 Y54.429
G1 F2400 X45.568 Y45.568 E157.27839
G1 X45.462 Y45.462
G0 F3600 X45.568 Y44.72
G1 F2400 X54.429 Y53.581 E158.21617
G1 X54.535 Y53.687
G0 F3600 X54.429 Y52.732
G1 F2400 X45.568 Y43.871 E159.15396
G1 X45.462 Y43.765
G0 F3600 X45.568 Y43.023
G1 F2400 X54.429 Y51.883 E160.09169
G1 X54.535 Y51.989
G0 F3600 X54.429 Y51.035
G1 F2400 X45.568 Y42.174 E161.02948
G1 X45.462 Y42.068
G0 F3600 X45.568 Y41.326
G1 F2400 X54.429 Y50.186 E161.96722
G1 X54.535 Y50.292
G0 F3600 X54.429 Y49.338
G1 F2400 X45.568 Y40.477 E162.905
G1 X45.462 Y40.371
G0 F3600 X45.568 Y39.629
G1 F2400 X54.429 Y48.489 E163.84274
G1 X54.535 Y48.595
G0 F3600 X54.429 Y47.641
G1 F2400 X45.568 Y38.78 E164.78052
G1 X45.462 Y38.674
G0 F3600 X45.568 Y37.932
G1 F2400 X54.429 Y46.792 E165.71826
G1 X54.535 Y46.898
G0 F3600 X54.429 Y45.944
G1 F2400 X45.568 Y37.083 E166.65605
G1 X45.462 Y36.977
G0 F3600 X45.568 Y36.234
G1 F2400 X48.681 Y39.347 E166.9855
G1 X48.787 Y39.453
G0 F3600 X49.151 Y39.817
G1 F2400 X54.429 Y45.095 E167.54409
G1 X54.535 Y45.201
G0 F3600 X54.429 Y44.247
G1 F2400 X50.226 Y40.044 E167.98891
G1 X50.12 Y39.938
G0 F3600 X50.848 Y39.817
G1 F2400 X54.429 Y43.398 E168.3679
G1 X54.535 Y43.504
G0 F3600 X54.429 Y42.55
G1 F2400 X51.277 Y39.397 E168.70153
G1 X51.171 Y39.291
G0 F3600 X51.532 Y38.804
G1 F2400 X54.429 Y41.701 E169.00813
G1 X54.535 Y41.807
G0 F3600 X54.429 Y40.853
G1 F2400 X51.414 Y37.837 E169.32727
G1 X51.308 Y37.731
G0 F3600 X50.66 Y37.084
G1 F2400 X46.646 Y33.069 E169.75214
G1 X46.54 Y32.963
G0 F3600 X47.494 Y33.069
G1 F2400 X54.429 Y40.004 E170.48609
G1 X54.535 Y40.11
G0 F3600 X54.429 Y39.156
G1 F2400 X48.343 Y33.069 E171.13025
G1 X48.237 Y32.963
G0 F3600 X49.192 Y33.069
G1 F2400 X54.429 Y38.307 E171.68455
G1 X54.535 Y38.413
G0 F3600 X54.429 Y37.458
G1 F2400 X50.04 Y33.069 E172.14905
G1 X49.934 Y32.963
G0 F3600 X50.889 Y33.069
G1 F2400 X54.429 Y36.61 E172.52375
G1 X54.535 Y36.716
G0 F3600 X54.429 Y35.761
G1 F2400 X51.737 Y33.069 E172.80865
G1 X51.631 Y32.963
G0 F3600 X52.586 Y33.069
G1 F2400 X54.429 Y34.913 E173.00376
G1 X54.535 Y35.019
G0 F3600 X54.429 Y34.064
G1 F2400 X53.434 Y33.069 E173.10906
G1 X53.328 Y32.963
G0 F3600 X54.283 Y33.069
G1 F2400 X54.429 Y33.216 E173.12456
G0 F3600 X49.693 Y36.965
G1 F2400 X45.797 Y33.069 E173.53689
G1 X45.691 Y32.963
G0 F3600 X45.568 Y33.689
G1 F2400 X49.1 Y37.22 E173.91064
G1 X49.206 Y37.326
G0 F3600 X48.682 Y37.651
