;FLAVOR:Marlin
;TIME:203
;Filament used: 0.677883m
;Layer height: 0.4
;Generated with Cura_SteamEngine 2.7.0
M190 S60
M104 S220
M109 S220
G28 ;Home
G1 Z15.0 F6000 ;Move the platform down 15mm
;Prime the extruder
G92 E0
G1 F200 E3
G92 E0
;LAYER_COUNT:8
;LAYER:0
M107
G0 F3600 X30.3 Y65.7 Z0.3
;TYPE:WALL-OUTER
G1 F2400 X78.3 Y65.7 E3.59209
G1 X78.3 Y46.011 E5.06553
G1 X78.343 Y45.531 E5.10159
G1 X78.464 Y45.078 E5.13668
G1 X78.663 Y44.651 E5.17194
G1 X78.934 Y44.264 E5.20729
G1 X79.264 Y43.934 E5.24222
G1 X79.651 Y43.663 E5.27757
G1 X80.078 Y43.464 E5.31283
G1 X80.531 Y43.343 E5.34792
G1 X81.015 Y43.3 E5.38428
G1 X94.7 Y43.3 E6.4084
G1 X94.7 Y70.097 E8.41376
G1 X40.7 Y70.097 E12.45487
G1 X40.7 Y76.765 E12.95387
G1 X30.724 Y81.338 E13.77513
G1 X30.3 Y81.532 E13.81002
G1 X30.3 Y81.066 E13.83023
G1 X30.3 Y81.065 E13.8303
G1 X30.3 Y65.7 E14.98015
G0 F3600 X30.6 Y65.7
G0 X30.6 Y65.8
G0 X78.328 Y65.728
G0 X79.649 Y46.374
G0 X79.745 Y46.348
G1 F2400 X79.878 Y46.661 E15.0056
G1 X80.088 Y46.928 E15.03102
G1 X80.359 Y47.132 E15.0564
G1 X80.674 Y47.26 E15.08185
G1 X81.011 Y47.302 E15.10726
G1 X81.348 Y47.255 E15.13272
G1 X81.661 Y47.122 E15.15817
G1 X81.928 Y46.912 E15.18359
G1 X82.132 Y46.641 E15.20898
G1 X82.26 Y46.326 E15.23442
G1 X82.302 Y45.989 E15.25984
G1 X82.255 Y45.652 E15.2853
G1 X82.122 Y45.339 E15.31075
G1 X81.912 Y45.072 E15.33617
G1 X81.641 Y44.868 E15.36156
G1 X81.326 Y44.74 E15.387
G1 X80.989 Y44.698 E15.41242
G1 X80.652 Y44.745 E15.43788
G1 X80.339 Y44.878 E15.46333
G1 X80.072 Y45.088 E15.48875
G1 X79.868 Y45.359 E15.51414
G1 X79.74 Y45.674 E15.53958
G1 X79.698 Y46.011 E15.565
G1 X79.745 Y46.348 E15.59046
G0 F3600 X79.862 Y46.624
G0 X79.769 Y46.662
G0 X80.34 Y47.166
G0 X87.334 Y50.083
G0 X87.421 Y50.131
G1 F2400 X87.254 Y50.552 E15.62435
G1 X87.2 Y50.986 E15.65708
G1 X87.25 Y51.432 E15.69067
G1 X87.414 Y51.854 E15.72455
G1 X87.677 Y52.221 E15.75834
G1 X88.02 Y52.511 E15.79195
G1 X88.428 Y52.708 E15.82586
G1 X88.871 Y52.795 E15.85964
G1 X89.322 Y52.773 E15.89343
G1 X89.752 Y52.637 E15.92718
G1 X90.135 Y52.399 E15.96093
G1 X90.447 Y52.072 E15.99475
G1 X90.668 Y51.678 E16.02856
G1 X90.784 Y51.242 E16.06232
G1 X90.788 Y50.792 E16.096
G1 X90.681 Y50.353 E16.12981
G1 X90.467 Y49.954 E16.1637
G1 X90.161 Y49.622 E16.19748
G1 X89.782 Y49.378 E16.23122
G1 X89.339 Y49.23 E16.26617
G1 X88.887 Y49.201 E16.30007
G1 X88.442 Y49.285 E16.33395
G1 X88.034 Y49.479 E16.36776
G1 X87.687 Y49.766 E16.40146
G1 X87.421 Y50.131 E16.43526
G0 F3600 X87.311 Y50.41
G0 X87.218 Y50.374
G0 X87.658 Y49.739
G0 X94.429 Y44.366
;TYPE:SKIN
G1 F2400 X93.632 Y43.569 E16.51961
G0 F3600 X92.784 Y43.569
G1 F2400 X94.429 Y45.214 E16.69371
G1 X94.535 Y45.32
G0 F3600 X94.429 Y46.063
G1 F2400 X91.935 Y43.569 E16.95765
G1 X91.829 Y43.463
G0 F3600 X91.087 Y43.569
G1 F2400 X94.429 Y46.911 E17.31135
G1 X94.535 Y47.017
G0 F3600 X94.429 Y47.76
G1 F2400 X90.238 Y43.569 E17.75489
G1 X90.132 Y43.463
G0 F3600 X89.39 Y43.569
G1 F2400 X94.429 Y48.608 E18.28819
G1 X94.535 Y48.714
G0 F3600 X94.429 Y49.457
G1 F2400 X88.541 Y43.569 E18.91133
G1 X88.435 Y43.463
G0 F3600 X87.693 Y43.569
G1 F2400 X94.429 Y50.305 E19.62422
G1 X94.535 Y50.411
G0 F3600 X94.429 Y51.154
G1 F2400 X86.844 Y43.569 E20.42697
G1 X86.738 Y43.463
G0 F3600 X85.996 Y43.569
G1 F2400 X94.429 Y52.002 E21.31946
G1 X94.535 Y52.108
G0 F3600 X94.429 Y52.851
G1 F2400 X85.147 Y43.569 E22.3018
G1 X85.041 Y43.463
G0 F3600 X84.299 Y43.569
G1 F2400 X89.841 Y49.112 E22.88838
G1 X89.947 Y49.218
G0 F3600 X88.818 Y48.938
G1 F2400 X83.45 Y43.569 E23.45655
G1 X83.344 Y43.463
G0 F3600 X82.602 Y43.569
G1 F2400 X88.154 Y49.122 E24.04419
G1 X88.26 Y49.228
G0 F3600 X87.638 Y49.454
G1 F2400 X81.753 Y43.569 E24.66701
G1 X81.647 Y43.463
G0 F3600 X80.915 Y43.58
G1 F2400 X87.247 Y49.911 E25.3371
G1 X87.353 Y50.017
G0 F3600 X86.988 Y50.501
G1 F2400 X82.561 Y46.075 E25.80557
G1 X82.455 Y45.969
G0 F3600 X82.38 Y46.741
G1 F2400 X86.967 Y51.328 E26.29102
G1 X87.073 Y51.434
G0 F3600 X87.648 Y52.248
G0 X88.669 Y53.03
G1 F2400 X94.429 Y58.79 E26.90062
G1 X94.535 Y58.896
G0 F3600 X94.429 Y57.942
G1 F2400 X89.489 Y53.002 E27.42344
G1 X89.383 Y52.896
G0 F3600 X90.084 Y52.749
G1 F2400 X94.429 Y57.093 E27.88323
G1 X94.535 Y57.199
G0 F3600 X94.429 Y56.245
G1 F2400 X90.543 Y52.359 E28.2945
G1 X90.437 Y52.253
G0 F3600 X90.88 Y51.848
G1 F2400 X94.429 Y55.396 E28.67004
G1 X94.535 Y55.502
G0 F3600 X94.429 Y54.548
G1 F2400 X91.054 Y51.173 E29.02723
G1 X90.948 Y51.067
G0 F3600 X90.876 Y50.147
G1 F2400 X94.429 Y53.699 E29.4032
G1 X94.535 Y53.805
G0 F3600 X94.429 Y59.639
G1 F2400 X81.993 Y47.203 E30.71934
G1 X81.887 Y47.097
G0 F3600 X81.447 Y47.506
G1 F2400 X94.429 Y60.488 E32.09327
G1 X94.535 Y60.594
G0 F3600 X94.429 Y61.336
G1 F2400 X80.617 Y47.525 E33.55498
G1 X80.511 Y47.419
G0 F3600 X79.476 Y46.384
G1 F2400 X78.622 Y45.529 E33.64542
G1 X78.516 Y45.423
G0 F3600 X79.17 Y45.228
G1 F2400 X79.489 Y44.699 E33.71237
G1 X79.948 Y44.31 E33.77736
G1 X80.559 Y44.072 E33.84835
G0 F3600 X80.198 Y43.711
G0 X78.569 Y46.325
G1 F2400 X94.429 Y62.185 E35.52686
G1 X94.535 Y62.291
G0 F3600 X94.429 Y63.033
G1 F2400 X78.569 Y47.173 E37.20537
G1 X78.463 Y47.067
G0 F3600 X78.569 Y48.022
G1 F2400 X94.429 Y63.882 E38.88389
G1 X94.535 Y63.988
G0 F3600 X94.429 Y64.73
G1 F2400 X78.569 Y48.87 E40.5624
G1 X78.463 Y48.764
G0 F3600 X78.569 Y49.719
G1 F2400 X94.429 Y65.579 E42.24091
G1 X94.535 Y65.685
G0 F3600 X94.429 Y66.427
G1 F2400 X78.569 Y50.568 E43.91937
G1 X78.463 Y50.462
G0 F3600 X78.569 Y51.416
G1 F2400 X94.429 Y67.276 E45.59789
G1 X94.535 Y67.382
G0 F3600 X94.429 Y68.124
G1 F2400 X78.569 Y52.265 E47.27635
G1 X78.463 Y52.159
G0 F3600 X78.569 Y53.113
G1 F2400 X94.429 Y68.973 E48.95486
G1 X94.535 Y69.079
G0 F3600 X94.429 Y69.821
G1 F2400 X78.569 Y53.962 E50.63332
G1 X78.463 Y53.856
G0 F3600 X78.569 Y54.81
G1 F2400 X93.585 Y69.826 E52.22251
G1 X93.691 Y69.932
G0 F3600 X92.737 Y69.826
G1 F2400 X78.569 Y55.659 E53.7219
G1 X78.463 Y55.553
G0 F3600 X78.569 Y56.507
G1 F2400 X91.888 Y69.826 E55.13149
G1 X91.994 Y69.932
G0 F3600 X91.039 Y69.826
G1 F2400 X78.569 Y57.356 E56.45123
G1 X78.463 Y57.25
G0 F3600 X78.569 Y58.204
G1 F2400 X90.191 Y69.826 E57.68122
G1 X90.297 Y69.932
G0 F3600 X89.342 Y69.826
G1 F2400 X78.569 Y59.053 E58.82136
G1 X78.463 Y58.947
G0 F3600 X78.569 Y59.901
G1 F2400 X88.494 Y69.826 E59.87176
G1 X88.6 Y69.932
G0 F3600 X87.645 Y69.826
G1 F2400 X78.569 Y60.75 E60.8323
G1 X78.463 Y60.644
G0 F3600 X78.569 Y61.598
G1 F2400 X86.797 Y69.826 E61.70309
G1 X86.903 Y69.932
G0 F3600 X85.948 Y69.826
G1 F2400 X78.569 Y62.447 E62.48403
G1 X78.463 Y62.341
G0 F3600 X78.569 Y63.295
G1 F2400 X85.1 Y69.826 E63.17523
G1 X85.206 Y69.932
G0 F3600 X84.251 Y69.826
G1 F2400 X78.569 Y64.144 E63.77657
G1 X78.463 Y64.038
G0 F3600 X78.569 Y64.993
G1 F2400 X83.403 Y69.826 E64.28812
G1 X83.509 Y69.932
G0 F3600 X82.554 Y69.826
G1 F2400 X78.569 Y65.841 E64.70986
G1 X78.463 Y65.735
G0 F3600 X77.849 Y65.97
G1 F2400 X81.706 Y69.826 E65.11801
G1 X81.812 Y69.932
G0 F3600 X80.857 Y69.826
G1 F2400 X77.001 Y65.97 E65.5261
G1 X76.895 Y65.864
G0 F3600 X76.152 Y65.97
G1 F2400 X80.009 Y69.826 E65.93425
G1 X80.115 Y69.932
G0 F3600 X79.16 Y69.826
G1 F2400 X75.304 Y65.97 E66.34234
G1 X75.198 Y65.864
G0 F3600 X74.455 Y65.97
G1 F2400 X78.312 Y69.826 E66.75048
G1 X78.418 Y69.932
G0 F3600 X77.463 Y69.826
G1 F2400 X73.606 Y65.97 E67.15863
G1 X73.5 Y65.864
G0 F3600 X72.758 Y65.97
G1 F2400 X76.615 Y69.826 E67.56677
G1 X76.721 Y69.932
G0 F3600 X75.766 Y69.826
G1 F2400 X71.909 Y65.97 E67.97492
G1 X71.803 Y65.864
G0 F3600 X71.061 Y65.97
G1 F2400 X74.917 Y69.826 E68.38301
G1 X75.023 Y69.932
G0 F3600 X74.069 Y69.826
G1 F2400 X70.212 Y65.97 E68.79116
G1 X70.106 Y65.864
G0 F3600 X69.364 Y65.97
G1 F2400 X73.22 Y69.826 E69.19925
G1 X73.326 Y69.932
G0 F3600 X72.372 Y69.826
G1 F2400 X68.515 Y65.97 E69.6074
G1 X68.409 Y65.864
G0 F3600 X67.667 Y65.97
G1 F2400 X71.523 Y69.826 E70.01549
G1 X71.629 Y69.932
G0 F3600 X70.675 Y69.826
G1 F2400 X66.818 Y65.97 E70.42363
G1 X66.712 Y65.864
G0 F3600 X65.97 Y65.97
G1 F2400 X69.826 Y69.826 E70.83173
G1 X69.932 Y69.932
G0 F3600 X68.978 Y69.826
G1 F2400 X65.121 Y65.97 E71.23987
G1 X65.015 Y65.864
G0 F3600 X64.273 Y65.97
G1 F2400 X68.129 Y69.826 E71.64796
G1 X68.235 Y69.932
G0 F3600 X67.28 Y69.826
G1 F2400 X63.424 Y65.97 E72.05606
G1 X63.318 Y65.864
G0 F3600 X62.576 Y65.97
G1 F2400 X66.431 Y69.826 E72.4641
G1 X66.537 Y69.932
G0 F3600 X65.583 Y69.826
G1 F2400 X61.727 Y65.97 E72.87219
G1 X61.621 Y65.864
G0 F3600 X60.879 Y65.97
G1 F2400 X64.734 Y69.826 E73.28023
G1 X64.84 Y69.932
G0 F3600 X63.886 Y69.826
G1 F2400 X60.03 Y65.97 E73.68832
G1 X59.924 Y65.864
G0 F3600 X59.182 Y65.97
G1 F2400 X63.037 Y69.826 E74.09636
G1 X63.143 Y69.932
G0 F3600 X62.189 Y69.826
G1 F2400 X58.333 Y65.97 E74.50445
G1 X58.227 Y65.864
G0 F3600 X57.484 Y65.97
G1 F2400 X61.34 Y69.826 E74.91254
G1 X61.446 Y69.932
G0 F3600 X60.492 Y69.826
G1 F2400 X56.636 Y65.97 E75.32064
G1 X56.53 Y65.864
G0 F3600 X55.787 Y65.97
G1 F2400 X59.643 Y69.826 E75.72873
G1 X59.749 Y69.932
G0 F3600 X58.795 Y69.826
G1 F2400 X54.939 Y65.97 E76.13682
G1 X54.833 Y65.864
G0 F3600 X54.09 Y65.97
G1 F2400 X57.946 Y69.826 E76.54491
G1 X58.052 Y69.932
G0 F3600 X57.098 Y69.826
G1 F2400 X53.242 Y65.97 E76.95301
G1 X53.136 Y65.864
G0 F3600 X52.393 Y65.97
G1 F2400 X56.249 Y69.826 E77.3611
G1 X56.355 Y69.932
G0 F3600 X55.401 Y69.826
G1 F2400 X51.545 Y65.97 E77.76919
G1 X51.439 Y65.864
G0 F3600 X50.696 Y65.97
G1 F2400 X54.552 Y69.826 E78.17728
G1 X54.658 Y69.932
G0 F3600 X53.704 Y69.826
G1 F2400 X49.848 Y65.97 E78.58538
G1 X49.742 Y65.864
G0 F3600 X48.999 Y65.97
G1 F2400 X52.855 Y69.826 E78.99347
G1 X52.961 Y69.932
G0 F3600 X52.006 Y69.826
G1 F2400 X48.151 Y65.97 E79.40151
G1 X48.045 Y65.864
G0 F3600 X47.302 Y65.97
G1 F2400 X51.158 Y69.826 E79.8096
G1 X51.264 Y69.932
G0 F3600 X50.309 Y69.826
G1 F2400 X46.454 Y65.97 E80.21764
G1 X46.348 Y65.864
G0 F3600 X45.605 Y65.97
G1 F2400 X49.461 Y69.826 E80.62573
G1 X49.567 Y69.932
G0 F3600 X48.612 Y69.826
G1 F2400 X44.757 Y65.97 E81.03377
G1 X44.651 Y65.864
G0 F3600 X43.908 Y65.97
G1 F2400 X47.764 Y69.826 E81.44186
G1 X47.87 Y69.932
G0 F3600 X46.915 Y69.826
G1 F2400 X43.059 Y65.97 E81.84996
G1 X42.953 Y65.864
G0 F3600 X42.211 Y65.97
G1 F2400 X46.067 Y69.826 E82.25805
G1 X46.173 Y69.932
G0 F3600 X45.218 Y69.826
G1 F2400 X41.362 Y65.97 E82.66614
G1 X41.256 Y65.864
G0 F3600 X40.514 Y65.97
G1 F2400 X44.37 Y69.826 E83.07423
G1 X44.476 Y69.932
G0 F3600 X43.521 Y69.826
G1 F2400 X39.665 Y65.97 E83.48233
G1 X39.559 Y65.864
G0 F3600 X38.817 Y65.97
G1 F2400 X42.673 Y69.826 E83.89042
G1 X42.779 Y69.932
G0 F3600 X41.824 Y69.826
G1 F2400 X37.968 Y65.97 E84.29851
G1 X37.862 Y65.864
G0 F3600 X37.12 Y65.97
G1 F2400 X40.976 Y69.826 E84.7066
G1 X41.082 Y69.932
G0 F3600 X40.43 Y70.128
G1 F2400 X36.271 Y65.97 E85.14671
G1 X36.165 Y65.864
G0 F3600 X35.423 Y65.97
G1 F2400 X40.43 Y70.977 E85.67662
G1 X40.536 Y71.083
G0 F3600 X40.43 Y71.825
G1 F2400 X34.574 Y65.97 E86.29632
G1 X34.468 Y65.864
G0 F3600 X33.726 Y65.97
G1 F2400 X40.43 Y72.674 E87.00583
G1 X40.536 Y72.78
G0 F3600 X40.43 Y73.522
G1 F2400 X32.877 Y65.97 E87.80513
G1 X32.771 Y65.864
G0 F3600 X32.029 Y65.97
G1 F2400 X40.43 Y74.371 E88.69424
G1 X40.536 Y74.477
G0 F3600 X40.43 Y75.219
G1 F2400 X31.18 Y65.97 E89.67314
G1 X31.074 Y65.864
G0 F3600 X30.57 Y66.208
G1 F2400 X40.43 Y76.068 E90.71665
G1 X40.536 Y76.174
G0 F3600 X40.206 Y76.692
G1 F2400 X30.57 Y67.057 E91.73641
G1 X30.464 Y66.951
G0 F3600 X30.57 Y67.905
G1 F2400 X39.624 Y76.959 E92.69462
G1 X39.73 Y77.065
G0 F3600 X39.042 Y77.225
G1 F2400 X30.57 Y68.754 E93.59119
G1 X30.464 Y68.648
G0 F3600 X30.57 Y69.602
G1 F2400 X38.46 Y77.492 E94.42621
G1 X38.566 Y77.598
G0 F3600 X37.878 Y77.759
G1 F2400 X30.57 Y70.451 E95.19964
G1 X30.464 Y70.345
G0 F3600 X30.57 Y71.299
G1 F2400 X37.297 Y78.026 E95.91158
G1 X37.403 Y78.132
G0 F3600 X36.715 Y78.292
G1 F2400 X30.57 Y72.148 E96.56187
G1 X30.464 Y72.042
G0 F3600 X30.57 Y72.996
G1 F2400 X36.133 Y78.559 E97.15062
G1 X36.239 Y78.665
G0 F3600 X35.551 Y78.826
G1 F2400 X30.57 Y73.845 E97.67777
G1 X30.464 Y73.739
G0 F3600 X30.57 Y74.693
G1 F2400 X34.969 Y79.092 E98.14333
G1 X35.075 Y79.198
G0 F3600 X34.388 Y79.36
G1 F2400 X30.57 Y75.542 E98.5474
G1 X30.464 Y75.436
G0 F3600 X30.57 Y76.39
G1 F2400 X33.806 Y79.626 E98.88988
G1 X33.912 Y79.732
G0 F3600 X33.224 Y79.893
G1 F2400 X30.57 Y77.239 E99.17076
G1 X30.464 Y77.133
G0 F3600 X30.57 Y78.087
G1 F2400 X32.642 Y80.159 E99.39005
G1 X32.748 Y80.265
G0 F3600 X32.06 Y80.426
G1 F2400 X30.57 Y78.936 E99.54774
G1 X30.464 Y78.83
G0 F3600 X30.57 Y79.784
G1 F2400 X31.478 Y80.692 E99.64383
G1 X31.584 Y80.798
G0 F3600 X30.897 Y80.96
G1 F2400 X30.57 Y80.633 E99.67844
G0 F3600 X30.887 Y80.603
G0 X30.37 Y65.77
G0 X30.3 Y65.7
;TIME_ELAPSED:40.183491
;LAYER:1
M140 S60
G1 F3000 E93.17844
M106 S255
G0 F5400 X30.3 Y65.7 Z0.7
;TYPE:WALL-OUTER
G1 F3000 E99.67844
G1 F2400 X78.3 Y65.7 E104.4679
G1 X78.3 Y46.015 E106.43208
G1 X78.343 Y45.531 E106.48056
G1 X78.464 Y45.078 E106.52735
G1 X78.663 Y44.651 E106.57435
G1 X78.934 Y44.264 E106.6215
G1 X79.264 Y43.934 E106.66806
G1 X79.651 Y43.663 E106.7152
G1 X80.078 Y43.464 E106.76221
G1 X80.531 Y43.343 E106.80899
G1 X81.015 Y43.3 E106.85748
G1 X94.7 Y43.3 E108.22297
G1 X94.7 Y70.097 E110.89679
G1 X40.7 Y70.097 E116.28493
G1 X40.7 Y76.765 E116.95027
G1 X30.724 Y81.338 E118.04528
G1 X30.3 Y81.532 E118.0918
G1 X30.3 Y81.066 E118.11874
G1 X30.3 Y81.065 E118.11884
G1 X30.3 Y65.7 E119.65197
G0 F5400 X30.6 Y65.7
G0 X30.6 Y65.8
G0 X78.328 Y65.728
G0 X79.646 Y46.362
G0 X79.742 Y46.337
G1 F2400 X79.872 Y46.651 E119.68588
G1 X80.079 Y46.921 E119.71982
G1 X80.349 Y47.128 E119.75377
G1 X80.663 Y47.258 E119.78768
G1 X81 Y47.303 E119.82161
G1 X81.337 Y47.258 E119.85553
G1 X81.651 Y47.128 E119.88944
G1 X81.921 Y46.921 E119.92339
G1 X82.128 Y46.651 E119.95734
G1 X82.258 Y46.337 E119.99125
G1 X82.303 Y46 E120.02517
G1 X82.258 Y45.663 E120.05909
G1 X82.128 Y45.349 E120.093
G1 X81.921 Y45.079 E120.12695
G1 X81.651 Y44.872 E120.1609
G1 X81.337 Y44.742 E120.19481
G1 X81 Y44.697 E120.22873
G1 X80.663 Y44.742 E120.26266
G1 X80.349 Y44.872 E120.29657
G1 X80.079 Y45.079 E120.33052
G1 X79.872 Y45.349 E120.36446
G1 X79.742 Y45.663 E120.39837
G1 X79.697 Y46 E120.4323
G1 X79.742 Y46.337 E120.46622
G0 F5400 X79.857 Y46.614
G0 X79.765 Y46.652
G0 X80.33 Y47.162
G0 X87.334 Y50.083
G0 X87.421 Y50.131
G1 F2400 X87.254 Y50.552 E120.51141
G1 X87.198 Y51 E120.55646
G1 X87.254 Y51.448 E120.60151
G1 X87.421 Y51.869 E120.6467
G1 X87.687 Y52.234 E120.69177
G1 X88.034 Y52.521 E120.7367
G1 X88.442 Y52.715 E120.78178
G1 X88.887 Y52.799 E120.82697
G1 X89.338 Y52.77 E120.87206
G1 X89.768 Y52.631 E120.91715
G1 X90.149 Y52.389 E120.96219
G1 X90.459 Y52.06 E121.00729
G1 X90.676 Y51.663 E121.05244
G1 X90.788 Y51.226 E121.09745
G1 X90.788 Y50.774 E121.14255
G1 X90.676 Y50.337 E121.18756
G1 X90.459 Y49.94 E121.23271
G1 X90.149 Y49.611 E121.27781
G1 X89.768 Y49.369 E121.32285
G1 X89.338 Y49.23 E121.36794
G1 X88.887 Y49.201 E121.41304
G1 X88.442 Y49.285 E121.45822
G1 X88.034 Y49.479 E121.5033
G1 X87.687 Y49.766 E121.54823
G1 X87.421 Y50.131 E121.5933
G0 F5400 X87.311 Y50.41
G0 X87.218 Y50.374
G0 X87.158 Y51
G0 X87.216 Y51.457
G0 X94.429 Y69.336
;TYPE:SKIN
G1 F2400 X93.938 Y69.827 E121.66258
G0 F5400 X93.089 Y69.827
G1 F2400 X94.429 Y68.488 E121.8516
G1 X94.535 Y68.382
G0 F5400 X94.429 Y67.639
G1 F2400 X92.241 Y69.827 E122.16035
G1 X92.135 Y69.933
G0 F5400 X91.392 Y69.827
G1 F2400 X94.429 Y66.791 E122.58883
G1 X94.535 Y66.685
G0 F5400 X94.429 Y65.942
G1 F2400 X90.544 Y69.827 E123.13705
G1 X90.438 Y69.933
G0 F5400 X89.695 Y69.827
G1 F2400 X94.429 Y65.094 E123.805
G1 X94.535 Y64.988
G0 F5400 X94.429 Y64.245
G1 F2400 X88.847 Y69.827 E124.59268
G1 X88.741 Y69.933
G0 F5400 X87.998 Y69.827
G1 F2400 X94.429 Y63.397 E125.50009
G1 X94.535 Y63.291
G0 F5400 X94.429 Y62.548
G1 F2400 X87.15 Y69.827 E126.52724
G1 X87.044 Y69.933
G0 F5400 X86.301 Y69.827
G1 F2400 X94.429 Y61.7 E127.67411
G1 X94.535 Y61.594
G0 F5400 X94.429 Y60.851
G1 F2400 X85.453 Y69.827 E128.94073
G1 X85.347 Y69.933
G0 F5400 X84.604 Y69.827
G1 F2400 X94.429 Y60.002 E130.32714
G1 X94.535 Y59.896
G0 F5400 X94.429 Y59.154
