;FLAVOR:Marlin
;TIME:297
;Filament used: 1.03519m
;Layer height: 0.4
;Generated with Cura_SteamEngine 2.7.0
M190 S60
M104 S220
M109 S220
G28 ;Home
G1 Z15.0 F6000 ;Move the platform down 15mm
;Prime the extruder
G92 E0
G1 F200 E3
G92 E0
;LAYER_COUNT:5
;LAYER:0
M107
G0 F3600 X87.636 Y35.156 Z0.3
;TYPE:WALL-OUTER
G1 F2400 X87.574 Y35.623 E0.03525
G1 X87.636 Y36.089 E0.07044
G1 X87.816 Y36.525 E0.10573
G1 X88.103 Y36.897 E0.1409
G1 X88.475 Y37.184 E0.17606
G1 X88.911 Y37.364 E0.21136
G1 X89.377 Y37.426 E0.24654
G1 X89.844 Y37.364 E0.28179
G1 X90.279 Y37.184 E0.31702
G1 X90.653 Y36.896 E0.35235
G1 X90.948 Y36.503 E0.38912
G1 X91.122 Y36.068 E0.42418
G1 X91.18 Y35.623 E0.45777
G1 X91.118 Y35.156 E0.49302
G1 X90.938 Y34.722 E0.52818
G1 X90.652 Y34.348 E0.56341
G1 X90.278 Y34.062 E0.59865
G1 X89.844 Y33.882 E0.63381
G1 X89.377 Y33.82 E0.66906
G1 X88.911 Y33.882 E0.70425
G1 X88.476 Y34.062 E0.73948
G1 X88.103 Y34.348 E0.77465
G1 X87.816 Y34.721 E0.80987
G1 X87.636 Y35.156 E0.8451
G0 F3600 X87.597 Y35.453
G0 X87.498 Y35.439
G0 X87.782 Y34.701
G0 X88.075 Y34.32
G0 X102.882 Y22.118
G0 X102.952 Y22.048
G1 F2400 X103.326 Y22.335 E0.88038
G1 X103.76 Y22.514 E0.91551
G1 X104.227 Y22.576 E0.95077
G1 X104.693 Y22.514 E0.98595
G1 X105.128 Y22.335 E1.02115
G1 X105.501 Y22.048 E1.05637
G1 X105.788 Y21.674 E1.09165
G1 X105.967 Y21.24 E1.12678
G1 X106.03 Y20.773 E1.16205
G1 X105.967 Y20.307 E1.19724
G1 X105.788 Y19.872 E1.23244
G1 X105.501 Y19.499 E1.26766
G1 X105.128 Y19.212 E1.30288
G1 X104.693 Y19.033 E1.33808
G1 X104.227 Y18.97 E1.37327
G1 X103.76 Y19.033 E1.40854
G1 X103.326 Y19.212 E1.44367
G1 X102.952 Y19.499 E1.47895
G1 X102.665 Y19.872 E1.51417
G1 X102.486 Y20.307 E1.54937
G1 X102.424 Y20.773 E1.58455
G1 X102.486 Y21.24 E1.61981
G1 X102.665 Y21.674 E1.65494
G1 X102.952 Y22.048 E1.69022
G0 F3600 X103.19 Y22.23
G0 X103.129 Y22.309
G0 X108.173 Y24.748
G0 X108.246 Y24.815
G1 F2400 X20.788 Y112.273 E10.94617
G1 X12.727 Y104.212 E11.79929
G1 X100.185 Y16.754 E21.05524
G1 X100.913 Y16.136 E21.1267
G1 X101.723 Y15.654 E21.19724
G1 X102.601 Y15.312 E21.26775
G1 X103.523 Y15.119 E21.33825
G1 X104.461 Y15.08 E21.4085
G1 X105.395 Y15.196 E21.47894
G1 X106.299 Y15.465 E21.54952
G1 X107.148 Y15.88 E21.62024
G1 X107.909 Y16.424 E21.69024
G1 X108.576 Y17.091 E21.76083
G1 X109.12 Y17.852 E21.83084
G1 X109.535 Y18.701 E21.90156
G1 X109.804 Y19.605 E21.97214
G1 X109.92 Y20.539 E22.04257
G1 X109.881 Y21.477 E22.11283
G1 X109.688 Y22.399 E22.18332
G1 X109.346 Y23.277 E22.25384
G1 X108.864 Y24.087 E22.32438
G1 X108.246 Y24.815 E22.39584
G0 F3600 X108.034 Y25.027
G0 X107.965 Y24.956
G0 X106.807 Y16.015
;TYPE:SKIN
G1 F2400 X108.984 Y18.192 E22.62624
G1 X109.09 Y18.298
G0 F3600 X109.508 Y19.564
G1 F2400 X105.435 Y15.492 E23.05724
G1 X105.329 Y15.386
G0 F3600 X104.447 Y15.351
G1 F2400 X109.648 Y20.552 E23.60768
G1 X109.754 Y20.658
G0 F3600 X109.614 Y21.368
G1 F2400 X103.632 Y15.385 E24.24083
G1 X103.526 Y15.279
G0 F3600 X102.92 Y15.522
G1 F2400 X109.477 Y22.079 E24.93477
G1 X109.583 Y22.185
G0 F3600 X109.271 Y22.721
G1 F2400 X102.278 Y15.728 E25.67487
G1 X102.172 Y15.622
G0 F3600 X101.689 Y15.988
G1 F2400 X104.426 Y18.724 E25.96448
G1 X104.532 Y18.83
G0 F3600 X103.642 Y18.789
G1 F2400 X101.157 Y16.304 E26.22747
G1 X101.051 Y16.198
G0 F3600 X100.687 Y16.682
G1 F2400 X103.07 Y19.066 E26.47973
G1 X103.176 Y19.172
G0 F3600 X102.629 Y19.473
G1 F2400 X100.238 Y17.082 E26.73277
G1 X100.132 Y16.976
G0 F3600 X99.813 Y17.506
G1 F2400 X102.316 Y20.009 E26.99767
G1 X102.422 Y20.115
G0 F3600 X102.161 Y20.702
G1 F2400 X99.389 Y17.93 E27.29104
G1 X99.283 Y17.824
G0 F3600 X98.965 Y18.355
G1 F2400 X102.456 Y21.846 E27.66051
G1 X102.562 Y21.952
G0 F3600 X103.154 Y22.543
G1 F2400 X106.644 Y26.034 E28.02992
G1 X106.75 Y26.14
G0 F3600 X106.22 Y26.458
G1 F2400 X98.54 Y18.779 E28.84266
G1 X98.434 Y18.673
G0 F3600 X98.116 Y19.203
G1 F2400 X105.795 Y26.882 E29.65535
G1 X105.901 Y26.988
G0 F3600 X105.371 Y27.307
G1 F2400 X97.692 Y19.627 E30.4681
G1 X97.586 Y19.521
G0 F3600 X97.268 Y20.052
G1 F2400 X104.947 Y27.731 E31.28079
G1 X105.053 Y27.837
G0 F3600 X104.523 Y28.155
G1 F2400 X96.843 Y20.476 E32.09354
G1 X96.737 Y20.37
G0 F3600 X96.419 Y20.9
G1 F2400 X104.098 Y28.579 E32.90623
G1 X104.204 Y28.685
G0 F3600 X103.674 Y29.004
G1 F2400 X95.995 Y21.324 E33.71897
G1 X95.889 Y21.218
G0 F3600 X95.571 Y21.749
G1 F2400 X103.25 Y29.428 E34.53167
G1 X103.356 Y29.534
G0 F3600 X102.826 Y29.852
G1 F2400 X95.146 Y22.173 E35.34441
G1 X95.04 Y22.067
G0 F3600 X94.722 Y22.597
G1 F2400 X102.401 Y30.276 E36.1571
G1 X102.507 Y30.382
G0 F3600 X101.977 Y30.701
G1 F2400 X94.298 Y23.021 E36.96985
G1 X94.192 Y22.915
G0 F3600 X93.874 Y23.446
G1 F2400 X101.553 Y31.125 E37.78254
G1 X101.659 Y31.231
G0 F3600 X101.128 Y31.549
G1 F2400 X93.449 Y23.87 E38.59524
G1 X93.343 Y23.764
G0 F3600 X93.025 Y24.294
G1 F2400 X100.704 Y31.973 E39.40793
G1 X100.81 Y32.079
G0 F3600 X100.28 Y32.398
G1 F2400 X92.601 Y24.719 E40.22062
G1 X92.495 Y24.613
G0 F3600 X92.177 Y25.143
G1 F2400 X99.856 Y32.822 E41.03331
G1 X99.962 Y32.928
G0 F3600 X99.431 Y33.246
G1 F2400 X91.752 Y25.567 E41.846
G1 X91.646 Y25.461
G0 F3600 X91.328 Y25.991
G1 F2400 X99.007 Y33.671 E42.65875
G1 X99.113 Y33.777
G0 F3600 X98.583 Y34.095
G1 F2400 X90.904 Y26.416 E43.47144
G1 X90.798 Y26.31
G0 F3600 X90.479 Y26.84
G1 F2400 X98.159 Y34.519 E44.28419
G1 X98.265 Y34.625
G0 F3600 X97.734 Y34.943
G1 F2400 X90.055 Y27.264 E45.09688
G1 X89.949 Y27.158
G0 F3600 X89.631 Y27.688
G1 F2400 X97.31 Y35.368 E45.90963
G1 X97.416 Y35.474
G0 F3600 X96.886 Y35.792
G1 F2400 X89.207 Y28.113 E46.72232
G1 X89.101 Y28.007
G0 F3600 X88.782 Y28.537
G1 F2400 X96.462 Y36.216 E47.53506
G1 X96.568 Y36.322
G0 F3600 X96.037 Y36.64
G1 F2400 X88.358 Y28.961 E48.34776
G1 X88.252 Y28.855
G0 F3600 X87.934 Y29.385
G1 F2400 X95.613 Y37.065 E49.1605
G1 X95.719 Y37.171
G0 F3600 X95.189 Y37.489
G1 F2400 X87.51 Y29.81 E49.97319
G1 X87.404 Y29.704
G0 F3600 X87.085 Y30.234
G1 F2400 X94.765 Y37.913 E50.78594
G1 X94.871 Y38.019
G0 F3600 X94.34 Y38.337
G1 F2400 X91.424 Y35.421 E51.09455
G1 X91.318 Y35.315
G0 F3600 X91.357 Y36.203
G1 F2400 X93.916 Y38.762 E51.36537
G1 X94.022 Y38.868
G0 F3600 X93.492 Y39.186
G1 F2400 X91.08 Y36.774 E51.62064
G1 X90.974 Y36.668
G0 F3600 X90.675 Y37.218
G1 F2400 X93.067 Y39.61 E51.8738
G1 X93.173 Y39.716
G0 F3600 X92.643 Y40.034
G1 F2400 X90.141 Y37.532 E52.13859
G1 X90.035 Y37.426
G0 F3600 X89.449 Y37.688
G1 F2400 X92.219 Y40.459 E52.4318
G1 X92.325 Y40.565
G0 F3600 X91.795 Y40.883
G1 F2400 X88.312 Y37.4 E52.80042
G1 X88.206 Y37.294
G0 F3600 X87.599 Y36.687
G1 F2400 X84.116 Y33.204 E53.16904
G1 X84.01 Y33.098
G0 F3600 X84.54 Y32.78
G1 F2400 X87.311 Y35.551 E53.4623
G1 X87.417 Y35.657
G0 F3600 X87.466 Y34.858
G1 F2400 X84.964 Y32.355 E53.72715
G1 X84.858 Y32.249
G0 F3600 X85.388 Y31.931
G1 F2400 X87.78 Y34.322 E53.98025
G1 X87.886 Y34.428
G0 F3600 X88.221 Y33.915
G1 F2400 X85.813 Y31.507 E54.23509
G1 X85.707 Y31.401
G0 F3600 X86.237 Y31.082
G1 F2400 X88.792 Y33.638 E54.50555
G1 X88.898 Y33.744
G0 F3600 X89.577 Y33.574
G1 F2400 X86.661 Y30.658 E54.81416
G1 X86.555 Y30.552
G0 F3600 X83.691 Y33.628
G1 F2400 X91.37 Y41.307 E55.62685
G1 X91.476 Y41.413
G0 F3600 X90.946 Y41.732
G1 F2400 X83.267 Y34.052 E56.4396
G1 X83.161 Y33.946
G0 F3600 X82.843 Y34.477
G1 F2400 X90.522 Y42.156 E57.25229
G1 X90.628 Y42.262
G0 F3600 X90.098 Y42.58
G1 F2400 X82.418 Y34.901 E58.06503
G1 X82.312 Y34.795
G0 F3600 X81.994 Y35.325
G1 F2400 X89.673 Y43.004 E58.87773
G1 X89.779 Y43.11
G0 F3600 X89.249 Y43.429
G1 F2400 X81.57 Y35.749 E59.69047
G1 X81.464 Y35.643
G0 F3600 X81.146 Y36.174
G1 F2400 X88.825 Y43.853 E60.50316
G1 X88.931 Y43.959
G0 F3600 X88.401 Y44.277
G1 F2400 X80.721 Y36.598 E61.31591
G1 X80.615 Y36.492
G0 F3600 X80.297 Y37.022
G1 F2400 X87.976 Y44.701 E62.1286
G1 X88.082 Y44.807
G0 F3600 X87.552 Y45.126
G1 F2400 X79.873 Y37.446 E62.94135
G1 X79.767 Y37.34
G0 F3600 X79.449 Y37.871
G1 F2400 X87.128 Y45.55 E63.75404
G1 X87.234 Y45.656
G0 F3600 X86.704 Y45.974
G1 F2400 X79.024 Y38.295 E64.56678
G1 X78.918 Y38.189
G0 F3600 X78.6 Y38.719
G1 F2400 X86.279 Y46.398 E65.37948
G1 X86.385 Y46.504
G0 F3600 X85.855 Y46.823
G1 F2400 X78.176 Y39.144 E66.19217
G1 X78.07 Y39.038
G0 F3600 X77.752 Y39.568
G1 F2400 X85.431 Y47.247 E67.00486
G1 X85.537 Y47.353
G0 F3600 X85.006 Y47.671
G1 F2400 X77.327 Y39.992 E67.81755
G1 X77.221 Y39.886
G0 F3600 X76.903 Y40.416
G1 F2400 X84.582 Y48.095 E68.63025
G1 X84.688 Y48.201
G0 F3600 X84.158 Y48.52
G1 F2400 X76.479 Y40.841 E69.44294
G1 X76.373 Y40.735
G0 F3600 X76.054 Y41.265
G1 F2400 X83.734 Y48.944 E70.25568
G1 X83.84 Y49.05
G0 F3600 X83.309 Y49.368
G1 F2400 X75.63 Y41.689 E71.06838
G1 X75.524 Y41.583
G0 F3600 X75.206 Y42.113
G1 F2400 X82.885 Y49.793 E71.88112
G1 X82.991 Y49.899
G0 F3600 X82.461 Y50.217
G1 F2400 X74.782 Y42.538 E72.69381
G1 X74.676 Y42.432
G0 F3600 X74.357 Y42.962
G1 F2400 X82.037 Y50.641 E73.50656
G1 X82.143 Y50.747
G0 F3600 X81.612 Y51.065
G1 F2400 X73.933 Y43.386 E74.31925
G1 X73.827 Y43.28
G0 F3600 X73.509 Y43.81
G1 F2400 X81.188 Y51.49 E75.132
G1 X81.294 Y51.596
G0 F3600 X80.764 Y51.914
G1 F2400 X73.085 Y44.235 E75.94469
G1 X72.979 Y44.129
G0 F3600 X72.66 Y44.659
G1 F2400 X80.34 Y52.338 E76.75743
G1 X80.446 Y52.444
G0 F3600 X79.915 Y52.762
G1 F2400 X72.236 Y45.083 E77.57013
G1 X72.13 Y44.977
G0 F3600 X71.812 Y45.507
G1 F2400 X79.491 Y53.187 E78.38287
G1 X79.597 Y53.293
G0 F3600 X79.067 Y53.611
G1 F2400 X71.388 Y45.932 E79.19556
G1 X71.282 Y45.826
G0 F3600 X70.963 Y46.356
G1 F2400 X78.643 Y54.035 E80.00831
G1 X78.749 Y54.141
G0 F3600 X78.218 Y54.459
G1 F2400 X70.539 Y46.78 E80.821
G1 X70.433 Y46.674
G0 F3600 X70.115 Y47.205
G1 F2400 X77.794 Y54.884 E81.63369
G1 X77.9 Y54.99
G0 F3600 X77.37 Y55.308
G1 F2400 X69.691 Y47.629 E82.44639
G1 X69.585 Y47.523
G0 F3600 X69.266 Y48.053
G1 F2400 X76.945 Y55.732 E83.25908
G1 X77.051 Y55.838
G0 F3600 X76.521 Y56.157
G1 F2400 X68.842 Y48.477 E84.07182
G1 X68.736 Y48.371
G0 F3600 X68.418 Y48.902
G1 F2400 X76.097 Y56.581 E84.88452
G1 X76.203 Y56.687
G0 F3600 X75.673 Y57.005
G1 F2400 X67.993 Y49.326 E85.69726
G1 X67.887 Y49.22
G0 F3600 X67.569 Y49.75
G1 F2400 X75.248 Y57.429 E86.50995
G1 X75.354 Y57.535
G0 F3600 X74.824 Y57.854
G1 F2400 X67.145 Y50.174 E87.3227
G1 X67.039 Y50.068
G0 F3600 X66.721 Y50.599
G1 F2400 X74.4 Y58.278 E88.13539
G1 X74.506 Y58.384
G0 F3600 X73.976 Y58.702
G1 F2400 X66.296 Y51.023 E88.94814
G1 X66.19 Y50.917
G0 F3600 X65.872 Y51.447
G1 F2400 X73.551 Y59.126 E89.76083
G1 X73.657 Y59.232
G0 F3600 X73.127 Y59.551
G1 F2400 X65.448 Y51.871 E90.57358
G1 X65.342 Y51.765
G0 F3600 X65.024 Y52.296
G1 F2400 X72.703 Y59.975 E91.38627
G1 X72.809 Y60.081
G0 F3600 X72.279 Y60.399
G1 F2400 X64.599 Y52.72 E92.19901
G1 X64.493 Y52.614
G0 F3600 X64.175 Y53.144
G1 F2400 X71.854 Y60.823 E93.01171
G1 X71.96 Y60.929
G0 F3600 X71.43 Y61.248
G1 F2400 X63.751 Y53.568 E93.82445
G1 X63.645 Y53.462
G0 F3600 X63.327 Y53.993
G1 F2400 X71.006 Y61.672 E94.63714
G1 X71.112 Y61.778
G0 F3600 X70.581 Y62.096
G1 F2400 X62.902 Y54.417 E95.44984
G1 X62.796 Y54.311
G0 F3600 X62.478 Y54.841
G1 F2400 X70.157 Y62.52 E96.26253
G1 X70.263 Y62.626
G0 F3600 X69.733 Y62.945
G1 F2400 X62.054 Y55.266 E97.07522
G1 X61.948 Y55.16
G0 F3600 X61.63 Y55.69
G1 F2400 X69.309 Y63.369 E97.88791
G1 X69.415 Y63.475
G0 F3600 X68.884 Y63.793
G1 F2400 X61.205 Y56.114 E98.70061
G1 X61.099 Y56.008
G0 F3600 X60.781 Y56.538
G1 F2400 X68.46 Y64.218 E99.51335
G1 X68.566 Y64.324
G0 F3600 X68.036 Y64.642
G1 F2400 X60.357 Y56.963 E100.32604
G1 X60.251 Y56.857
G0 F3600 X59.932 Y57.387
G1 F2400 X67.612 Y65.066 E101.13879
G1 X67.718 Y65.172
G0 F3600 X67.187 Y65.49
G1 F2400 X59.508 Y57.811 E101.95148
G1 X59.402 Y57.705
G0 F3600 X59.084 Y58.235
G1 F2400 X66.763 Y65.915 E102.76423
G1 X66.869 Y66.021
G0 F3600 X66.339 Y66.339
G1 F2400 X58.66 Y58.66 E103.57692
G1 X58.554 Y58.554
G0 F3600 X58.235 Y59.084
G1 F2400 X65.915 Y66.763 E104.38966
G1 X66.021 Y66.869
G0 F3600 X65.49 Y67.187
G1 F2400 X57.811 Y59.508 E105.20236
G1 X57.705 Y59.402
G0 F3600 X57.387 Y59.932
G1 F2400 X65.066 Y67.612 E106.0151
G1 X65.172 Y67.718
G0 F3600 X64.642 Y68.036
G1 F2400 X56.963 Y60.357 E106.82779
G1 X56.857 Y60.251
G0 F3600 X56.538 Y60.781
G1 F2400 X64.218 Y68.46 E107.64054
G1 X64.324 Y68.566
G0 F3600 X63.793 Y68.884
G1 F2400 X56.114 Y61.205 E108.45323
G1 X56.008 Y61.099
G0 F3600 X55.69 Y61.63
G1 F2400 X63.369 Y69.309 E109.26592
G1 X63.475 Y69.415
G0 F3600 X62.945 Y69.733
G1 F2400 X55.266 Y62.054 E110.07862
G1 X55.16 Y61.948
G0 F3600 X54.841 Y62.478
G1 F2400 X62.52 Y70.157 E110.89131
G1 X62.626 Y70.263
G0 F3600 X62.096 Y70.581
G1 F2400 X54.417 Y62.902 E111.704
G1 X54.311 Y62.796
G0 F3600 X53.993 Y63.327
G1 F2400 X61.672 Y71.006 E112.51669
G1 X61.778 Y71.112
G0 F3600 X61.248 Y71.43
G1 F2400 X53.568 Y63.751 E113.32944
G1 X53.462 Y63.645
G0 F3600 X53.144 Y64.175
G1 F2400 X60.823 Y71.854 E114.14213
G1 X60.929 Y71.96
G0 F3600 X60.399 Y72.279
G1 F2400 X52.72 Y64.599 E114.95488
G1 X52.614 Y64.493
G0 F3600 X52.296 Y65.024
G1 F2400 X59.975 Y72.703 E115.76757
G1 X60.081 Y72.809
G0 F3600 X59.551 Y73.127
G1 F2400 X51.871 Y65.448 E116.58031
G1 X51.765 Y65.342
G0 F3600 X51.447 Y65.872
G1 F2400 X59.126 Y73.551 E117.39301
G1 X59.232 Y73.657
G0 F3600 X58.702 Y73.976
G1 F2400 X51.023 Y66.296 E118.20575
G1 X50.917 Y66.19
G0 F3600 X50.599 Y66.721
G1 F2400 X58.278 Y74.4 E119.01844
G1 X58.384 Y74.506
G0 F3600 X57.854 Y74.824
G1 F2400 X50.174 Y67.145 E119.83119
G1 X50.068 Y67.039
G0 F3600 X49.75 Y67.569
G1 F2400 X57.429 Y75.248 E120.64388
G1 X57.535 Y75.354
G0 F3600 X57.005 Y75.673
G1 F2400 X49.326 Y67.993 E121.45663
G1 X49.22 Y67.887
G0 F3600 X48.902 Y68.418
G1 F2400 X56.581 Y76.097 E122.26932
G1 X56.687 Y76.203
G0 F3600 X56.157 Y76.521
G1 F2400 X48.477 Y68.842 E123.08206
G1 X48.371 Y68.736
G0 F3600 X48.053 Y69.266
G1 F2400 X55.732 Y76.945 E123.89476
G1 X55.838 Y77.051
G0 F3600 X55.308 Y77.37
G1 F2400 X47.629 Y69.691 E124.70745
G1 X47.523 Y69.585
G0 F3600 X47.205 Y70.115
G1 F2400 X54.884 Y77.794 E125.52014
G1 X54.99 Y77.9
G0 F3600 X54.459 Y78.218
G1 F2400 X46.78 Y70.539 E126.33283
G1 X46.674 Y70.433
G0 F3600 X46.356 Y70.963
G1 F2400 X54.035 Y78.643 E127.14558
G1 X54.141 Y78.749
G0 F3600 X53.611 Y79.067
G1 F2400 X45.932 Y71.388 E127.95827
G1 X45.826 Y71.282
G0 F3600 X45.507 Y71.812
G1 F2400 X53.187 Y79.491 E128.77102
G1 X53.293 Y79.597
G0 F3600 X52.762 Y79.915
G1 F2400 X45.083 Y72.236 E129.58371
G1 X44.977 Y72.13
G0 F3600 X44.659 Y72.66
G1 F2400 X52.338 Y80.34 E130.39646
G1 X52.444 Y80.446
G0 F3600 X51.914 Y80.764
G1 F2400 X44.235 Y73.085 E131.20915
G1 X44.129 Y72.979
G0 F3600 X43.81 Y73.509
G1 F2400 X51.49 Y81.188 E132.02189
G1 X51.596 Y81.294
G0 F3600 X51.065 Y81.612
G1 F2400 X43.386 Y73.933 E132.83459
G1 X43.28 Y73.827
G0 F3600 X42.962 Y74.357
G1 F2400 X50.641 Y82.037 E133.64733
G1 X50.747 Y82.143
G0 F3600 X50.217 Y82.461
G1 F2400 X42.538 Y74.782 E134.46002
G1 X42.432 Y74.676
G0 F3600 X42.113 Y75.206
G1 F2400 X49.793 Y82.885 E135.27277
G1 X49.899 Y82.991
G0 F3600 X49.368 Y83.309
G1 F2400 X41.689 Y75.63 E136.08546
G1 X41.583 Y75.524
G0 F3600 X41.265 Y76.054
G1 F2400 X48.944 Y83.734 E136.89821
G1 X49.05 Y83.84
G0 F3600 X48.52 Y84.158
G1 F2400 X40.841 Y76.479 E137.7109
G1 X40.735 Y76.373
G0 F3600 X40.416 Y76.903
G1 F2400 X48.095 Y84.582 E138.52359
G1 X48.201 Y84.688
G0 F3600 X47.671 Y85.006
G1 F2400 X39.992 Y77.327 E139.33628
G1 X39.886 Y77.221
G0 F3600 X39.568 Y77.752
G1 F2400 X47.247 Y85.431 E140.14898
G1 X47.353 Y85.537
G0 F3600 X46.823 Y85.855
G1 F2400 X39.144 Y78.176 E140.96167
G1 X39.038 Y78.07
G0 F3600 X38.719 Y78.6
G1 F2400 X46.398 Y86.279 E141.77436
G1 X46.504 Y86.385
G0 F3600 X45.974 Y86.704
G1 F2400 X38.295 Y79.024 E142.58711
G1 X38.189 Y78.918
G0 F3600 X37.871 Y79.449
G1 F2400 X45.55 Y87.128 E143.3998
G1 X45.656 Y87.234
G0 F3600 X45.126 Y87.552
G1 F2400 X37.446 Y79.873 E144.21254
G1 X37.34 Y79.767
G0 F3600 X37.022 Y80.297
G1 F2400 X44.701 Y87.976 E145.02524
G1 X44.807 Y88.082
G0 F3600 X44.277 Y88.401
G1 F2400 X36.598 Y80.721 E145.83798
G1 X36.492 Y80.615
G0 F3600 X36.174 Y81.146
G1 F2400 X43.853 Y88.825 E146.65067
G1 X43.959 Y88.931
G0 F3600 X43.429 Y89.249
