;FLAVOR:Marlin
;TIME:354
;Filament used: 1.17541m
;Layer height: 0.4
;Generated with Cura_SteamEngine 2.7.0
M190 S60
M104 S220
M109 S220
G28 ;Home
G1 Z15.0 F6000 ;Move the platform down 15mm
;Prime the extruder
G92 E0
G1 F200 E3
G92 E0
;LAYER_COUNT:3
;LAYER:0
M107
G0 F3600 X39.298 Y59.654 Z0.3
;TYPE:WALL-OUTER
G1 F2400 X40.154 Y59.098 E0.07639
G1 X41.051 Y58.641 E0.15172
G1 X42.003 Y58.275 E0.22805
G1 X42.987 Y58.012 E0.30427
G1 X43.98 Y57.855 E0.37951
G1 X45 Y57.801 E0.45595
G1 X46.02 Y57.855 E0.53239
G1 X47.013 Y58.012 E0.60762
G1 X47.997 Y58.275 E0.68384
G1 X48.949 Y58.641 E0.76017
G1 X49.846 Y59.098 E0.83551
G1 X50.702 Y59.654 E0.91189
G1 X51.491 Y60.293 E0.98787
G1 X52.207 Y61.009 E1.06365
G1 X52.846 Y61.798 E1.13963
G1 X53.402 Y62.654 E1.21602
G1 X53.859 Y63.551 E1.29135
G1 X54.225 Y64.503 E1.36768
G1 X54.488 Y65.487 E1.4439
G1 X54.645 Y66.48 E1.51914
G1 X54.715 Y67.8 E1.61806
G1 X70.3 Y67.8 E2.78437
G1 X70.3 Y27.8 E5.77778
G1 X89.7 Y27.8 E7.22958
G1 X89.7 Y94.485 E12.21998
G1 X89.657 Y94.969 E12.25634
G1 X89.536 Y95.422 E12.29143
G1 X89.337 Y95.849 E12.32668
G1 X89.066 Y96.236 E12.36204
G1 X88.736 Y96.566 E12.39696
G1 X88.349 Y96.837 E12.43232
G1 X87.922 Y97.036 E12.46757
G1 X87.469 Y97.157 E12.50266
G1 X86.985 Y97.2 E12.53903
G1 X38.015 Y97.2 E16.20371
G1 X37.531 Y97.157 E16.24007
G1 X37.078 Y97.036 E16.27516
G1 X36.651 Y96.837 E16.31042
G1 X36.264 Y96.566 E16.34577
G1 X35.934 Y96.236 E16.3807
G1 X35.663 Y95.849 E16.41605
G1 X35.464 Y95.422 E16.45131
G1 X35.343 Y94.969 E16.4864
G1 X35.3 Y94.485 E16.52276
G1 X35.3 Y67.516 E18.54099
G1 X35.355 Y66.48 E18.61863
G1 X35.512 Y65.487 E18.69387
G1 X35.775 Y64.503 E18.77009
G1 X36.141 Y63.551 E18.84642
G1 X36.598 Y62.654 E18.92175
G1 X37.154 Y61.798 E18.99814
G1 X37.793 Y61.009 E19.07412
G1 X38.509 Y60.293 E19.1499
G1 X39.298 Y59.654 E19.22588
G0 F3600 X39.549 Y59.491
G0 X39.602 Y59.575
G0 X44.05 Y65.853
G0 X44.099 Y65.939
G1 F2400 X43.725 Y66.225 E19.26111
G1 X43.439 Y66.599 E19.29635
G1 X43.259 Y67.034 E19.33158
G1 X43.197 Y67.5 E19.36676
G1 X43.259 Y67.966 E19.40194
G1 X43.439 Y68.401 E19.43717
G1 X43.725 Y68.775 E19.4724
G1 X44.099 Y69.061 E19.50764
G1 X44.534 Y69.241 E19.54287
G1 X45 Y69.303 E19.57805
G1 X45.466 Y69.241 E19.61323
G1 X45.901 Y69.061 E19.64846
G1 X46.275 Y68.775 E19.68369
G1 X46.561 Y68.401 E19.71892
G1 X46.741 Y67.966 E19.75416
G1 X46.803 Y67.5 E19.78934
G1 X46.741 Y67.034 E19.82452
G1 X46.561 Y66.599 E19.85975
G1 X46.275 Y66.225 E19.89498
G1 X45.901 Y65.939 E19.93021
G1 X45.466 Y65.759 E19.96544
G1 X45 Y65.697 E20.00063
G1 X44.534 Y65.759 E20.03581
G1 X44.099 Y65.939 E20.07104
G0 F3600 X43.861 Y66.121
G0 X43.801 Y66.042
G0 X44.524 Y65.721
G0 X45 Y65.657
G0 X45.476 Y65.721
G0 X62.646 Y70.138
G0 X62.742 Y70.163
G1 F2400 X62.697 Y70.5 E20.09648
G1 X62.742 Y70.837 E20.12192
G1 X62.872 Y71.151 E20.14736
G1 X63.079 Y71.421 E20.17282
G1 X63.349 Y71.628 E20.19828
G1 X63.663 Y71.758 E20.22371
G1 X64 Y71.803 E20.24915
G1 X64.337 Y71.758 E20.2746
G1 X64.651 Y71.628 E20.30003
G1 X64.921 Y71.421 E20.32549
G1 X65.128 Y71.151 E20.35095
G1 X65.258 Y70.837 E20.37638
G1 X65.303 Y70.5 E20.40182
G1 X65.258 Y70.163 E20.42727
G1 X65.128 Y69.849 E20.4527
G1 X64.921 Y69.579 E20.47816
G1 X64.651 Y69.372 E20.50362
G1 X64.337 Y69.242 E20.52905
G1 X64 Y69.197 E20.5545
G1 X63.663 Y69.242 E20.57994
G1 X63.349 Y69.372 E20.60537
G1 X63.079 Y69.579 E20.63083
G1 X62.872 Y69.849 E20.65629
G1 X62.742 Y70.163 E20.68173
G0 F3600 X62.703 Y70.461
G0 X62.604 Y70.449
G0 X62.838 Y71.17
G0 X63.051 Y71.449
G0 X66.559 Y74.149
G0 X66.629 Y74.219
G1 F2400 X66.422 Y74.489 E20.70719
G1 X66.292 Y74.803 E20.73262
G1 X66.247 Y75.14 E20.75806
G1 X66.292 Y75.477 E20.78351
G1 X66.422 Y75.791 E20.80894
G1 X66.629 Y76.061 E20.8344
G1 X66.899 Y76.268 E20.85986
G1 X67.213 Y76.398 E20.88529
G1 X67.55 Y76.443 E20.91074
G1 X67.887 Y76.398 E20.93618
G1 X68.201 Y76.268 E20.96161
G1 X68.471 Y76.061 E20.98707
G1 X68.678 Y75.791 E21.01253
G1 X68.808 Y75.477 E21.03796
G1 X68.853 Y75.14 E21.06341
G1 X68.808 Y74.803 E21.08885
G1 X68.678 Y74.489 E21.11428
G1 X68.471 Y74.219 E21.13974
G1 X68.201 Y74.012 E21.1652
G1 X67.887 Y73.882 E21.19064
G1 X67.55 Y73.837 E21.21608
G1 X67.213 Y73.882 E21.24152
G1 X66.899 Y74.012 E21.26696
G1 X66.629 Y74.219 E21.29242
G0 F3600 X66.447 Y74.457
G0 X66.368 Y74.396
G0 X66.207 Y75.14
G0 X67.55 Y91.237
G0 X67.55 Y91.337
G1 F2400 X67.213 Y91.382 E21.31786
G1 X66.899 Y91.512 E21.34329
G1 X66.629 Y91.719 E21.36875
G1 X66.422 Y91.989 E21.39421
G1 X66.292 Y92.303 E21.41965
G1 X66.247 Y92.64 E21.44509
G1 X66.292 Y92.977 E21.47053
G1 X66.422 Y93.291 E21.49597
G1 X66.629 Y93.561 E21.52143
G1 X66.899 Y93.768 E21.54689
G1 X67.213 Y93.898 E21.57232
G1 X67.55 Y93.943 E21.59776
G1 X67.887 Y93.898 E21.62321
G1 X68.201 Y93.768 E21.64864
G1 X68.471 Y93.561 E21.6741
G1 X68.678 Y93.291 E21.69956
G1 X68.808 Y92.977 E21.72499
G1 X68.853 Y92.64 E21.75043
G1 X68.808 Y92.303 E21.77588
G1 X68.678 Y91.989 E21.80131
G1 X68.471 Y91.719 E21.82677
G1 X68.201 Y91.512 E21.85223
G1 X67.887 Y91.382 E21.87766
G1 X67.55 Y91.337 E21.90311
G0 F3600 X67.252 Y91.376
G0 X67.238 Y91.277
G0 X85.655 Y71.845
G0 X85.725 Y71.775
G1 F2400 X86.099 Y72.061 E21.93834
G1 X86.534 Y72.241 E21.97357
G1 X87 Y72.303 E22.00875
G1 X87.466 Y72.241 E22.04393
G1 X87.901 Y72.061 E22.07916
G1 X88.275 Y71.775 E22.1144
G1 X88.561 Y71.401 E22.14963
G1 X88.741 Y70.966 E22.18486
G1 X88.803 Y70.5 E22.22004
G1 X88.741 Y70.034 E22.25522
G1 X88.561 Y69.599 E22.29045
G1 X88.275 Y69.225 E22.32569
G1 X87.901 Y68.939 E22.36092
G1 X87.466 Y68.759 E22.39615
G1 X87 Y68.697 E22.43133
G1 X86.534 Y68.759 E22.46651
G1 X86.099 Y68.939 E22.50174
G1 X85.725 Y69.225 E22.53698
G1 X85.439 Y69.599 E22.57221
G1 X85.259 Y70.034 E22.60744
G1 X85.197 Y70.5 E22.64262
G1 X85.259 Y70.966 E22.6778
G1 X85.439 Y71.401 E22.71303
G1 X85.725 Y71.775 E22.74827
G0 F3600 X85.963 Y71.957
G0 X85.903 Y72.036
G0 X85.405 Y71.42
G0 X85.221 Y70.976
G0 X80.491 Y48.837
G0 X80.466 Y48.741
G1 F2400 X80.901 Y48.561 E22.7835
G1 X81.275 Y48.275 E22.81873
G1 X81.561 Y47.901 E22.85396
G1 X81.741 Y47.466 E22.88919
G1 X81.803 Y47 E22.92437
G1 X81.741 Y46.534 E22.95956
G1 X81.561 Y46.099 E22.99479
G1 X81.275 Y45.725 E23.03002
G1 X80.901 Y45.439 E23.06525
G1 X80.466 Y45.259 E23.10048
G1 X80 Y45.197 E23.13566
G1 X79.534 Y45.259 E23.17084
G1 X79.099 Y45.439 E23.20608
G1 X78.725 Y45.725 E23.24131
G1 X78.439 Y46.099 E23.27654
G1 X78.259 Y46.534 E23.31177
G1 X78.197 Y47 E23.34695
G1 X78.259 Y47.466 E23.38213
G1 X78.439 Y47.901 E23.41736
G1 X78.725 Y48.275 E23.4526
G1 X79.099 Y48.561 E23.48783
G1 X79.534 Y48.741 E23.52306
G1 X80 Y48.803 E23.55824
G1 X80.466 Y48.741 E23.59342
G0 F3600 X80.743 Y48.627
G0 X80.781 Y48.719
G0 X81.303 Y48.303
G0 X85.655 Y43.845
G0 X85.725 Y43.775
G1 F2400 X86.099 Y44.061 E23.62866
G1 X86.534 Y44.241 E23.66389
G1 X87 Y44.303 E23.69907
G1 X87.466 Y44.241 E23.73425
G1 X87.901 Y44.061 E23.76948
G1 X88.275 Y43.775 E23.80471
G1 X88.561 Y43.401 E23.83995
G1 X88.741 Y42.966 E23.87518
G1 X88.803 Y42.5 E23.91036
G1 X88.741 Y42.034 E23.94554
G1 X88.561 Y41.599 E23.98077
G1 X88.275 Y41.225 E24.016
G1 X87.901 Y40.939 E24.05124
G1 X87.466 Y40.759 E24.08647
G1 X87 Y40.697 E24.12165
G1 X86.534 Y40.759 E24.15683
G1 X86.099 Y40.939 E24.19206
G1 X85.725 Y41.225 E24.22729
G1 X85.439 Y41.599 E24.26253
G1 X85.259 Y42.034 E24.29776
G1 X85.197 Y42.5 E24.33294
G1 X85.259 Y42.966 E24.36812
G1 X85.439 Y43.401 E24.40335
G1 X85.725 Y43.775 E24.43858
G0 F3600 X85.963 Y43.957
G0 X85.903 Y44.036
G0 X85.405 Y43.42
G0 X85.221 Y42.976
G0 X85.157 Y42.5
G0 X85.221 Y42.024
G0 X87 Y34.903
G0 X87 Y34.803
G1 F2400 X87.337 Y34.758 E24.46403
G1 X87.651 Y34.628 E24.48946
G1 X87.921 Y34.421 E24.51492
G1 X88.128 Y34.151 E24.54038
G1 X88.258 Y33.837 E24.56581
G1 X88.303 Y33.5 E24.59126
G1 X88.258 Y33.163 E24.6167
G1 X88.128 Y32.849 E24.64213
G1 X87.921 Y32.579 E24.66759
G1 X87.651 Y32.372 E24.69305
G1 X87.337 Y32.242 E24.71848
G1 X87 Y32.197 E24.74393
G1 X86.663 Y32.242 E24.76937
G1 X86.349 Y32.372 E24.7948
G1 X86.079 Y32.579 E24.82026
G1 X85.872 Y32.849 E24.84572
G1 X85.742 Y33.163 E24.87116
G1 X85.697 Y33.5 E24.8966
G1 X85.742 Y33.837 E24.92204
G1 X85.872 Y34.151 E24.94748
G1 X86.079 Y34.421 E24.97294
G1 X86.349 Y34.628 E24.9984
G1 X86.663 Y34.758 E25.02383
G1 X87 Y34.803 E25.04927
G0 F3600 X87.298 Y34.764
G0 X87.312 Y34.863
G0 X74.403 Y33.5
G0 X74.303 Y33.5
G1 F2400 X74.258 Y33.163 E25.07472
G1 X74.128 Y32.849 E25.10015
G1 X73.921 Y32.579 E25.12561
G1 X73.651 Y32.372 E25.15107
G1 X73.337 Y32.242 E25.1765
G1 X73 Y32.197 E25.20195
G1 X72.663 Y32.242 E25.22739
G1 X72.349 Y32.372 E25.25282
G1 X72.079 Y32.579 E25.27828
G1 X71.872 Y32.849 E25.30374
G1 X71.742 Y33.163 E25.32917
G1 X71.697 Y33.5 E25.35462
G1 X71.742 Y33.837 E25.38006
G1 X71.872 Y34.151 E25.40549
G1 X72.079 Y34.421 E25.43095
G1 X72.349 Y34.628 E25.45641
G1 X72.663 Y34.758 E25.48185
G1 X73 Y34.803 E25.50729
G1 X73.337 Y34.758 E25.53273
G1 X73.651 Y34.628 E25.55817
G1 X73.921 Y34.421 E25.58363
G1 X74.128 Y34.151 E25.60909
G1 X74.258 Y33.837 E25.63452
G1 X74.303 Y33.5 E25.65996
G0 F3600 X74.264 Y33.202
G0 X74.363 Y33.188
G0 X89.429 Y28.335
;TYPE:SKIN
G1 F2400 X89.164 Y28.07 E25.68801
G0 F3600 X88.315 Y28.07
G1 F2400 X89.429 Y29.184 E25.80591
G1 X89.535 Y29.29
G0 F3600 X89.429 Y30.032
G1 F2400 X87.466 Y28.07 E26.0136
G1 X87.36 Y27.964
G0 F3600 X86.618 Y28.07
G1 F2400 X89.429 Y30.881 E26.3111
G1 X89.535 Y30.987
G0 F3600 X89.429 Y31.73
G1 F2400 X85.769 Y28.07 E26.69845
G1 X85.663 Y27.964
G0 F3600 X84.921 Y28.07
G1 F2400 X89.429 Y32.578 E27.17555
G1 X89.535 Y32.684
G0 F3600 X89.429 Y33.427
G1 F2400 X84.072 Y28.07 E27.74249
G1 X83.966 Y27.964
G0 F3600 X83.224 Y28.07
G1 F2400 X87.091 Y31.937 E28.15175
G1 X87.197 Y32.043
G0 F3600 X86.374 Y32.068
G1 F2400 X82.375 Y28.07 E28.57492
G1 X82.269 Y27.964
G0 F3600 X81.527 Y28.07
G1 F2400 X85.867 Y32.41 E29.03424
G1 X85.973 Y32.516
G0 F3600 X85.544 Y32.935
G1 F2400 X80.678 Y28.07 E29.54917
G1 X80.572 Y27.964
G0 F3600 X79.83 Y28.07
G1 F2400 X85.45 Y33.69 E30.14395
G1 X85.556 Y33.796
G0 F3600 X86.051 Y34.449
G0 X86.81 Y35.049
G1 F2400 X89.429 Y37.669 E30.42118
G1 X89.535 Y37.775
G0 F3600 X89.429 Y36.821
G1 F2400 X87.564 Y34.955 E30.61861
G1 X87.458 Y34.849
G0 F3600 X88.089 Y34.632
G1 F2400 X89.429 Y35.972 E30.76043
G1 X89.535 Y36.078
G0 F3600 X89.429 Y35.124
G1 F2400 X88.43 Y34.124 E30.86621
G1 X88.324 Y34.018
G0 F3600 X88.561 Y33.407
G1 F2400 X89.429 Y34.275 E30.95807
G1 X89.535 Y34.381
G0 F3600 X89.429 Y38.518
G1 F2400 X78.981 Y28.07 E32.06382
G1 X78.875 Y27.964
G0 F3600 X78.133 Y28.07
G1 F2400 X89.429 Y39.366 E33.25931
G1 X89.535 Y39.472
G0 F3600 X89.429 Y40.215
G1 F2400 X77.284 Y28.07 E34.54465
G1 X77.178 Y27.964
G0 F3600 X76.436 Y28.07
G1 F2400 X89.429 Y41.063 E35.91974
G1 X89.535 Y41.169
G0 F3600 X89.429 Y41.912
G1 F2400 X75.587 Y28.07 E37.38468
G1 X75.481 Y27.964
G0 F3600 X74.739 Y28.07
G1 F2400 X87.108 Y40.439 E38.69373
G1 X87.214 Y40.545
G0 F3600 X86.359 Y40.539
G1 F2400 X73.89 Y28.07 E40.01337
G1 X73.784 Y27.964
G0 F3600 X73.042 Y28.07
G1 F2400 X85.798 Y40.826 E41.36337
G1 X85.904 Y40.932
G0 F3600 X85.369 Y41.245
G1 F2400 X72.193 Y28.07 E42.75778
G1 X72.087 Y27.964
G0 F3600 X71.344 Y28.07
G1 F2400 X85.067 Y41.792 E44.21007
G1 X85.173 Y41.898
G0 F3600 X84.925 Y42.499
G1 F2400 X70.569 Y28.142 E45.72946
G1 X70.463 Y28.036
G0 F3600 X70.569 Y28.991
G1 F2400 X73.662 Y32.084 E46.05681
G1 X73.768 Y32.19
G0 F3600 X72.694 Y31.965
G1 F2400 X70.569 Y29.839 E46.28176
G1 X70.463 Y29.733
G0 F3600 X70.569 Y30.688
G1 F2400 X72.1 Y32.22 E46.44384
G1 X72.206 Y32.326
G0 F3600 X71.682 Y32.65
G1 F2400 X70.569 Y31.536 E46.56168
G1 X70.463 Y31.43
G0 F3600 X70.569 Y32.385
G1 F2400 X71.455 Y33.271 E46.65545
G1 X71.561 Y33.377
G0 F3600 X70.569 Y33.234
G1 F2400 X71.676 Y34.341 E46.77261
G1 X71.782 Y34.447
G0 F3600 X72.157 Y34.822
G1 F2400 X89.429 Y52.094 E48.60056
G1 X89.535 Y52.2
G0 F3600 X89.429 Y51.246
G1 F2400 X73.227 Y35.044 E50.31527
G1 X73.121 Y34.938
G0 F3600 X73.848 Y34.816
G1 F2400 X89.429 Y50.397 E51.96425
G1 X89.535 Y50.503
G0 F3600 X89.429 Y49.549
G1 F2400 X74.278 Y34.397 E53.56778
G1 X74.172 Y34.291
G0 F3600 X74.532 Y33.803
G1 F2400 X89.429 Y48.7 E55.14438
G1 X89.535 Y48.806
G0 F3600 X89.429 Y47.852
G1 F2400 X85.591 Y44.013 E55.55062
G1 X85.485 Y43.907
G0 F3600 X85.486 Y43.908
G1 F2400 X74.413 Y32.835 E56.72251
G1 X74.307 Y32.729
G0 F3600 X73.347 Y32.204
G0 X73 Y32.157
G0 X72.653 Y32.204
G0 X72.33 Y32.338
G0 X72.051 Y32.551
G0 X70.569 Y34.082
G1 F2400 X89.429 Y52.943 E58.71857
G1 X89.535 Y53.049
G0 F3600 X89.429 Y53.791
G1 F2400 X81.932 Y46.294 E59.512
G1 X81.826 Y46.188
G0 F3600 X82.039 Y47.25
G1 F2400 X89.429 Y54.64 E60.29411
G1 X89.535 Y54.746
G0 F3600 X89.429 Y55.488
G1 F2400 X81.849 Y47.907 E61.09638
G1 X81.743 Y47.801
G0 F3600 X81.507 Y48.414
G1 F2400 X89.429 Y56.337 E61.93484
G1 X89.535 Y56.443
G0 F3600 X89.429 Y57.185
G1 F2400 X81.039 Y48.795 E62.82278
G1 X80.933 Y48.689
G0 F3600 X80.415 Y49.019
G1 F2400 X89.429 Y58.034 E63.77681
G1 X89.535 Y58.14
G0 F3600 X89.429 Y58.882
G1 F2400 X79.564 Y49.017 E64.82086
G1 X79.458 Y48.911
G0 F3600 X78.697 Y48.303
G0 X77.982 Y47.435
G1 F2400 X70.569 Y40.022 E65.6054
G1 X70.463 Y39.916
G0 F3600 X70.569 Y40.87
G1 F2400 X89.429 Y59.731 E67.60146
G1 X89.535 Y59.837
G0 F3600 X89.429 Y60.579
G1 F2400 X70.569 Y41.719 E69.59748
G1 X70.463 Y41.613
G0 F3600 X70.569 Y42.567
G1 F2400 X89.429 Y61.428 E71.59354
G1 X89.535 Y61.534
G0 F3600 X89.429 Y62.277
G1 F2400 X70.569 Y43.416 E73.58961
G1 X70.463 Y43.31
G0 F3600 X70.569 Y44.264
G1 F2400 X89.429 Y63.125 E75.58567
G1 X89.535 Y63.231
G0 F3600 X89.429 Y63.974
G1 F2400 X70.569 Y45.113 E77.58174
G1 X70.463 Y45.007
G0 F3600 X70.569 Y45.961
G1 F2400 X89.429 Y64.822 E79.5778
G1 X89.535 Y64.928
G0 F3600 X89.429 Y65.671
G1 F2400 X70.569 Y46.81 E81.57387
G1 X70.463 Y46.704
G0 F3600 X70.569 Y47.658
G1 F2400 X89.429 Y66.519 E83.56993
G1 X89.535 Y66.625
G0 F3600 X89.429 Y67.368
G1 F2400 X70.569 Y48.507 E85.566
G1 X70.463 Y48.401
G0 F3600 X70.569 Y49.356
G1 F2400 X89.429 Y68.216 E87.56201
G1 X89.535 Y68.322
G0 F3600 X89.429 Y69.065
G1 F2400 X70.569 Y50.204 E89.55807
G1 X70.463 Y50.098
G0 F3600 X70.569 Y51.053
G1 F2400 X89.429 Y69.913 E91.55409
G1 X89.535 Y70.019
G0 F3600 X89.244 Y70.576
G1 F2400 X89.193 Y71.374 E91.59857
G1 X89.05 Y72.079 E91.66353
G0 F3600 X89.429 Y73.307
G1 F2400 X88.253 Y72.131 E91.78799
G1 X88.147 Y72.025
G0 F3600 X87.706 Y72.433
G1 F2400 X89.429 Y74.156 E91.97034
G1 X89.535 Y74.262
G0 F3600 X89.429 Y75.004
G1 F2400 X86.999 Y72.574 E92.22751
G1 X86.893 Y72.468
G0 F3600 X85.586 Y72.009
G1 F2400 X89.429 Y75.853 E92.63428
G1 X89.535 Y75.959
G0 F3600 X89.429 Y76.701
G1 F2400 X70.569 Y57.841 E94.63029
G1 X70.463 Y57.735
G0 F3600 X70.569 Y58.689
G1 F2400 X89.429 Y77.55 E96.62636
G1 X89.535 Y77.656
G0 F3600 X89.429 Y78.399
G1 F2400 X70.569 Y59.538 E98.62242
G1 X70.463 Y59.432
G0 F3600 X70.569 Y60.386
G1 F2400 X89.429 Y79.247 E100.61849
G1 X89.535 Y79.353
G0 F3600 X89.429 Y80.096
G1 F2400 X70.569 Y61.235 E102.61455
G1 X70.463 Y61.129
G0 F3600 X70.569 Y62.083
G1 F2400 X89.429 Y80.944 E104.61062
G1 X89.535 Y81.05
G0 F3600 X89.429 Y81.793
G1 F2400 X70.569 Y62.932 E106.60668
G1 X70.463 Y62.826
G0 F3600 X70.569 Y63.781
G1 F2400 X89.429 Y82.641 E108.6027
G1 X89.535 Y82.747
G0 F3600 X89.429 Y83.49
G1 F2400 X70.569 Y64.629 E110.59876
G1 X70.463 Y64.523
G0 F3600 X70.569 Y65.478
G1 F2400 X89.429 Y84.338 E112.59477
G1 X89.535 Y84.444
G0 F3600 X89.429 Y85.187
G1 F2400 X70.569 Y66.326 E114.59084
G1 X70.463 Y66.22
G0 F3600 X70.569 Y67.175
G1 F2400 X89.429 Y86.035 E116.58685
G1 X89.535 Y86.141
G0 F3600 X89.429 Y86.884
G1 F2400 X70.569 Y68.023 E118.58292
G1 X70.463 Y67.917
G0 F3600 X69.767 Y68.07
G1 F2400 X89.429 Y87.732 E120.66381
G1 X89.535 Y87.838
G0 F3600 X89.429 Y88.581
G1 F2400 X68.918 Y68.07 E122.83455
G1 X68.812 Y67.964
G0 F3600 X68.07 Y68.07
G1 F2400 X89.429 Y89.429 E125.09504
G1 X89.535 Y89.535
G0 F3600 X89.429 Y90.278
G1 F2400 X67.221 Y68.07 E127.44538
G1 X67.115 Y67.964
G0 F3600 X66.373 Y68.07
G1 F2400 X89.429 Y91.126 E129.88547
G1 X89.535 Y91.232
G0 F3600 X89.429 Y91.975
G1 F2400 X65.524 Y68.07 E132.41541
G1 X65.418 Y67.964
G0 F3600 X64.676 Y68.07
