;FLAVOR:Marlin
;TIME:143
;Filament used: 0.464371m
;Layer height: 0.4
;Generated with Cura_SteamEngine 2.7.0
M190 S60
M104 S220
M109 S220
G28 ;Home
G1 Z15.0 F6000 ;Move the platform down 15mm
;Prime the extruder
G92 E0
G1 F200 E3
G92 E0
;LAYER_COUNT:5
;LAYER:0
M107
G0 F3600 X39.3 Y50.3 Z0.3
;TYPE:WALL-OUTER
G1 F2400 X85.7 Y50.3 E3.47236
G1 X85.7 Y61.7 E4.32548
G1 X48.7 Y61.7 E7.09439
G1 X48.7 Y74.7 E8.06725
G1 X39.3 Y74.7 E8.7707
G1 X39.3 Y50.3 E10.59668
G0 F3600 X39.6 Y50.3
G0 X39.6 Y50.4
G0 X43.107 Y54.919
G0 X43.17 Y54.996
G1 F2400 X42.946 Y55.234 E10.62114
G1 X42.789 Y55.521 E10.64562
G1 X42.708 Y55.837 E10.67003
G1 X42.708 Y56.163 E10.69443
G1 X42.789 Y56.479 E10.71884
G1 X42.946 Y56.766 E10.74332
G1 X43.17 Y57.004 E10.76778
G1 X43.446 Y57.179 E10.79224
G1 X43.757 Y57.279 E10.81668
G1 X44.082 Y57.3 E10.84106
G1 X44.403 Y57.239 E10.86551
G1 X44.698 Y57.099 E10.88994
G1 X44.949 Y56.892 E10.91429
G1 X45.141 Y56.628 E10.93872
G1 X45.262 Y56.324 E10.96321
G1 X45.302 Y56 E10.98764
G1 X45.262 Y55.676 E11.01207
G1 X45.141 Y55.372 E11.03655
G1 X44.949 Y55.108 E11.06098
G1 X44.698 Y54.901 E11.08533
G1 X44.403 Y54.761 E11.10977
G1 X44.082 Y54.7 E11.13422
G1 X43.757 Y54.721 E11.15859
G1 X43.446 Y54.821 E11.18304
G1 X43.17 Y54.996 E11.20749
G0 F3600 X42.964 Y55.215
G0 X42.891 Y55.147
G0 X42.669 Y55.832
G0 X44.088 Y70.601
G0 X44.082 Y70.7
G1 F2400 X43.757 Y70.721 E11.23187
G1 X43.446 Y70.821 E11.25631
G1 X43.17 Y70.996 E11.28077
G1 X42.946 Y71.234 E11.30523
G1 X42.789 Y71.521 E11.32971
G1 X42.708 Y71.837 E11.35412
G1 X42.708 Y72.163 E11.37852
G1 X42.789 Y72.479 E11.40293
G1 X42.946 Y72.766 E11.42741
G1 X43.17 Y73.004 E11.45187
G1 X43.446 Y73.179 E11.47633
G1 X43.757 Y73.279 E11.50078
G1 X44.082 Y73.3 E11.52515
G1 X44.403 Y73.239 E11.5496
G1 X44.698 Y73.099 E11.57404
G1 X44.949 Y72.892 E11.59838
G1 X45.141 Y72.628 E11.62281
G1 X45.262 Y72.324 E11.6473
G1 X45.302 Y72 E11.67173
G1 X45.262 Y71.676 E11.69616
G1 X45.141 Y71.372 E11.72065
G1 X44.949 Y71.108 E11.74507
G1 X44.698 Y70.901 E11.76942
G1 X44.403 Y70.761 E11.79386
G1 X44.082 Y70.7 E11.81831
G0 F3600 X43.782 Y70.719
G0 X43.775 Y70.619
G0 X48.672 Y61.672
G0 X78.263 Y56.772
G0 X78.354 Y56.732
G1 F2400 X78.542 Y57.059 E11.84654
G1 X78.794 Y57.339 E11.87473
G1 X79.099 Y57.56 E11.90291
G1 X79.443 Y57.714 E11.93112
G1 X79.812 Y57.792 E11.95934
G1 X80.188 Y57.792 E11.98748
G1 X80.557 Y57.714 E12.01571
G1 X80.901 Y57.56 E12.04391
G1 X81.206 Y57.339 E12.0721
G1 X81.458 Y57.059 E12.10029
G1 X81.646 Y56.732 E12.12852
G1 X81.762 Y56.375 E12.15661
G1 X81.802 Y56 E12.18483
G1 X81.762 Y55.625 E12.21305
G1 X81.646 Y55.268 E12.24114
G1 X81.458 Y54.941 E12.26937
G1 X81.206 Y54.661 E12.29756
G1 X80.901 Y54.44 E12.32575
G1 X80.557 Y54.286 E12.35395
G1 X80.188 Y54.208 E12.38218
G1 X79.812 Y54.208 E12.41032
G1 X79.443 Y54.286 E12.43854
G1 X79.099 Y54.44 E12.46675
G1 X78.794 Y54.661 E12.49493
G1 X78.542 Y54.941 E12.52312
G1 X78.354 Y55.268 E12.55135
G1 X78.238 Y55.625 E12.57944
G1 X78.198 Y56 E12.60766
G1 X78.238 Y56.375 E12.63589
G1 X78.354 Y56.732 E12.66398
G0 F3600 X78.503 Y56.992
G0 X78.417 Y57.04
G0 X78.199 Y56.383
G0 X78.158 Y56
G0 X78.199 Y55.617
G0 X78.318 Y55.252
G0 X78.51 Y54.918
G0 X78.768 Y54.632
G0 X79.079 Y54.406
G0 X85.429 Y51.487
;TYPE:SKIN
G1 F2400 X84.511 Y50.57 E12.76108
G1 X84.405 Y50.464
G0 F3600 X83.662 Y50.57
G1 F2400 X85.429 Y52.336 E12.94803
G1 X85.535 Y52.442
G0 F3600 X85.429 Y53.185
G1 F2400 X82.814 Y50.57 E13.22479
G1 X82.708 Y50.464
G0 F3600 X81.965 Y50.57
G1 F2400 X85.429 Y54.033 E13.59134
G1 X85.535 Y54.139
G0 F3600 X85.429 Y54.882
G1 F2400 X81.117 Y50.57 E14.04769
G1 X81.011 Y50.464
G0 F3600 X80.268 Y50.57
G1 F2400 X85.429 Y55.73 E14.59384
G1 X85.535 Y55.836
G0 F3600 X85.429 Y56.579
G1 F2400 X79.42 Y50.57 E15.2298
G1 X79.314 Y50.464
G0 F3600 X78.571 Y50.57
G1 F2400 X85.429 Y57.427 E15.95555
G1 X85.535 Y57.533
G0 F3600 X85.429 Y58.276
G1 F2400 X77.723 Y50.57 E16.7711
G1 X77.617 Y50.464
G0 F3600 X76.874 Y50.57
G1 F2400 X80.248 Y53.944 E17.12818
G1 X80.354 Y54.05
G0 F3600 X79.461 Y54.005
G1 F2400 X76.025 Y50.57 E17.49177
G1 X75.919 Y50.464
G0 F3600 X75.177 Y50.57
G1 F2400 X78.874 Y54.267 E17.88303
G1 X78.98 Y54.373
G0 F3600 X78.425 Y54.666
G1 F2400 X74.328 Y50.57 E18.31658
G1 X74.222 Y50.464
G0 F3600 X73.48 Y50.57
G1 F2400 X78.096 Y55.186 E18.8051
G1 X78.202 Y55.292
G0 F3600 X77.938 Y55.876
G1 F2400 X72.631 Y50.57 E19.36671
G1 X72.525 Y50.464
G0 F3600 X71.783 Y50.57
G1 F2400 X78.172 Y56.959 E20.04287
G1 X78.278 Y57.065
G0 F3600 X79.046 Y57.832
G1 F2400 X82.642 Y61.429 E20.4235
G1 X82.748 Y61.535
G0 F3600 X83.49 Y61.429
G1 F2400 X80.123 Y58.061 E20.77989
G1 X80.017 Y57.955
G0 F3600 X80.808 Y57.897
G1 F2400 X84.339 Y61.429 E21.15364
G1 X84.445 Y61.535
G0 F3600 X85.187 Y61.429
G1 F2400 X81.336 Y57.577 E21.56126
G1 X81.23 Y57.471
G0 F3600 X81.73 Y57.123
G1 F2400 X85.429 Y60.821 E21.95268
G1 X85.535 Y60.927
G0 F3600 X85.429 Y59.973
G1 F2400 X81.991 Y56.536 E22.31649
G1 X81.885 Y56.43
G0 F3600 X82.045 Y55.741
G1 F2400 X85.429 Y59.124 E22.67457
G1 X85.535 Y59.23
G0 F3600 X81.793 Y61.429
G1 F2400 X70.934 Y50.57 E23.82381
G1 X70.828 Y50.464
G0 F3600 X70.086 Y50.57
G1 F2400 X80.945 Y61.429 E24.97306
G1 X81.051 Y61.535
G0 F3600 X80.096 Y61.429
G1 F2400 X69.237 Y50.57 E26.1223
G1 X69.131 Y50.464
G0 F3600 X68.389 Y50.57
G1 F2400 X79.248 Y61.429 E27.27154
G1 X79.354 Y61.535
G0 F3600 X78.399 Y61.429
G1 F2400 X67.54 Y50.57 E28.42078
G1 X67.434 Y50.464
G0 F3600 X66.692 Y50.57
G1 F2400 X77.551 Y61.429 E29.57002
G1 X77.657 Y61.535
G0 F3600 X76.702 Y61.429
G1 F2400 X65.843 Y50.57 E30.71926
G1 X65.737 Y50.464
G0 F3600 X64.995 Y50.57
G1 F2400 X75.854 Y61.429 E31.86851
G1 X75.96 Y61.535
G0 F3600 X75.005 Y61.429
G1 F2400 X64.146 Y50.57 E33.01775
G1 X64.04 Y50.464
G0 F3600 X63.298 Y50.57
G1 F2400 X74.157 Y61.429 E34.16699
G1 X74.263 Y61.535
G0 F3600 X73.308 Y61.429
G1 F2400 X62.449 Y50.57 E35.31623
G1 X62.343 Y50.464
G0 F3600 X61.601 Y50.57
G1 F2400 X72.46 Y61.429 E36.46547
G1 X72.566 Y61.535
G0 F3600 X71.611 Y61.429
G1 F2400 X60.752 Y50.57 E37.61471
G1 X60.646 Y50.464
G0 F3600 X59.903 Y50.57
G1 F2400 X70.763 Y61.429 E38.76401
G1 X70.869 Y61.535
G0 F3600 X69.914 Y61.429
G1 F2400 X59.055 Y50.57 E39.91325
G1 X58.949 Y50.464
G0 F3600 X58.206 Y50.57
G1 F2400 X69.065 Y61.429 E41.06249
G1 X69.171 Y61.535
G0 F3600 X68.217 Y61.429
G1 F2400 X57.358 Y50.57 E42.21173
G1 X57.252 Y50.464
G0 F3600 X56.509 Y50.57
G1 F2400 X67.368 Y61.429 E43.36097
G1 X67.474 Y61.535
G0 F3600 X66.52 Y61.429
G1 F2400 X55.661 Y50.57 E44.51022
G1 X55.555 Y50.464
G0 F3600 X54.812 Y50.57
G1 F2400 X65.671 Y61.429 E45.65946
G1 X65.777 Y61.535
G0 F3600 X64.823 Y61.429
G1 F2400 X53.964 Y50.57 E46.8087
G1 X53.858 Y50.464
G0 F3600 X53.115 Y50.57
G1 F2400 X63.974 Y61.429 E47.95794
G1 X64.08 Y61.535
G0 F3600 X63.126 Y61.429
G1 F2400 X52.267 Y50.57 E49.10718
G1 X52.161 Y50.464
G0 F3600 X51.418 Y50.57
G1 F2400 X62.277 Y61.429 E50.25642
G1 X62.383 Y61.535
G0 F3600 X61.429 Y61.429
G1 F2400 X50.57 Y50.57 E51.40567
G1 X50.464 Y50.464
G0 F3600 X49.721 Y50.57
G1 F2400 X60.58 Y61.429 E52.55491
G1 X60.686 Y61.535
G0 F3600 X59.732 Y61.429
G1 F2400 X48.873 Y50.57 E53.70415
G1 X48.767 Y50.464
G0 F3600 X48.024 Y50.57
G1 F2400 X58.883 Y61.429 E54.85339
G1 X58.989 Y61.535
G0 F3600 X58.035 Y61.429
G1 F2400 X47.176 Y50.57 E56.00263
G1 X47.07 Y50.464
G0 F3600 X46.327 Y50.57
G1 F2400 X57.186 Y61.429 E57.15187
G1 X57.292 Y61.535
G0 F3600 X56.338 Y61.429
G1 F2400 X45.478 Y50.57 E58.30117
G1 X45.372 Y50.464
G0 F3600 X44.63 Y50.57
G1 F2400 X55.489 Y61.429 E59.45041
G1 X55.595 Y61.535
G0 F3600 X54.64 Y61.429
G1 F2400 X43.781 Y50.57 E60.59965
G1 X43.675 Y50.464
G0 F3600 X42.933 Y50.57
G1 F2400 X53.792 Y61.429 E61.74889
G1 X53.898 Y61.535
G0 F3600 X52.943 Y61.429
G1 F2400 X42.084 Y50.57 E62.89814
G1 X41.978 Y50.464
G0 F3600 X41.236 Y50.57
G1 F2400 X52.095 Y61.429 E64.04738
G1 X52.201 Y61.535
G0 F3600 X51.246 Y61.429
G1 F2400 X45.539 Y55.721 E64.65142
G1 X45.433 Y55.615
G0 F3600 X45.478 Y56.509
G1 F2400 X50.398 Y61.429 E65.17212
G1 X50.504 Y61.535
G0 F3600 X49.549 Y61.429
G1 F2400 X45.168 Y57.047 E65.63583
G1 X45.062 Y56.941
G0 F3600 X44.678 Y57.406
G1 F2400 X48.701 Y61.429 E66.06159
G1 X48.807 Y61.535
G0 F3600 X48.43 Y62.006
G1 F2400 X43.987 Y57.564 E66.53176
G1 X43.881 Y57.458
G0 F3600 X43.145 Y57.034
G0 X42.914 Y56.789
G0 X42.438 Y56.014
G1 F2400 X39.569 Y53.146 E66.83534
G1 X39.463 Y53.04
G0 F3600 X39.569 Y53.994
G1 F2400 X48.43 Y62.855 E67.77313
G1 X48.536 Y62.961
G0 F3600 X48.43 Y63.703
G1 F2400 X39.569 Y54.843 E68.71086
G1 X39.463 Y54.737
G0 F3600 X39.569 Y55.691
G1 F2400 X48.43 Y64.552 E69.64865
G1 X48.536 Y64.658
G0 F3600 X48.43 Y65.401
G1 F2400 X39.569 Y56.54 E70.58643
G1 X39.463 Y56.434
G0 F3600 X39.569 Y57.388
G1 F2400 X48.43 Y66.249 E71.52422
G1 X48.536 Y66.355
G0 F3600 X48.43 Y67.098
G1 F2400 X39.569 Y58.237 E72.46201
G1 X39.463 Y58.131
G0 F3600 X39.569 Y59.085
G1 F2400 X48.43 Y67.946 E73.3998
G1 X48.536 Y68.052
G0 F3600 X48.43 Y68.795
G1 F2400 X39.569 Y59.934 E74.33758
G1 X39.463 Y59.828
G0 F3600 X39.569 Y60.782
G1 F2400 X48.43 Y69.643 E75.27537
G1 X48.536 Y69.749
G0 F3600 X48.43 Y70.492
G1 F2400 X39.569 Y61.631 E76.21316
G1 X39.463 Y61.525
G0 F3600 X39.569 Y62.479
G1 F2400 X48.43 Y71.34 E77.15094
G1 X48.536 Y71.446
G0 F3600 X48.43 Y72.189
G1 F2400 X39.569 Y63.328 E78.08873
G1 X39.463 Y63.222
G0 F3600 X39.569 Y64.177
G1 F2400 X48.43 Y73.037 E79.02647
G1 X48.536 Y73.143
G0 F3600 X48.43 Y73.886
G1 F2400 X39.569 Y65.025 E79.96425
G1 X39.463 Y64.919
G0 F3600 X39.569 Y65.874
G1 F2400 X44.128 Y70.432 E80.44669
G1 X44.234 Y70.538
G0 F3600 X43.399 Y70.552
G1 F2400 X39.569 Y66.722 E80.85203
G1 X39.463 Y66.616
G0 F3600 X39.569 Y67.571
G1 F2400 X42.893 Y70.895 E81.20382
G1 X42.999 Y71.001
G0 F3600 X42.548 Y71.397
G1 F2400 X39.569 Y68.419 E81.51905
G1 X39.463 Y68.313
G0 F3600 X39.569 Y69.268
G1 F2400 X42.437 Y72.136 E81.82258
G1 X42.543 Y72.242
G0 F3600 X43.145 Y73.034
G0 X43.856 Y73.555
G1 F2400 X44.73 Y74.429 E81.91507
G1 X44.836 Y74.535
G0 F3600 X43.882 Y74.429
G1 F2400 X39.569 Y70.116 E82.37153
G1 X39.463 Y70.01
G0 F3600 X39.569 Y70.965
G1 F2400 X43.033 Y74.429 E82.73814
G1 X43.139 Y74.535
G0 F3600 X42.185 Y74.429
G1 F2400 X39.569 Y71.813 E83.015
G1 X39.463 Y71.707
G0 F3600 X39.569 Y72.662
G1 F2400 X41.336 Y74.429 E83.202
G1 X41.442 Y74.535
G0 F3600 X40.488 Y74.429
G1 F2400 X39.569 Y73.51 E83.29927
G1 X39.463 Y73.404
G0 F3600 X44.595 Y73.445
G1 F2400 X45.579 Y74.429 E83.4034
G1 X45.685 Y74.535
G0 F3600 X46.427 Y74.429
G1 F2400 X45.109 Y73.11 E83.54295
G1 X45.003 Y73.004
G0 F3600 X45.442 Y72.595
G1 F2400 X47.276 Y74.429 E83.73704
G1 X47.382 Y74.535
G0 F3600 X48.124 Y74.429
G1 F2400 X45.556 Y71.86 E84.00888
G1 X45.45 Y71.754
G0 F3600 X42.669 Y56.168
G0 X42.591 Y55.319
G1 F2400 X39.569 Y52.297 E84.3287
G1 X39.463 Y52.191
G0 F3600 X39.569 Y51.449
G1 F2400 X42.953 Y54.832 E84.68679
G1 X43.059 Y54.938
G0 F3600 X43.491 Y54.522
G1 F2400 X39.569 Y50.6 E85.10187
G1 X39.463 Y50.494
G0 F3600 X40.387 Y50.57
G1 F2400 X44.278 Y54.46 E85.51361
G1 X44.384 Y54.566
G0 F3600 X44.461 Y54.161
G0 X39.37 Y50.37
G0 X39.3 Y50.3
;TIME_ELAPSED:34.341272
;LAYER:1
M140 S60
G1 F3000 E79.01361
M106 S255
G0 F5400 X39.3 Y50.3 Z0.7
;TYPE:WALL-OUTER
G1 F3000 E85.51361
G1 F2400 X85.7 Y50.3 E90.14342
G1 X85.7 Y61.7 E91.28092
G1 X48.7 Y61.7 E94.97279
G1 X48.7 Y74.7 E96.26994
G1 X39.3 Y74.7 E97.20787
G1 X39.3 Y50.3 E99.64252
G0 F5400 X39.6 Y50.3
G0 X39.6 Y50.4
G0 X43.107 Y54.919
G0 X43.17 Y54.996
G1 F2400 X42.946 Y55.234 E99.67513
G1 X42.789 Y55.521 E99.70777
G1 X42.708 Y55.837 E99.74032
G1 X42.708 Y56.163 E99.77285
G1 X42.789 Y56.479 E99.8054
G1 X42.946 Y56.766 E99.83804
G1 X43.17 Y57.004 E99.87065
G1 X43.446 Y57.179 E99.90326
G1 X43.757 Y57.279 E99.93586
G1 X44.082 Y57.3 E99.96835
G1 X44.403 Y57.239 E100.00096
G1 X44.698 Y57.099 E100.03354
G1 X44.949 Y56.892 E100.066
G1 X45.141 Y56.628 E100.09857
G1 X45.262 Y56.324 E100.13122
G1 X45.302 Y56 E100.16379
G1 X45.262 Y55.676 E100.19637
G1 X45.141 Y55.372 E100.22902
G1 X44.949 Y55.108 E100.26159
G1 X44.698 Y54.901 E100.29405
G1 X44.403 Y54.761 E100.32663
G1 X44.082 Y54.7 E100.35924
G1 X43.757 Y54.721 E100.39173
G1 X43.446 Y54.821 E100.42433
G1 X43.17 Y54.996 E100.45694
G0 F5400 X42.964 Y55.215
G0 X42.891 Y55.147
G0 X42.669 Y55.832
G0 X44.088 Y70.601
G0 X44.082 Y70.7
G1 F2400 X43.757 Y70.721 E100.48943
G1 X43.446 Y70.821 E100.52203
G1 X43.17 Y70.996 E100.55464
G1 X42.946 Y71.234 E100.58725
G1 X42.789 Y71.521 E100.61989
G1 X42.708 Y71.837 E100.65244
G1 X42.708 Y72.163 E100.68497
G1 X42.789 Y72.479 E100.71752
G1 X42.946 Y72.766 E100.75016
G1 X43.17 Y73.004 E100.78277
G1 X43.446 Y73.179 E100.81538
G1 X43.757 Y73.279 E100.84798
G1 X44.082 Y73.3 E100.88048
G1 X44.403 Y73.239 E100.91308
G1 X44.698 Y73.099 E100.94566
G1 X44.949 Y72.892 E100.97812
G1 X45.141 Y72.628 E101.01069
G1 X45.262 Y72.324 E101.04334
G1 X45.302 Y72 E101.07592
G1 X45.262 Y71.676 E101.10849
G1 X45.141 Y71.372 E101.14114
G1 X44.949 Y71.108 E101.17371
G1 X44.698 Y70.901 E101.20617
G1 X44.403 Y70.761 E101.23876
G1 X44.082 Y70.7 E101.27136
G0 F5400 X43.782 Y70.719
G0 X43.775 Y70.619
G0 X48.672 Y61.672
G0 X78.263 Y56.772
G0 X78.354 Y56.732
G1 F2400 X78.542 Y57.059 E101.30899
G1 X78.794 Y57.339 E101.34658
G1 X79.099 Y57.56 E101.38416
G1 X79.443 Y57.714 E101.42177
G1 X79.812 Y57.792 E101.4594
G1 X80.188 Y57.792 E101.49692
G1 X80.557 Y57.714 E101.53455
G1 X80.901 Y57.56 E101.57216
G1 X81.206 Y57.339 E101.60974
G1 X81.458 Y57.059 E101.64733
G1 X81.646 Y56.732 E101.68497
G1 X81.762 Y56.375 E101.72242
G1 X81.802 Y56 E101.76005
G1 X81.762 Y55.625 E101.79768
G1 X81.646 Y55.268 E101.83514
G1 X81.458 Y54.941 E101.87277
G1 X81.206 Y54.661 E101.91036
G1 X80.901 Y54.44 E101.94794
G1 X80.557 Y54.286 E101.98555
G1 X80.188 Y54.208 E102.02318
G1 X79.812 Y54.208 E102.0607
G1 X79.443 Y54.286 E102.09833
G1 X79.099 Y54.44 E102.13594
G1 X78.794 Y54.661 E102.17352
G1 X78.542 Y54.941 E102.21111
G1 X78.354 Y55.268 E102.24875
G1 X78.238 Y55.625 E102.2862
G1 X78.198 Y56 E102.32383
G1 X78.238 Y56.375 E102.36146
G1 X78.354 Y56.732 E102.39891
G0 F5400 X78.503 Y56.992
G0 X78.417 Y57.04
G0 X79.079 Y57.594
G0 X85.429 Y60.517
;TYPE:SKIN
G1 F2400 X84.516 Y61.429 E102.52768
G1 X84.41 Y61.535
G0 F5400 X83.668 Y61.429
G1 F2400 X85.429 Y59.669 E102.7761
G1 X85.535 Y59.563
G0 F5400 X85.429 Y58.82
G1 F2400 X82.819 Y61.429 E103.14433
G1 X82.713 Y61.535
G0 F5400 X81.971 Y61.429
G1 F2400 X85.429 Y57.972 E103.63222
G1 X85.535 Y57.866
G0 F5400 X85.429 Y57.123
G1 F2400 X81.122 Y61.429 E104.23992
G1 X81.016 Y61.535
G0 F5400 X80.274 Y61.429
G1 F2400 X85.429 Y56.275 E104.96727
G1 X85.535 Y56.169
G0 F5400 X85.429 Y55.426
G1 F2400 X79.425 Y61.429 E105.81443
G1 X79.319 Y61.535
G0 F5400 X78.577 Y61.429
G1 F2400 X85.429 Y54.578 E106.78125
G1 X85.535 Y54.472
G0 F5400 X85.429 Y53.729
G1 F2400 X77.728 Y61.429 E107.86788
G1 X77.622 Y61.535
G0 F5400 X76.88 Y61.429
G1 F2400 X80.256 Y58.053 E108.34427
G1 X80.362 Y57.947
G0 F5400 X79.466 Y57.995
G1 F2400 X76.031 Y61.429 E108.82891
G1 X75.925 Y61.535
G0 F5400 X75.183 Y61.429
G1 F2400 X78.879 Y57.733 E109.35046
G1 X78.985 Y57.627
G0 F5400 X78.427 Y57.337
G1 F2400 X74.334 Y61.429 E109.92795
G1 X74.228 Y61.535
G0 F5400 X73.486 Y61.429
G1 F2400 X78.097 Y56.818 E110.57861
G1 X78.203 Y56.712
G0 F5400 X77.938 Y56.128
G1 F2400 X72.637 Y61.429 E111.32664
G1 X72.531 Y61.535
G0 F5400 X71.789 Y61.429
G1 F2400 X78.164 Y55.054 E112.22622
G1 X78.27 Y54.948
G0 F5400 X79.055 Y54.162
G1 F2400 X82.649 Y50.569 E112.73331
G1 X82.755 Y50.463
G0 F5400 X83.497 Y50.569
G1 F2400 X80.129 Y53.938 E113.20864
G1 X80.023 Y54.044
G0 F5400 X80.811 Y54.104
G1 F2400 X84.346 Y50.569 E113.70746
G1 X84.452 Y50.463
G0 F5400 X85.195 Y50.569
G1 F2400 X81.339 Y54.425 E114.25159
G1 X81.233 Y54.531
G0 F5400 X81.733 Y54.879
G1 F2400 X85.429 Y51.183 E114.77313
G1 X85.535 Y51.077
G0 F5400 X85.429 Y52.032
G1 F2400 X81.993 Y55.467 E115.25792
G1 X81.887 Y55.573
G0 F5400 X82.045 Y56.264
G1 F2400 X85.429 Y52.88 E115.73544
G1 X85.535 Y52.774
G0 F5400 X81.8 Y50.569
G1 F2400 X70.94 Y61.429 E117.2679
G1 X70.834 Y61.535
G0 F5400 X70.091 Y61.429
G1 F2400 X80.952 Y50.569 E118.80044
G1 X81.058 Y50.463
G0 F5400 X80.103 Y50.569
