;FLAVOR:Marlin
;TIME:516
;Filament used: 1.4875m
;Layer height: 0.4
;Generated with Cura_SteamEngine 2.7.0
M190 S60
M104 S220
M109 S220
G28 ;Home
G1 Z15.0 F6000 ;Move the platform down 15mm
;Prime the extruder
G92 E0
G1 F200 E3
G92 E0
;LAYER_COUNT:30
;LAYER:0
M107
G0 F3600 X47.105 Y76.286 Z0.3
;TYPE:WALL-OUTER
G1 F2400 X46.835 Y76.493 E0.02546
G1 X46.628 Y76.763 E0.05092
G1 X46.498 Y77.077 E0.07635
G1 X46.453 Y77.414 E0.1018
G1 X46.498 Y77.751 E0.12724
G1 X46.628 Y78.065 E0.15267
G1 X46.835 Y78.335 E0.17813
G1 X47.105 Y78.542 E0.20359
G1 X47.419 Y78.672 E0.22903
G1 X47.756 Y78.717 E0.25447
G1 X48.093 Y78.672 E0.27991
G1 X48.407 Y78.542 E0.30535
G1 X48.677 Y78.335 E0.33081
G1 X48.884 Y78.065 E0.35627
G1 X49.014 Y77.751 E0.3817
G1 X49.059 Y77.414 E0.40714
G1 X49.014 Y77.077 E0.43259
G1 X48.884 Y76.763 E0.45802
G1 X48.677 Y76.493 E0.48348
G1 X48.407 Y76.286 E0.50894
G1 X48.093 Y76.156 E0.53437
G1 X47.756 Y76.111 E0.55981
G1 X47.419 Y76.156 E0.58526
G1 X47.105 Y76.286 E0.61069
G0 F3600 X46.867 Y76.468
G0 X46.808 Y76.389
G0 X38.848 Y86.322
G0 X38.778 Y86.392
G1 F2400 X38.508 Y86.185 E0.63615
G1 X38.193 Y86.055 E0.66165
G1 X37.857 Y86.01 E0.68702
G1 X37.52 Y86.055 E0.71246
G1 X37.206 Y86.185 E0.7379
G1 X36.936 Y86.392 E0.76336
G1 X36.729 Y86.662 E0.78882
G1 X36.599 Y86.976 E0.81425
G1 X36.554 Y87.313 E0.83969
G1 X36.599 Y87.65 E0.86514
G1 X36.729 Y87.964 E0.89057
G1 X36.935 Y88.234 E0.91599
G1 X37.206 Y88.441 E0.9415
G1 X37.52 Y88.571 E0.96694
G1 X37.857 Y88.616 E0.99238
G1 X38.193 Y88.571 E1.01775
G1 X38.508 Y88.441 E1.04325
G1 X38.778 Y88.234 E1.06871
G1 X38.985 Y87.964 E1.09417
G1 X39.115 Y87.65 E1.11961
G1 X39.16 Y87.313 E1.14505
G1 X39.115 Y86.976 E1.17049
G1 X38.985 Y86.662 E1.19592
G1 X38.778 Y86.392 E1.22138
G0 F3600 X38.54 Y86.21
G0 X38.601 Y86.131
G0 X39.019 Y86.643
G0 X39.153 Y86.966
G0 X39.2 Y87.313
G0 X39.153 Y87.66
G0 X39.019 Y87.983
G0 X23.15 Y109.941
G0 X23.219 Y110.012
G1 F2400 X23.007 Y110.224 E1.24382
G1 X22.795 Y110.012 E1.2583
G1 X14.946 Y102.162 E2.08904
G1 X102.91 Y14.198 E11.39854
G1 X110.76 Y22.047 E12.22928
G1 X110.972 Y22.259 E12.25172
G1 X110.76 Y22.471 E12.2662
G1 X23.219 Y110.012 E21.53094
G0 F3600 X23.007 Y110.224
G0 X23.007 Y110.124
G0 X94.141 Y31.029
G0 X94.211 Y30.959
G1 F2400 X94.481 Y31.166 E21.5564
G1 X94.795 Y31.295 E21.5818
G1 X95.132 Y31.341 E21.60725
G1 X95.469 Y31.295 E21.63271
G1 X95.783 Y31.166 E21.65811
G1 X96.053 Y30.959 E21.68357
G1 X96.26 Y30.689 E21.70903
G1 X96.39 Y30.374 E21.73453
G1 X96.435 Y30.038 E21.7599
G1 X96.39 Y29.701 E21.78535
G1 X96.26 Y29.387 E21.81078
G1 X96.053 Y29.116 E21.8363
G1 X95.783 Y28.91 E21.86171
G1 X95.469 Y28.78 E21.88715
G1 X95.132 Y28.735 E21.91259
G1 X94.795 Y28.78 E21.93803
G1 X94.481 Y28.91 E21.96346
G1 X94.211 Y29.116 E21.98888
G1 X94.004 Y29.387 E22.0144
G1 X93.874 Y29.701 E22.03983
G1 X93.829 Y30.038 E22.06528
G1 X93.874 Y30.374 E22.09064
G1 X94.004 Y30.689 E22.11615
G1 X94.211 Y30.959 E22.14161
G0 F3600 X94.449 Y31.141
G0 X94.388 Y31.22
G0 X95.132 Y31.381
G0 X95.479 Y31.333
G0 X95.802 Y31.2
G0 X96.081 Y30.987
G0 X104.041 Y21.129
G0 X104.111 Y21.059
G1 F2400 X104.381 Y21.266 E22.16707
G1 X104.695 Y21.396 E22.1925
G1 X105.032 Y21.441 E22.21794
G1 X105.369 Y21.396 E22.24339
G1 X105.683 Y21.266 E22.26882
G1 X105.953 Y21.059 E22.29428
G1 X106.16 Y20.789 E22.31974
G1 X106.29 Y20.475 E22.34517
G1 X106.335 Y20.138 E22.37062
G1 X106.29 Y19.801 E22.39606
G1 X106.16 Y19.487 E22.42149
G1 X105.953 Y19.217 E22.44695
G1 X105.683 Y19.01 E22.47241
G1 X105.369 Y18.88 E22.49784
G1 X105.032 Y18.835 E22.52329
G1 X104.695 Y18.88 E22.54873
G1 X104.381 Y19.01 E22.57416
G1 X104.111 Y19.217 E22.59962
G1 X103.904 Y19.487 E22.62508
G1 X103.774 Y19.801 E22.65052
G1 X103.729 Y20.138 E22.67596
G1 X103.774 Y20.475 E22.7014
G1 X103.904 Y20.789 E22.72684
G1 X104.111 Y21.059 E22.7523
G0 F3600 X104.349 Y21.241
G0 X104.288 Y21.32
G0 X105.032 Y21.481
G0 X110.547 Y22.3
;TYPE:SKIN
G1 F2400 X102.867 Y14.62 E23.5651
G1 X102.761 Y14.514
G0 F3600 X102.443 Y15.045
G1 F2400 X110.123 Y22.724 E24.37784
G1 X110.229 Y22.83
G0 F3600 X109.699 Y23.149
G1 F2400 X106.593 Y20.043 E24.70656
G1 X106.487 Y19.937
G0 F3600 X106.462 Y20.761
G1 F2400 X109.274 Y23.573 E25.00416
G1 X109.38 Y23.679
G0 F3600 X108.85 Y23.997
G1 F2400 X106.122 Y21.269 E25.29287
G1 X106.016 Y21.163
G0 F3600 X105.597 Y21.593
G1 F2400 X108.426 Y24.422 E25.59228
G1 X108.532 Y24.528
G0 F3600 X108.002 Y24.846
G1 F2400 X104.844 Y21.688 E25.9265
G1 X104.738 Y21.582
G0 F3600 X104.083 Y21.087
G0 X103.481 Y20.325
G1 F2400 X100.322 Y17.166 E26.26082
G1 X100.216 Y17.06
G0 F3600 X100.746 Y16.742
G1 F2400 X103.576 Y19.572 E26.56033
G1 X103.682 Y19.678
G0 F3600 X103.9 Y19.047
G1 F2400 X101.17 Y16.317 E26.84925
G1 X101.064 Y16.211
G0 F3600 X101.594 Y15.893
G1 F2400 X104.407 Y18.705 E27.14691
G1 X104.513 Y18.811
G0 F3600 X105.124 Y18.574
G1 F2400 X102.019 Y15.469 E27.47552
G1 X101.913 Y15.363
G0 F3600 X99.897 Y17.59
G1 F2400 X107.577 Y25.27 E28.28832
G1 X107.683 Y25.376
G0 F3600 X107.153 Y25.694
G1 F2400 X99.473 Y18.014 E29.10112
G1 X99.367 Y17.908
G0 F3600 X99.049 Y18.439
G1 F2400 X106.729 Y26.119 E29.91392
G1 X106.835 Y26.225
G0 F3600 X106.305 Y26.543
G1 F2400 X98.625 Y18.863 E30.72672
G1 X98.519 Y18.757
G0 F3600 X98.2 Y19.287
G1 F2400 X105.88 Y26.967 E31.53951
G1 X105.986 Y27.073
G0 F3600 X105.456 Y27.391
G1 F2400 X97.776 Y19.712 E32.35226
G1 X97.67 Y19.606
G0 F3600 X97.352 Y20.136
G1 F2400 X105.032 Y27.816 E33.16506
G1 X105.138 Y27.922
G0 F3600 X104.607 Y28.24
G1 F2400 X96.928 Y20.56 E33.9778
G1 X96.822 Y20.454
G0 F3600 X96.503 Y20.984
G1 F2400 X104.183 Y28.664 E34.7906
G1 X104.289 Y28.77
G0 F3600 X103.759 Y29.088
G1 F2400 X96.079 Y21.409 E35.60335
G1 X95.973 Y21.303
G0 F3600 X95.655 Y21.833
G1 F2400 X103.335 Y29.513 E36.41614
G1 X103.441 Y29.619
G0 F3600 X102.91 Y29.937
G1 F2400 X95.231 Y22.257 E37.22889
G1 X95.125 Y22.151
G0 F3600 X94.806 Y22.681
G1 F2400 X102.486 Y30.361 E38.04169
G1 X102.592 Y30.467
G0 F3600 X102.062 Y30.786
G1 F2400 X94.382 Y23.106 E38.85449
G1 X94.276 Y23
G0 F3600 X93.958 Y23.53
G1 F2400 X101.638 Y31.21 E39.66728
G1 X101.744 Y31.316
G0 F3600 X101.213 Y31.634
G1 F2400 X93.533 Y23.954 E40.48008
G1 X93.427 Y23.848
G0 F3600 X93.109 Y24.378
G1 F2400 X100.789 Y32.058 E41.29288
G1 X100.895 Y32.164
G0 F3600 X100.365 Y32.483
G1 F2400 X92.685 Y24.803 E42.10568
G1 X92.579 Y24.697
G0 F3600 X92.261 Y25.227
G1 F2400 X95.559 Y28.525 E42.45472
G1 X95.665 Y28.631
G0 F3600 X94.708 Y28.523
G1 F2400 X91.836 Y25.651 E42.75867
G1 X91.73 Y25.545
G0 F3600 X91.412 Y26.075
G1 F2400 X94.154 Y28.818 E43.04892
G1 X94.26 Y28.924
G0 F3600 X93.759 Y29.271
G1 F2400 X90.988 Y26.5 E43.34218
G1 X90.882 Y26.394
G0 F3600 X90.564 Y26.924
G1 F2400 X93.57 Y29.931 E43.66037
G1 X93.676 Y30.037
G0 F3600 X93.97 Y30.708
G0 X94.183 Y30.987
G0 X94.462 Y31.2
G0 X95.238 Y31.599
G1 F2400 X98.244 Y34.604 E43.97845
G1 X98.35 Y34.71
G0 F3600 X98.668 Y34.18
G1 F2400 X95.898 Y31.41 E44.27161
G1 X95.792 Y31.304
G0 F3600 X96.35 Y31.013
G1 F2400 X99.092 Y33.755 E44.5618
G1 X99.198 Y33.861
G0 F3600 X99.516 Y33.331
G1 F2400 X96.645 Y30.46 E44.86565
G1 X96.539 Y30.354
G0 F3600 X96.643 Y29.609
G1 F2400 X99.941 Y32.907 E45.21468
G1 X100.047 Y33.013
G0 F3600 X97.819 Y35.028
G1 F2400 X90.139 Y27.348 E46.02748
G1 X90.033 Y27.242
G0 F3600 X89.715 Y27.773
G1 F2400 X97.395 Y35.452 E46.84023
G1 X97.501 Y35.558
G0 F3600 X96.971 Y35.877
G1 F2400 X89.291 Y28.197 E47.65303
G1 X89.185 Y28.091
G0 F3600 X88.867 Y28.621
G1 F2400 X96.546 Y36.301 E48.46577
G1 X96.652 Y36.407
G0 F3600 X96.122 Y36.725
G1 F2400 X88.442 Y29.045 E49.27857
G1 X88.336 Y28.939
G0 F3600 X88.018 Y29.47
G1 F2400 X95.698 Y37.149 E50.09132
G1 X95.804 Y37.255
G0 F3600 X95.274 Y37.574
G1 F2400 X87.594 Y29.894 E50.90411
G1 X87.488 Y29.788
G0 F3600 X87.17 Y30.318
G1 F2400 X94.849 Y37.998 E51.71686
G1 X94.955 Y38.104
G0 F3600 X94.425 Y38.422
G1 F2400 X86.745 Y30.742 E52.52966
G1 X86.639 Y30.636
G0 F3600 X86.321 Y31.167
G1 F2400 X94.001 Y38.847 E53.34246
G1 X94.107 Y38.953
G0 F3600 X93.577 Y39.271
G1 F2400 X85.897 Y31.591 E54.15525
G1 X85.791 Y31.485
G0 F3600 X85.472 Y32.015
G1 F2400 X93.152 Y39.695 E54.96805
G1 X93.258 Y39.801
G0 F3600 X92.728 Y40.119
G1 F2400 X85.048 Y32.439 E55.78085
G1 X84.942 Y32.333
G0 F3600 X84.624 Y32.864
G1 F2400 X92.304 Y40.544 E56.59365
G1 X92.41 Y40.65
G0 F3600 X91.88 Y40.968
G1 F2400 X84.2 Y33.288 E57.40645
G1 X84.094 Y33.182
G0 F3600 X83.775 Y33.712
G1 F2400 X91.455 Y41.392 E58.21924
G1 X91.561 Y41.498
G0 F3600 X91.031 Y41.816
G1 F2400 X83.351 Y34.136 E59.03204
G1 X83.245 Y34.03
G0 F3600 X82.927 Y34.561
G1 F2400 X90.607 Y42.241 E59.84484
G1 X90.713 Y42.347
G0 F3600 X90.182 Y42.665
G1 F2400 X82.503 Y34.985 E60.65759
G1 X82.397 Y34.879
G0 F3600 X82.078 Y35.409
G1 F2400 X89.758 Y43.089 E61.47038
G1 X89.864 Y43.195
G0 F3600 X89.334 Y43.513
G1 F2400 X81.654 Y35.834 E62.28313
G1 X81.548 Y35.728
G0 F3600 X81.23 Y36.258
G1 F2400 X88.91 Y43.938 E63.09593
G1 X89.016 Y44.044
G0 F3600 X88.485 Y44.362
G1 F2400 X80.806 Y36.682 E63.90867
G1 X80.7 Y36.576
G0 F3600 X80.381 Y37.106
G1 F2400 X88.061 Y44.786 E64.72147
G1 X88.167 Y44.892
G0 F3600 X87.637 Y45.21
G1 F2400 X79.957 Y37.531 E65.53422
G1 X79.851 Y37.425
G0 F3600 X79.533 Y37.955
G1 F2400 X87.213 Y45.635 E66.34702
G1 X87.319 Y45.741
G0 F3600 X86.788 Y46.059
G1 F2400 X79.108 Y38.379 E67.15981
G1 X79.002 Y38.273
G0 F3600 X78.684 Y38.803
G1 F2400 X86.364 Y46.483 E67.97261
G1 X86.47 Y46.589
G0 F3600 X85.94 Y46.908
G1 F2400 X78.26 Y39.228 E68.78541
G1 X78.154 Y39.122
G0 F3600 X77.836 Y39.652
G1 F2400 X85.516 Y47.332 E69.59821
G1 X85.622 Y47.438
G0 F3600 X85.091 Y47.756
G1 F2400 X77.411 Y40.076 E70.41101
G1 X77.305 Y39.97
G0 F3600 X76.987 Y40.5
G1 F2400 X84.667 Y48.18 E71.2238
G1 X84.773 Y48.286
G0 F3600 X84.243 Y48.605
G1 F2400 X76.563 Y40.925 E72.0366
G1 X76.457 Y40.819
G0 F3600 X76.139 Y41.349
G1 F2400 X83.819 Y49.029 E72.8494
G1 X83.925 Y49.135
G0 F3600 X83.394 Y49.453
G1 F2400 X75.714 Y41.773 E73.6622
G1 X75.608 Y41.667
G0 F3600 X75.29 Y42.198
G1 F2400 X82.97 Y49.877 E74.47494
G1 X83.076 Y49.983
G0 F3600 X82.546 Y50.302
G1 F2400 X74.866 Y42.622 E75.28774
G1 X74.76 Y42.516
G0 F3600 X74.442 Y43.046
G1 F2400 X82.121 Y50.726 E76.10049
G1 X82.227 Y50.832
G0 F3600 X81.697 Y51.15
G1 F2400 X74.017 Y43.47 E76.91329
G1 X73.911 Y43.364
G0 F3600 X73.593 Y43.895
G1 F2400 X81.273 Y51.574 E77.72603
G1 X81.379 Y51.68
G0 F3600 X80.849 Y51.999
G1 F2400 X73.169 Y44.319 E78.53883
G1 X73.063 Y44.213
G0 F3600 X72.745 Y44.743
G1 F2400 X80.424 Y52.423 E79.35158
G1 X80.53 Y52.529
G0 F3600 X80 Y52.847
G1 F2400 X72.32 Y45.167 E80.16437
G1 X72.214 Y45.061
G0 F3600 X71.896 Y45.592
G1 F2400 X79.576 Y53.272 E80.97717
G1 X79.682 Y53.378
G0 F3600 X79.152 Y53.696
G1 F2400 X71.472 Y46.016 E81.78997
G1 X71.366 Y45.91
G0 F3600 X71.047 Y46.44
G1 F2400 X78.727 Y54.12 E82.60277
G1 X78.833 Y54.226
G0 F3600 X78.303 Y54.544
G1 F2400 X70.623 Y46.864 E83.41557
G1 X70.517 Y46.758
G0 F3600 X70.199 Y47.289
G1 F2400 X77.879 Y54.969 E84.22836
G1 X77.985 Y55.075
G0 F3600 X77.455 Y55.393
G1 F2400 X69.775 Y47.713 E85.04116
G1 X69.669 Y47.607
G0 F3600 X69.35 Y48.137
G1 F2400 X77.03 Y55.817 E85.85396
G1 X77.136 Y55.923
G0 F3600 X76.606 Y56.241
G1 F2400 X68.926 Y48.561 E86.66676
G1 X68.82 Y48.455
G0 F3600 X68.502 Y48.986
G1 F2400 X76.182 Y56.666 E87.47956
G1 X76.288 Y56.772
G0 F3600 X75.758 Y57.09
G1 F2400 X68.078 Y49.41 E88.29236
G1 X67.972 Y49.304
G0 F3600 X67.653 Y49.834
G1 F2400 X75.333 Y57.514 E89.10515
G1 X75.439 Y57.62
G0 F3600 X74.909 Y57.938
G1 F2400 X67.229 Y50.259 E89.9179
G1 X67.123 Y50.153
G0 F3600 X66.805 Y50.683
G1 F2400 X74.485 Y58.363 E90.7307
G1 X74.591 Y58.469
G0 F3600 X74.06 Y58.787
G1 F2400 X66.381 Y51.107 E91.54344
G1 X66.275 Y51.001
G0 F3600 X65.956 Y51.531
G1 F2400 X73.636 Y59.211 E92.35624
G1 X73.742 Y59.317
G0 F3600 X73.212 Y59.635
G1 F2400 X65.532 Y51.956 E93.16899
G1 X65.426 Y51.85
G0 F3600 X65.108 Y52.38
G1 F2400 X72.788 Y60.06 E93.98178
G1 X72.894 Y60.166
G0 F3600 X72.363 Y60.484
G1 F2400 X64.684 Y52.804 E94.79453
G1 X64.578 Y52.698
G0 F3600 X64.259 Y53.228
G1 F2400 X71.939 Y60.908 E95.60733
G1 X72.045 Y61.014
G0 F3600 X71.515 Y61.333
G1 F2400 X63.835 Y53.653 E96.42013
G1 X63.729 Y53.547
G0 F3600 X63.411 Y54.077
G1 F2400 X71.091 Y61.757 E97.23292
G1 X71.197 Y61.863
G0 F3600 X70.666 Y62.181
G1 F2400 X62.986 Y54.501 E98.04572
G1 X62.88 Y54.395
G0 F3600 X62.562 Y54.925
G1 F2400 X70.242 Y62.605 E98.85852
G1 X70.348 Y62.711
G0 F3600 X69.818 Y63.03
G1 F2400 X62.138 Y55.35 E99.67132
G1 X62.032 Y55.244
G0 F3600 X61.714 Y55.774
G1 F2400 X69.394 Y63.454 E100.48412
G1 X69.5 Y63.56
G0 F3600 X68.969 Y63.878
G1 F2400 X61.289 Y56.198 E101.29692
G1 X61.183 Y56.092
G0 F3600 X60.865 Y56.622
G1 F2400 X68.545 Y64.302 E102.10971
G1 X68.651 Y64.408
G0 F3600 X68.121 Y64.727
G1 F2400 X60.441 Y57.047 E102.92251
G1 X60.335 Y56.941
G0 F3600 X60.017 Y57.471
G1 F2400 X67.696 Y65.151 E103.73526
G1 X67.802 Y65.257
G0 F3600 X67.272 Y65.575
G1 F2400 X59.592 Y57.895 E104.54806
G1 X59.486 Y57.789
G0 F3600 X59.168 Y58.32
G1 F2400 X66.848 Y65.999 E105.3608
G1 X66.954 Y66.105
G0 F3600 X66.424 Y66.424
G1 F2400 X58.744 Y58.744 E106.1736
G1 X58.638 Y58.638
G0 F3600 X58.32 Y59.168
G1 F2400 X65.999 Y66.848 E106.98634
G1 X66.105 Y66.954
G0 F3600 X65.575 Y67.272
G1 F2400 X57.895 Y59.592 E107.79914
G1 X57.789 Y59.486
G0 F3600 X57.471 Y60.017
G1 F2400 X65.151 Y67.696 E108.61189
G1 X65.257 Y67.802
G0 F3600 X64.727 Y68.121
G1 F2400 X57.047 Y60.441 E109.42469
G1 X56.941 Y60.335
G0 F3600 X56.622 Y60.865
G1 F2400 X64.302 Y68.545 E110.23748
G1 X64.408 Y68.651
G0 F3600 X63.878 Y68.969
G1 F2400 X56.198 Y61.289 E111.05028
G1 X56.092 Y61.183
G0 F3600 X55.774 Y61.714
G1 F2400 X63.454 Y69.394 E111.86308
G1 X63.56 Y69.5
G0 F3600 X63.03 Y69.818
G1 F2400 X55.35 Y62.138 E112.67588
G1 X55.244 Y62.032
G0 F3600 X54.925 Y62.562
G1 F2400 X62.605 Y70.242 E113.48868
G1 X62.711 Y70.348
G0 F3600 X62.181 Y70.666
G1 F2400 X54.501 Y62.986 E114.30148
G1 X54.395 Y62.88
G0 F3600 X54.077 Y63.411
G1 F2400 X61.757 Y71.091 E115.11427
G1 X61.863 Y71.197
G0 F3600 X61.333 Y71.515
G1 F2400 X53.653 Y63.835 E115.92707
G1 X53.547 Y63.729
G0 F3600 X53.228 Y64.259
G1 F2400 X60.908 Y71.939 E116.73987
G1 X61.014 Y72.045
G0 F3600 X60.484 Y72.363
G1 F2400 X52.804 Y64.684 E117.55262
G1 X52.698 Y64.578
G0 F3600 X52.38 Y65.108
G1 F2400 X60.06 Y72.788 E118.36541
G1 X60.166 Y72.894
G0 F3600 X59.635 Y73.212
G1 F2400 X51.956 Y65.532 E119.17816
G1 X51.85 Y65.426
G0 F3600 X51.531 Y65.956
G1 F2400 X59.211 Y73.636 E119.99096
G1 X59.317 Y73.742
G0 F3600 X58.787 Y74.06
G1 F2400 X51.107 Y66.381 E120.8037
G1 X51.001 Y66.275
G0 F3600 X50.683 Y66.805
G1 F2400 X58.363 Y74.485 E121.6165
G1 X58.469 Y74.591
G0 F3600 X57.938 Y74.909
G1 F2400 X50.259 Y67.229 E122.42925
G1 X50.153 Y67.123
G0 F3600 X49.834 Y67.653
G1 F2400 X57.514 Y75.333 E123.24204
G1 X57.62 Y75.439
G0 F3600 X57.09 Y75.758
G1 F2400 X49.41 Y68.078 E124.05484
G1 X49.304 Y67.972
G0 F3600 X48.986 Y68.502
G1 F2400 X56.666 Y76.182 E124.86764
G1 X56.772 Y76.288
G0 F3600 X56.241 Y76.606
G1 F2400 X48.561 Y68.926 E125.68044
G1 X48.455 Y68.82
G0 F3600 X48.137 Y69.35
G1 F2400 X55.817 Y77.03 E126.49324
G1 X55.923 Y77.136
G0 F3600 X55.393 Y77.455
G1 F2400 X47.713 Y69.775 E127.30604
G1 X47.607 Y69.669
G0 F3600 X47.289 Y70.199
G1 F2400 X54.969 Y77.879 E128.11883
G1 X55.075 Y77.985
G0 F3600 X54.544 Y78.303
G1 F2400 X46.864 Y70.623 E128.93163
G1 X46.758 Y70.517
G0 F3600 X46.44 Y71.047
G1 F2400 X54.12 Y78.727 E129.74443
G1 X54.226 Y78.833
G0 F3600 X53.696 Y79.152
G1 F2400 X46.016 Y71.472 E130.55723
G1 X45.91 Y71.366
G0 F3600 X45.592 Y71.896
G1 F2400 X53.272 Y79.576 E131.37003
G1 X53.378 Y79.682
G0 F3600 X52.847 Y80
G1 F2400 X45.167 Y72.32 E132.18282
G1 X45.061 Y72.214
G0 F3600 X44.743 Y72.745
G1 F2400 X47.848 Y75.849 E132.51138
G1 X47.954 Y75.955
G0 F3600 X47.131 Y75.981
G1 F2400 X44.319 Y73.169 E132.80899
G1 X44.213 Y73.063
G0 F3600 X43.895 Y73.593
G1 F2400 X46.624 Y76.322 E133.0978
G1 X46.73 Y76.428
G0 F3600 X46.301 Y76.848
G1 F2400 X43.47 Y74.017 E133.39742
G1 X43.364 Y73.911
G0 F3600 X43.046 Y74.442
G1 F2400 X46.205 Y77.601 E133.73174
G1 X46.311 Y77.707
G0 F3600 X46.807 Y78.363
G0 X47.568 Y78.964
