;FLAVOR:Marlin
;TIME:391
;Filament used: 1.34327m
;Layer height: 0.4
;Generated with Cura_SteamEngine 2.7.0
M190 S60
M104 S220
M109 S220
G28 ;Home
G1 Z15.0 F6000 ;Move the platform down 15mm
;Prime the extruder
G92 E0
G1 F200 E3
G92 E0
;LAYER_COUNT:8
;LAYER:0
M107
G0 F3600 X40.3 Y40.3 Z0.3
;TYPE:WALL-OUTER
G1 F2400 X84.7 Y40.3 E3.32269
G1 X84.7 Y84.7 E6.64537
G1 X40.3 Y84.7 E9.96806
G1 X40.3 Y40.3 E13.29075
G0 F3600 X40.6 Y40.3
G0 X40.6 Y40.4
G0 X45.55 Y45.412
G0 X45.617 Y45.485
G1 F2400 X45.333 Y45.806 E13.32282
G1 X45.121 Y46.179 E13.35493
G1 X44.992 Y46.587 E13.38695
G1 X44.949 Y47.014 E13.41907
G1 X44.997 Y47.441 E13.45123
G1 X45.132 Y47.848 E13.48332
G1 X45.349 Y48.217 E13.51535
G1 X45.639 Y48.534 E13.5475
G1 X45.987 Y48.783 E13.57953
G1 X46.38 Y48.955 E13.61163
G1 X46.8 Y49.04 E13.6437
G1 X47.229 Y49.037 E13.6758
G1 X47.647 Y48.945 E13.70783
G1 X48.037 Y48.769 E13.73985
G1 X48.383 Y48.515 E13.77197
G1 X48.667 Y48.194 E13.80405
G1 X48.879 Y47.821 E13.83616
G1 X49.008 Y47.413 E13.86818
G1 X49.051 Y46.986 E13.90029
G1 X49.003 Y46.559 E13.93245
G1 X48.868 Y46.152 E13.96454
G1 X48.651 Y45.783 E13.99658
G1 X48.361 Y45.466 E14.02873
G1 X48.013 Y45.217 E14.06075
G1 X47.62 Y45.045 E14.09285
G1 X47.2 Y44.96 E14.12492
G1 X46.771 Y44.963 E14.15703
G1 X46.353 Y45.055 E14.18906
G1 X45.963 Y45.231 E14.22108
G1 X45.617 Y45.485 E14.2532
G0 F3600 X45.418 Y45.71
G0 X45.343 Y45.644
G0 X45.943 Y45.197
G0 X46.341 Y45.018
G0 X46.767 Y44.924
G0 X47.203 Y44.921
G0 X47.632 Y45.007
G0 X48.032 Y45.183
G0 X48.387 Y45.437
G0 X48.683 Y45.76
G0 X55.291 Y55.006
G0 X55.36 Y55.078
G1 F2400 X54.723 Y55.747 E14.32233
G1 X54.15 Y56.471 E14.39142
G1 X53.644 Y57.244 E14.46056
G1 X53.207 Y58.059 E14.52977
G1 X52.848 Y58.909 E14.59882
G1 X52.563 Y59.79 E14.66811
G1 X52.361 Y60.691 E14.73721
G1 X52.24 Y61.608 E14.80643
G1 X52.201 Y62.531 E14.87557
G1 X52.245 Y63.454 E14.94472
G1 X52.373 Y64.369 E15.01386
G1 X52.58 Y65.269 E15.08297
G1 X52.869 Y66.148 E15.15221
G1 X53.234 Y66.996 E15.2213
G1 X53.675 Y67.809 E15.29052
G1 X54.187 Y68.578 E15.35966
G1 X54.764 Y69.299 E15.42876
G1 X55.405 Y69.966 E15.49799
G1 X56.103 Y70.571 E15.56712
G1 X56.852 Y71.112 E15.63626
G1 X57.646 Y71.584 E15.70539
G1 X58.481 Y71.982 E15.77461
G1 X59.347 Y72.305 E15.84378
G1 X60.238 Y72.547 E15.91287
G1 X61.148 Y72.71 E15.98206
G1 X62.068 Y72.79 E16.05116
G1 X62.993 Y72.787 E16.12039
G1 X63.912 Y72.701 E16.18946
G1 X64.822 Y72.534 E16.2587
G1 X65.712 Y72.285 E16.32786
G1 X66.576 Y71.958 E16.39699
G1 X67.408 Y71.555 E16.46617
G1 X68.199 Y71.078 E16.5353
G1 X68.946 Y70.532 E16.60454
G1 X69.64 Y69.922 E16.67369
G1 X70.277 Y69.253 E16.74282
G1 X70.85 Y68.529 E16.81192
G1 X71.356 Y67.756 E16.88105
G1 X71.793 Y66.941 E16.95026
G1 X72.152 Y66.091 E17.01931
G1 X72.437 Y65.21 E17.0886
G1 X72.639 Y64.309 E17.1577
G1 X72.76 Y63.392 E17.22692
G1 X72.799 Y62.469 E17.29606
G1 X72.755 Y61.546 E17.36521
G1 X72.627 Y60.631 E17.43435
G1 X72.42 Y59.731 E17.50346
G1 X72.131 Y58.852 E17.57271
G1 X71.766 Y58.004 E17.64179
G1 X71.325 Y57.191 E17.71101
G1 X70.813 Y56.422 E17.78015
G1 X70.236 Y55.701 E17.84925
G1 X69.595 Y55.034 E17.91848
G1 X68.897 Y54.429 E17.98761
G1 X68.148 Y53.888 E18.05675
G1 X67.354 Y53.416 E18.12588
G1 X66.519 Y53.018 E18.1951
G1 X65.653 Y52.695 E18.26427
G1 X64.762 Y52.453 E18.33336
G1 X63.852 Y52.29 E18.40255
G1 X62.932 Y52.21 E18.47165
G1 X62.007 Y52.213 E18.54088
G1 X61.088 Y52.299 E18.60995
G1 X60.178 Y52.466 E18.67919
G1 X59.288 Y52.715 E18.74835
G1 X58.424 Y53.042 E18.81748
G1 X57.592 Y53.445 E18.88667
G1 X56.801 Y53.922 E18.95579
G1 X56.054 Y54.468 E19.02503
G1 X55.36 Y55.078 E19.09418
G0 F3600 X55.153 Y55.295
G0 X55.081 Y55.226
G0 X60.553 Y49.796
G0 X60.626 Y49.729
G1 F2400 X60.976 Y50.045 E19.12947
G1 X61.377 Y50.289 E19.1646
G1 X61.817 Y50.457 E19.19984
G1 X62.28 Y50.54 E19.23504
G1 X62.752 Y50.537 E19.27037
G1 X63.213 Y50.448 E19.3055
G1 X63.651 Y50.276 E19.34072
G1 X64.049 Y50.026 E19.37589
G1 X64.395 Y49.706 E19.41116
G1 X64.676 Y49.329 E19.44635
G1 X64.884 Y48.907 E19.48156
G1 X65.009 Y48.452 E19.51687
G1 X65.05 Y47.984 E19.55202
G1 X65.004 Y47.517 E19.58714
G1 X64.872 Y47.065 E19.62238
G1 X64.66 Y46.645 E19.65759
G1 X64.374 Y46.271 E19.69282
G1 X64.024 Y45.955 E19.72811
G1 X63.623 Y45.711 E19.76324
G1 X63.183 Y45.543 E19.79848
G1 X62.72 Y45.46 E19.83368
G1 X62.248 Y45.463 E19.86901
G1 X61.787 Y45.552 E19.90414
G1 X61.349 Y45.724 E19.93936
G1 X60.951 Y45.974 E19.97453
G1 X60.605 Y46.294 E20.0098
G1 X60.324 Y46.671 E20.04499
G1 X60.116 Y47.093 E20.0802
G1 X59.991 Y47.548 E20.11551
G1 X59.95 Y48.016 E20.15067
G1 X59.996 Y48.483 E20.18578
G1 X60.128 Y48.935 E20.22102
G1 X60.34 Y49.355 E20.25623
G1 X60.626 Y49.729 E20.29146
G0 F3600 X60.848 Y49.93
G0 X60.781 Y50.003
G0 X61.36 Y50.324
G0 X61.807 Y50.495
G0 X62.277 Y50.579
G0 X62.755 Y50.576
G0 X75.9 Y47.462
G0 X75.997 Y47.441
G1 F2400 X76.132 Y47.848 E20.32355
G1 X76.349 Y48.217 E20.35559
G1 X76.639 Y48.534 E20.38774
G1 X76.987 Y48.783 E20.41976
G1 X77.38 Y48.955 E20.45187
G1 X77.8 Y49.04 E20.48393
G1 X78.229 Y49.037 E20.51604
G1 X78.647 Y48.945 E20.54807
G1 X79.037 Y48.769 E20.58009
G1 X79.383 Y48.515 E20.61221
G1 X79.667 Y48.194 E20.64428
G1 X79.879 Y47.821 E20.67639
G1 X80.008 Y47.413 E20.70841
G1 X80.051 Y46.986 E20.74053
G1 X80.003 Y46.559 E20.77269
G1 X79.868 Y46.152 E20.80478
G1 X79.651 Y45.783 E20.83681
G1 X79.361 Y45.466 E20.86896
G1 X79.013 Y45.217 E20.90099
G1 X78.62 Y45.045 E20.93309
G1 X78.2 Y44.96 E20.96516
G1 X77.771 Y44.963 E20.99726
G1 X77.353 Y45.055 E21.02929
G1 X76.963 Y45.231 E21.06131
G1 X76.617 Y45.485 E21.09343
G1 X76.333 Y45.806 E21.12551
G1 X76.121 Y46.179 E21.15762
G1 X75.992 Y46.587 E21.18964
G1 X75.949 Y47.014 E21.22175
G1 X75.997 Y47.441 E21.25391
G0 F3600 X76.091 Y47.726
G0 X75.996 Y47.757
G0 X76.739 Y59.864
G0 X76.748 Y59.963
G1 F2400 X76.287 Y60.052 E21.28905
G1 X75.849 Y60.224 E21.32426
G1 X75.451 Y60.474 E21.35943
G1 X75.105 Y60.794 E21.3947
G1 X74.824 Y61.171 E21.42989
G1 X74.616 Y61.593 E21.4651
G1 X74.491 Y62.048 E21.50041
G1 X74.45 Y62.516 E21.53557
G1 X74.496 Y62.983 E21.57069
G1 X74.628 Y63.435 E21.60592
G1 X74.84 Y63.855 E21.64113
G1 X75.126 Y64.229 E21.67637
G1 X75.476 Y64.545 E21.71165
G1 X75.877 Y64.789 E21.74678
G1 X76.317 Y64.957 E21.78203
G1 X76.78 Y65.04 E21.81723
G1 X77.252 Y65.037 E21.85255
G1 X77.713 Y64.948 E21.88769
G1 X78.151 Y64.776 E21.9229
G1 X78.549 Y64.526 E21.95808
G1 X78.895 Y64.206 E21.99334
G1 X79.176 Y63.829 E22.02853
G1 X79.384 Y63.407 E22.06374
G1 X79.509 Y62.952 E22.09905
G1 X79.55 Y62.484 E22.13421
G1 X79.504 Y62.017 E22.16933
G1 X79.372 Y61.565 E22.20457
G1 X79.16 Y61.145 E22.23977
G1 X78.874 Y60.771 E22.27501
G1 X78.524 Y60.455 E22.3103
G1 X78.123 Y60.211 E22.34542
G1 X77.683 Y60.043 E22.38067
G1 X77.22 Y59.96 E22.41587
G1 X76.748 Y59.963 E22.45119
G0 F3600 X76.454 Y60.019
G0 X76.437 Y59.921
G0 X75.831 Y60.189
G0 X75.427 Y60.443
G0 X75.076 Y60.768
G0 X74.79 Y61.151
G0 X74.579 Y61.579
G0 X74.452 Y62.041
G0 X74.41 Y62.516
G0 X74.457 Y62.99
G0 X77.76 Y75.864
G0 X77.771 Y75.963
G1 F2400 X77.353 Y76.055 E22.48322
G1 X76.963 Y76.231 E22.51524
G1 X76.617 Y76.485 E22.54736
G1 X76.333 Y76.806 E22.57944
G1 X76.121 Y77.179 E22.61155
G1 X75.992 Y77.587 E22.64357
G1 X75.949 Y78.014 E22.67568
G1 X75.997 Y78.441 E22.70784
G1 X76.132 Y78.848 E22.73993
G1 X76.349 Y79.217 E22.77197
G1 X76.639 Y79.534 E22.80412
G1 X76.987 Y79.783 E22.83614
G1 X77.38 Y79.955 E22.86824
G1 X77.8 Y80.04 E22.90031
G1 X78.229 Y80.037 E22.93242
G1 X78.647 Y79.945 E22.96445
G1 X79.037 Y79.769 E22.99647
G1 X79.383 Y79.515 E23.02859
G1 X79.667 Y79.194 E23.06066
G1 X79.879 Y78.821 E23.09277
G1 X80.008 Y78.413 E23.12479
G1 X80.051 Y77.986 E23.15691
G1 X80.003 Y77.559 E23.18906
G1 X79.868 Y77.152 E23.22115
G1 X79.651 Y76.783 E23.25319
G1 X79.361 Y76.466 E23.28534
G1 X79.013 Y76.217 E23.31736
G1 X78.62 Y76.045 E23.34947
G1 X78.2 Y75.96 E23.38154
G1 X77.771 Y75.963 E23.41364
G0 F3600 X77.479 Y76.027
G0 X77.459 Y75.93
G0 X65.15 Y76.984
G0 X65.05 Y76.984
G1 F2400 X65.004 Y76.517 E23.44876
G1 X64.872 Y76.065 E23.484
G1 X64.66 Y75.645 E23.5192
G1 X64.374 Y75.271 E23.55444
G1 X64.024 Y74.955 E23.58973
G1 X63.623 Y74.711 E23.62485
G1 X63.183 Y74.543 E23.6601
G1 X62.72 Y74.46 E23.6953
G1 X62.248 Y74.463 E23.73062
G1 X61.787 Y74.552 E23.76576
G1 X61.349 Y74.724 E23.80098
G1 X60.951 Y74.974 E23.83615
G1 X60.605 Y75.294 E23.87142
G1 X60.324 Y75.671 E23.90661
G1 X60.116 Y76.093 E23.94181
G1 X59.991 Y76.548 E23.97713
G1 X59.95 Y77.016 E24.01228
G1 X59.996 Y77.483 E24.0474
G1 X60.128 Y77.935 E24.08264
G1 X60.34 Y78.355 E24.11785
G1 X60.626 Y78.729 E24.15308
G1 X60.976 Y79.045 E24.18837
G1 X61.377 Y79.289 E24.2235
G1 X61.817 Y79.457 E24.25874
G1 X62.28 Y79.54 E24.29394
G1 X62.752 Y79.537 E24.32927
G1 X63.213 Y79.448 E24.3644
G1 X63.651 Y79.276 E24.39962
G1 X64.049 Y79.026 E24.43479
G1 X64.395 Y78.706 E24.47006
G1 X64.676 Y78.329 E24.50525
G1 X64.884 Y77.907 E24.54045
G1 X65.009 Y77.452 E24.57577
G1 X65.05 Y76.984 E24.61092
G0 F3600 X65.021 Y76.686
G0 X65.12 Y76.678
G0 X65.048 Y77.459
G0 X64.921 Y77.921
G0 X64.71 Y78.349
G0 X64.424 Y78.732
G0 X64.073 Y79.057
G0 X63.669 Y79.311
G0 X63.224 Y79.486
G0 X62.755 Y79.576
G0 X62.277 Y79.579
G0 X49.151 Y77.986
G0 X49.051 Y77.986
G1 F2400 X49.003 Y77.559 E24.64308
G1 X48.868 Y77.152 E24.67517
G1 X48.651 Y76.783 E24.7072
G1 X48.361 Y76.466 E24.73936
G1 X48.013 Y76.217 E24.77138
G1 X47.62 Y76.045 E24.80348
G1 X47.2 Y75.96 E24.83555
G1 X46.771 Y75.963 E24.86766
G1 X46.353 Y76.055 E24.89969
G1 X45.963 Y76.231 E24.93171
G1 X45.617 Y76.485 E24.96383
G1 X45.333 Y76.806 E24.9959
G1 X45.121 Y77.179 E25.02801
G1 X44.992 Y77.587 E25.06003
G1 X44.949 Y78.014 E25.09215
G1 X44.997 Y78.441 E25.1243
G1 X45.132 Y78.848 E25.15639
G1 X45.349 Y79.217 E25.18843
G1 X45.639 Y79.534 E25.22058
G1 X45.987 Y79.783 E25.2526
G1 X46.38 Y79.955 E25.28471
G1 X46.8 Y80.04 E25.31677
G1 X47.229 Y80.037 E25.34888
G1 X47.647 Y79.945 E25.38091
G1 X48.037 Y79.769 E25.41293
G1 X48.383 Y79.515 E25.44505
G1 X48.667 Y79.194 E25.47713
G1 X48.879 Y78.821 E25.50923
G1 X49.008 Y78.413 E25.54125
G1 X49.051 Y77.986 E25.57337
G0 F3600 X49.018 Y77.688
G0 X49.117 Y77.677
G0 X48.261 Y65.136
G0 X48.252 Y65.037
G1 F2400 X48.713 Y64.948 E25.60851
G1 X49.151 Y64.776 E25.64372
G1 X49.549 Y64.526 E25.67889
G1 X49.895 Y64.206 E25.71416
G1 X50.176 Y63.829 E25.74935
G1 X50.384 Y63.407 E25.78456
G1 X50.509 Y62.952 E25.81987
G1 X50.55 Y62.484 E25.85503
G1 X50.504 Y62.017 E25.89015
G1 X50.372 Y61.565 E25.92538
G1 X50.16 Y61.145 E25.96059
G1 X49.874 Y60.771 E25.99583
G1 X49.524 Y60.455 E26.03111
G1 X49.123 Y60.211 E26.06624
G1 X48.683 Y60.043 E26.10149
G1 X48.22 Y59.96 E26.13669
G1 X47.748 Y59.963 E26.17201
G1 X47.287 Y60.052 E26.20715
G1 X46.849 Y60.224 E26.24236
G1 X46.451 Y60.474 E26.27754
G1 X46.105 Y60.794 E26.31281
G1 X45.824 Y61.171 E26.34799
G1 X45.616 Y61.593 E26.3832
G1 X45.491 Y62.048 E26.41851
G1 X45.45 Y62.516 E26.45367
G1 X45.496 Y62.983 E26.48879
G1 X45.628 Y63.435 E26.52403
G1 X45.84 Y63.855 E26.55923
G1 X46.126 Y64.229 E26.59447
G1 X46.476 Y64.545 E26.62976
G1 X46.877 Y64.789 E26.66488
G1 X47.317 Y64.957 E26.70013
G1 X47.78 Y65.04 E26.73533
G1 X48.252 Y65.037 E26.77065
G0 F3600 X48.546 Y64.981
G0 X48.563 Y65.079
G0 X41.154 Y84.429
;TYPE:SKIN
G1 F2400 X40.569 Y83.844 E26.83257
G0 F3600 X40.569 Y82.995
G1 F2400 X42.002 Y84.429 E26.98428
G1 X42.108 Y84.535
G0 F3600 X42.851 Y84.429
G1 F2400 X40.569 Y82.147 E27.22579
G1 X40.463 Y82.041
G0 F3600 X40.569 Y81.298
G1 F2400 X43.699 Y84.429 E27.5571
G1 X43.805 Y84.535
G0 F3600 X44.548 Y84.429
G1 F2400 X40.569 Y80.45 E27.97821
G1 X40.463 Y80.344
G0 F3600 X40.569 Y79.601
G1 F2400 X45.396 Y84.429 E28.48912
G1 X45.502 Y84.535
G0 F3600 X46.245 Y84.429
G1 F2400 X40.569 Y78.753 E29.08983
G1 X40.463 Y78.647
G0 F3600 X40.569 Y77.904
G1 F2400 X47.094 Y84.429 E29.78039
G1 X47.2 Y84.535
G0 F3600 X47.942 Y84.429
G1 F2400 X40.569 Y77.056 E30.5607
G1 X40.463 Y76.95
G0 F3600 X40.569 Y76.207
G1 F2400 X48.791 Y84.429 E31.43086
G1 X48.897 Y84.535
G0 F3600 X49.639 Y84.429
G1 F2400 X40.569 Y75.359 E32.39076
G1 X40.463 Y75.253
G0 F3600 X40.569 Y74.51
G1 F2400 X44.817 Y78.758 E32.84034
G1 X44.923 Y78.864
G0 F3600 X44.7 Y77.793
G1 F2400 X40.569 Y73.662 E33.27754
G1 X40.463 Y73.556
G0 F3600 X40.569 Y72.813
G1 F2400 X44.862 Y77.106 E33.73188
G1 X44.968 Y77.212
G0 F3600 X45.177 Y76.573
G1 F2400 X40.569 Y71.965 E34.21956
G1 X40.463 Y71.859
G0 F3600 X40.569 Y71.116
G1 F2400 X45.608 Y76.155 E34.75285
G1 X45.714 Y76.261
G0 F3600 X46.15 Y75.848
G1 F2400 X40.569 Y70.268 E35.34345
G1 X40.463 Y70.162
G0 F3600 X40.569 Y69.419
G1 F2400 X46.841 Y75.691 E36.00724
G1 X46.947 Y75.797
G0 F3600 X47.845 Y75.847
G1 F2400 X40.569 Y68.57 E36.77733
G1 X40.463 Y68.464
G0 F3600 X40.569 Y67.722
G1 F2400 X57.276 Y84.429 E38.54549
G1 X57.382 Y84.535
G0 F3600 X58.124 Y84.429
G1 F2400 X40.569 Y66.873 E40.40344
G1 X40.463 Y66.767
G0 F3600 X40.569 Y66.025
G1 F2400 X58.973 Y84.429 E42.35119
G1 X59.079 Y84.535
G0 F3600 X59.821 Y84.429
G1 F2400 X40.569 Y65.176 E44.38874
G1 X40.463 Y65.07
G0 F3600 X40.569 Y64.328
G1 F2400 X60.67 Y84.429 E46.51609
G1 X60.776 Y84.535
G0 F3600 X61.518 Y84.429
G1 F2400 X40.569 Y63.479 E48.73324
G1 X40.463 Y63.373
G0 F3600 X40.569 Y62.631
G1 F2400 X62.367 Y84.429 E51.04019
G1 X62.473 Y84.535
G0 F3600 X63.216 Y84.429
G1 F2400 X40.569 Y61.782 E53.437
G1 X40.463 Y61.676
G0 F3600 X40.569 Y60.934
G1 F2400 X64.064 Y84.429 E55.92355
G1 X64.17 Y84.535
G0 F3600 X64.913 Y84.429
G1 F2400 X40.569 Y60.085 E58.49995
G1 X40.463 Y59.979
G0 F3600 X40.569 Y59.237
G1 F2400 X65.761 Y84.429 E61.16609
G1 X65.867 Y84.535
G0 F3600 X66.61 Y84.429
G1 F2400 X61.931 Y79.751 E61.66123
G1 X61.825 Y79.645
G0 F3600 X62.827 Y79.797
G1 F2400 X67.458 Y84.429 E62.1514
G1 X67.564 Y84.535
G0 F3600 X68.307 Y84.429
G1 F2400 X63.501 Y79.623 E62.66003
G1 X63.395 Y79.517
G0 F3600 X64.063 Y79.336
G1 F2400 X69.155 Y84.429 E63.19899
G1 X69.261 Y84.535
G0 F3600 X70.004 Y84.429
G1 F2400 X64.527 Y78.952 E63.77864
G1 X64.421 Y78.846
G0 F3600 X64.9 Y78.476
G1 F2400 X70.852 Y84.429 E64.40861
G1 X70.958 Y84.535
G0 F3600 X71.701 Y84.429
G1 F2400 X65.166 Y77.894 E65.10023
G1 X65.06 Y77.788
G0 F3600 X65.302 Y77.182
G1 F2400 X72.549 Y84.429 E65.8672
G1 X72.655 Y84.535
G0 F3600 X73.398 Y84.429
G1 F2400 X65.202 Y76.233 E66.73461
G1 X65.096 Y76.127
G0 F3600 X64.403 Y75.244
G0 X63.249 Y74.28
G1 F2400 X62.025 Y73.056 E66.86415
G1 X61.919 Y72.95
G0 F3600 X62.874 Y73.056
G1 F2400 X74.246 Y84.429 E68.06774
G1 X74.352 Y84.535
G0 F3600 X75.095 Y84.429
G1 F2400 X63.661 Y72.995 E69.27783
G1 X63.555 Y72.889
G0 F3600 X64.399 Y72.885
G1 F2400 X75.943 Y84.429 E70.49957
G1 X76.049 Y84.535
G0 F3600 X76.792 Y84.429
G1 F2400 X65.099 Y72.736 E71.73708
G1 X64.993 Y72.63
G0 F3600 X65.762 Y72.55
G1 F2400 X77.641 Y84.429 E72.99427
G1 X77.747 Y84.535
G0 F3600 X78.489 Y84.429
G1 F2400 X66.381 Y72.32 E74.27575
G1 X66.275 Y72.214
G0 F3600 X66.974 Y72.065
G1 F2400 X79.338 Y84.429 E75.58427
G1 X79.444 Y84.535
G0 F3600 X80.186 Y84.429
G1 F2400 X67.544 Y71.787 E76.92221
G1 X67.438 Y71.681
G0 F3600 X68.073 Y71.467
G1 F2400 X81.035 Y84.429 E78.29402
G1 X81.141 Y84.535
G0 F3600 X81.883 Y84.429
G1 F2400 X77.761 Y80.306 E78.73031
G1 X77.655 Y80.2
G0 F3600 X78.546 Y80.243
G1 F2400 X82.732 Y84.429 E79.17333
G1 X82.838 Y84.535
G0 F3600 X83.58 Y84.429
G1 F2400 X79.16 Y80.009 E79.64111
G1 X79.054 Y79.903
G0 F3600 X79.635 Y79.635
G1 F2400 X84.429 Y84.429 E80.14848
G1 X84.535 Y84.535
G0 F3600 X84.429 Y83.581
G1 F2400 X79.999 Y79.151 E80.61732
G1 X79.893 Y79.045
G0 F3600 X80.246 Y78.548
G1 F2400 X84.429 Y82.732 E81.06007
G1 X84.535 Y82.838
G0 F3600 X84.429 Y81.884
G1 F2400 X80.295 Y77.749 E81.49764
G1 X80.189 Y77.643
G0 F3600 X79.683 Y76.76
G0 X79.387 Y76.437
G0 X78.237 Y75.692
G1 F2400 X71.133 Y68.587 E82.24953
G1 X71.027 Y68.481
G0 F3600 X70.765 Y69.068
G1 F2400 X77.452 Y75.755 E82.95724
G1 X77.558 Y75.861
G0 F3600 X76.838 Y75.989
G1 F2400 X70.381 Y69.533 E83.64055
G1 X70.275 Y69.427
G0 F3600 X69.968 Y69.968
G1 F2400 X76.363 Y76.363 E84.31735
G1 X76.469 Y76.469
G0 F3600 X75.999 Y76.847
G1 F2400 X69.529 Y70.378 E85.00204
G1 X69.423 Y70.272
G0 F3600 X69.074 Y70.771
