;FLAVOR:Marlin
;TIME:594
;Filament used: 2.07274m
;Layer height: 0.4
;Generated with Cura_SteamEngine 2.7.0
M190 S60
M104 S220
M109 S220
G28 ;Home
G1 Z15.0 F6000 ;Move the platform down 15mm
;Prime the extruder
G92 E0
G1 F200 E3
G92 E0
;LAYER_COUNT:8
;LAYER:0
M107
G0 F3600 X35.3 Y35.3 Z0.3
;TYPE:WALL-OUTER
G1 F2400 X89.7 Y35.3 E4.07104
G1 X89.7 Y89.7 E8.14208
G1 X35.3 Y89.7 E12.21312
G1 X35.3 Y35.3 E16.28416
G0 F3600 X35.6 Y35.3
G0 X35.6 Y35.4
G0 X37.213 Y37.044
G0 X37.28 Y37.117
G1 F2400 X36.927 Y37.515 E16.32397
G1 X36.664 Y37.979 E16.36389
G1 X36.501 Y38.487 E16.40381
G1 X36.45 Y39.018 E16.44373
G1 X36.509 Y39.548 E16.48364
G1 X36.678 Y40.053 E16.52349
G1 X36.947 Y40.514 E16.56344
G1 X37.307 Y40.907 E16.60332
G1 X37.74 Y41.217 E16.64317
G1 X38.229 Y41.431 E16.68312
G1 X38.751 Y41.538 E16.72299
G1 X39.284 Y41.535 E16.76288
G1 X39.804 Y41.42 E16.80274
G1 X40.291 Y41.2 E16.84273
G1 X40.72 Y40.883 E16.88265
G1 X41.073 Y40.485 E16.92246
G1 X41.336 Y40.021 E16.96237
G1 X41.499 Y39.513 E17.0023
G1 X41.55 Y38.982 E17.04222
G1 X41.491 Y38.452 E17.08212
G1 X41.322 Y37.947 E17.12198
G1 X41.053 Y37.486 E17.16192
G1 X40.693 Y37.093 E17.2018
G1 X40.26 Y36.783 E17.24166
G1 X39.771 Y36.569 E17.2816
G1 X39.249 Y36.462 E17.32148
G1 X38.716 Y36.465 E17.36136
G1 X38.196 Y36.58 E17.40122
G1 X37.709 Y36.8 E17.44121
G1 X37.28 Y37.117 E17.48113
G0 F3600 X37.081 Y37.341
G0 X37.007 Y37.275
G0 X37.689 Y36.766
G0 X38.184 Y36.543
G0 X38.712 Y36.426
G0 X39.252 Y36.423
G0 X39.783 Y36.531
G0 X40.279 Y36.749
G0 X40.719 Y37.064
G0 X41.085 Y37.463
G0 X46.213 Y46.044
G0 X46.28 Y46.117
G1 F2400 X45.927 Y46.515 E17.52094
G1 X45.664 Y46.979 E17.56085
G1 X45.501 Y47.487 E17.60078
G1 X45.45 Y48.018 E17.6407
G1 X45.509 Y48.548 E17.68061
G1 X45.678 Y49.053 E17.72046
G1 X45.947 Y49.514 E17.7604
G1 X46.307 Y49.907 E17.80029
G1 X46.74 Y50.217 E17.84014
G1 X47.229 Y50.431 E17.88008
G1 X47.751 Y50.538 E17.91996
G1 X48.284 Y50.535 E17.95985
G1 X48.804 Y50.42 E17.9997
G1 X49.291 Y50.2 E18.03969
G1 X49.72 Y49.883 E18.07961
G1 X50.073 Y49.485 E18.11942
G1 X50.336 Y49.021 E18.15934
G1 X50.499 Y48.513 E18.19926
G1 X50.55 Y47.982 E18.23918
G1 X50.491 Y47.452 E18.27909
G1 X50.322 Y46.947 E18.31894
G1 X50.053 Y46.486 E18.35889
G1 X49.693 Y46.093 E18.39877
G1 X49.26 Y45.783 E18.43862
G1 X48.771 Y45.569 E18.47857
G1 X48.249 Y45.462 E18.51844
G1 X47.716 Y45.465 E18.55833
G1 X47.196 Y45.58 E18.59819
G1 X46.709 Y45.8 E18.63818
G1 X46.28 Y46.117 E18.67809
G0 F3600 X46.081 Y46.341
G0 X46.007 Y46.275
G0 X45.628 Y46.963
G0 X45.462 Y47.479
G0 X45.41 Y48.018
G0 X45.47 Y48.556
G0 X45.642 Y49.069
G0 X45.915 Y49.537
G0 X46.281 Y49.936
G0 X46.721 Y50.251
G0 X55.124 Y55.171
G0 X55.194 Y55.241
G1 F2400 X54.517 Y55.992 E18.75376
G1 X53.918 Y56.806 E18.82939
G1 X53.402 Y57.675 E18.90503
G1 X52.972 Y58.59 E18.98068
G1 X52.635 Y59.543 E19.05633
G1 X52.392 Y60.523 E19.13189
G1 X52.247 Y61.525 E19.20766
G1 X52.202 Y62.534 E19.28324
G1 X52.254 Y63.542 E19.35877
G1 X52.406 Y64.543 E19.43454
G1 X52.655 Y65.522 E19.51014
G1 X52.998 Y66.473 E19.58579
G1 X53.434 Y67.385 E19.66144
G1 X53.956 Y68.25 E19.73705
G1 X54.56 Y69.059 E19.8126
G1 X55.241 Y69.806 E19.88825
G1 X55.992 Y70.483 E19.96391
G1 X56.806 Y71.082 E20.03955
G1 X57.675 Y71.598 E20.11518
G1 X58.59 Y72.028 E20.19084
G1 X59.543 Y72.365 E20.26648
G1 X60.523 Y72.608 E20.34204
G1 X61.525 Y72.753 E20.41781
G1 X62.534 Y72.798 E20.49339
G1 X63.542 Y72.746 E20.56893
G1 X64.543 Y72.594 E20.6447
G1 X65.522 Y72.345 E20.72029
G1 X66.473 Y72.002 E20.79595
G1 X67.385 Y71.566 E20.8716
G1 X68.25 Y71.044 E20.9472
G1 X69.059 Y70.44 E21.02276
G1 X69.806 Y69.759 E21.0984
G1 X70.483 Y69.008 E21.17407
G1 X71.082 Y68.194 E21.2497
G1 X71.598 Y67.325 E21.32533
G1 X72.028 Y66.41 E21.40099
G1 X72.365 Y65.457 E21.47664
G1 X72.608 Y64.477 E21.5522
G1 X72.753 Y63.475 E21.62796
G1 X72.798 Y62.466 E21.70355
G1 X72.746 Y61.458 E21.77908
G1 X72.594 Y60.457 E21.85485
G1 X72.345 Y59.478 E21.93045
G1 X72.002 Y58.527 E22.0061
G1 X71.566 Y57.615 E22.08175
G1 X71.044 Y56.75 E22.15736
G1 X70.44 Y55.941 E22.23291
G1 X69.759 Y55.194 E22.30855
G1 X69.008 Y54.517 E22.38422
G1 X68.194 Y53.918 E22.45985
G1 X67.325 Y53.402 E22.53548
G1 X66.41 Y52.972 E22.61114
G1 X65.457 Y52.635 E22.68679
G1 X64.477 Y52.392 E22.76235
G1 X63.475 Y52.247 E22.83811
G1 X62.466 Y52.202 E22.9137
G1 X61.458 Y52.254 E22.98923
G1 X60.457 Y52.406 E23.065
G1 X59.478 Y52.655 E23.1406
G1 X58.527 Y52.998 E23.21625
G1 X57.615 Y53.434 E23.2919
G1 X56.75 Y53.956 E23.36751
G1 X55.941 Y54.56 E23.44306
G1 X55.194 Y55.241 E23.51871
G0 F3600 X54.994 Y55.463
G0 X54.921 Y55.396
G0 X60.741 Y49.981
G0 X60.807 Y49.907
G1 F2400 X61.24 Y50.217 E23.55856
G1 X61.729 Y50.431 E23.59851
G1 X62.251 Y50.538 E23.63838
G1 X62.784 Y50.535 E23.67827
G1 X63.304 Y50.42 E23.71812
G1 X63.791 Y50.2 E23.75812
G1 X64.22 Y49.883 E23.79803
G1 X64.573 Y49.485 E23.83784
G1 X64.836 Y49.021 E23.87776
G1 X64.999 Y48.513 E23.91768
G1 X65.05 Y47.982 E23.9576
G1 X64.991 Y47.452 E23.99751
G1 X64.822 Y46.947 E24.03736
G1 X64.553 Y46.486 E24.07731
G1 X64.193 Y46.093 E24.11719
G1 X63.76 Y45.783 E24.15704
G1 X63.271 Y45.569 E24.19699
G1 X62.749 Y45.462 E24.23686
G1 X62.216 Y45.465 E24.27675
G1 X61.696 Y45.58 E24.31661
G1 X61.209 Y45.8 E24.3566
G1 X60.78 Y46.117 E24.39652
G1 X60.427 Y46.515 E24.43633
G1 X60.164 Y46.979 E24.47624
G1 X60.001 Y47.487 E24.51617
G1 X59.95 Y48.018 E24.55609
G1 X60.009 Y48.548 E24.596
G1 X60.178 Y49.053 E24.63585
G1 X60.447 Y49.514 E24.67579
G1 X60.807 Y49.907 E24.71567
G0 F3600 X61.051 Y50.081
G0 X60.992 Y50.162
G0 X61.717 Y50.469
G0 X62.248 Y50.577
G0 X62.788 Y50.574
G0 X74.412 Y48.569
G0 X74.509 Y48.548
G1 F2400 X74.678 Y49.053 E24.75553
G1 X74.947 Y49.514 E24.79547
G1 X75.307 Y49.907 E24.83535
G1 X75.74 Y50.217 E24.87521
G1 X76.229 Y50.431 E24.91515
G1 X76.751 Y50.538 E24.95503
G1 X77.284 Y50.535 E24.99491
G1 X77.804 Y50.42 E25.03477
G1 X78.291 Y50.2 E25.07476
G1 X78.72 Y49.883 E25.11468
G1 X79.073 Y49.485 E25.15449
G1 X79.336 Y49.021 E25.1944
G1 X79.499 Y48.513 E25.23433
G1 X79.55 Y47.982 E25.27425
G1 X79.491 Y47.452 E25.31416
G1 X79.322 Y46.947 E25.35401
G1 X79.053 Y46.486 E25.39395
G1 X78.693 Y46.093 E25.43384
G1 X78.26 Y45.783 E25.47369
G1 X77.771 Y45.569 E25.51363
G1 X77.249 Y45.462 E25.55351
G1 X76.716 Y45.465 E25.5934
G1 X76.196 Y45.58 E25.63325
G1 X75.709 Y45.8 E25.67324
G1 X75.28 Y46.117 E25.71316
G1 X74.927 Y46.515 E25.75297
G1 X74.664 Y46.979 E25.79289
G1 X74.501 Y47.487 E25.83281
G1 X74.45 Y48.018 E25.87273
G1 X74.509 Y48.548 E25.91264
G0 F3600 X74.604 Y48.832
G0 X74.509 Y48.862
G0 X74.41 Y48.018
G0 X74.462 Y47.479
G0 X74.628 Y46.963
G0 X74.895 Y46.492
G0 X75.254 Y46.088
G0 X83.867 Y40.573
G0 X83.947 Y40.514
G1 F2400 X84.307 Y40.907 E25.95252
G1 X84.74 Y41.217 E25.99238
G1 X85.229 Y41.431 E26.03232
G1 X85.751 Y41.538 E26.0722
G1 X86.284 Y41.535 E26.11209
G1 X86.804 Y41.42 E26.15194
G1 X87.291 Y41.2 E26.19193
G1 X87.72 Y40.883 E26.23185
G1 X88.073 Y40.485 E26.27166
G1 X88.336 Y40.021 E26.31158
G1 X88.499 Y39.513 E26.3515
G1 X88.55 Y38.982 E26.39142
G1 X88.491 Y38.452 E26.43133
G1 X88.322 Y37.947 E26.47118
G1 X88.053 Y37.486 E26.51112
G1 X87.693 Y37.093 E26.55101
G1 X87.26 Y36.783 E26.59086
G1 X86.771 Y36.569 E26.63081
G1 X86.249 Y36.462 E26.67068
G1 X85.716 Y36.465 E26.71057
G1 X85.196 Y36.58 E26.75042
G1 X84.709 Y36.8 E26.79042
G1 X84.28 Y37.117 E26.83033
G1 X83.927 Y37.515 E26.87014
G1 X83.664 Y37.979 E26.91006
G1 X83.501 Y38.487 E26.94998
G1 X83.45 Y39.018 E26.9899
G1 X83.509 Y39.548 E27.02981
G1 X83.678 Y40.053 E27.06966
G1 X83.947 Y40.514 E27.10961
G0 F3600 X84.15 Y40.735
G0 X84.077 Y40.802
G0 X77.801 Y59.974
G0 X77.771 Y60.069
G1 F2400 X77.249 Y59.962 E27.14948
G1 X76.716 Y59.965 E27.18937
G1 X76.196 Y60.08 E27.22923
G1 X75.709 Y60.3 E27.26922
G1 X75.28 Y60.617 E27.30913
G1 X74.927 Y61.015 E27.34895
G1 X74.664 Y61.479 E27.38886
G1 X74.501 Y61.987 E27.42879
G1 X74.45 Y62.518 E27.46871
G1 X74.509 Y63.048 E27.50861
G1 X74.678 Y63.553 E27.54847
G1 X74.947 Y64.014 E27.58841
G1 X75.307 Y64.407 E27.62829
G1 X75.74 Y64.717 E27.66814
G1 X76.229 Y64.931 E27.70809
G1 X76.751 Y65.038 E27.74797
G1 X77.284 Y65.035 E27.78785
G1 X77.804 Y64.92 E27.82771
G1 X78.291 Y64.7 E27.8677
G1 X78.72 Y64.383 E27.90762
G1 X79.073 Y63.985 E27.94743
G1 X79.336 Y63.521 E27.98734
G1 X79.499 Y63.013 E28.02727
G1 X79.55 Y62.482 E28.06719
G1 X79.491 Y61.952 E28.1071
G1 X79.322 Y61.447 E28.14695
G1 X79.053 Y60.986 E28.18689
G1 X78.693 Y60.593 E28.22678
G1 X78.26 Y60.283 E28.26663
G1 X77.771 Y60.069 E28.30657
G0 F3600 X77.477 Y60.009
G0 X77.497 Y59.911
G0 X78.279 Y60.249
G0 X78.719 Y60.564
G0 X79.085 Y60.963
G0 X79.358 Y61.431
G0 X79.53 Y61.944
G0 X79.59 Y62.482
G0 X79.538 Y63.021
G0 X77.258 Y74.363
G0 X77.249 Y74.462
G1 F2400 X76.716 Y74.465 E28.34646
G1 X76.196 Y74.58 E28.38632
G1 X75.709 Y74.8 E28.42631
G1 X75.28 Y75.117 E28.46622
G1 X74.927 Y75.515 E28.50604
G1 X74.664 Y75.979 E28.54595
G1 X74.501 Y76.487 E28.58588
G1 X74.45 Y77.018 E28.6258
G1 X74.509 Y77.548 E28.6657
G1 X74.678 Y78.053 E28.70556
G1 X74.947 Y78.514 E28.7455
G1 X75.307 Y78.907 E28.78538
G1 X75.74 Y79.217 E28.82523
G1 X76.229 Y79.431 E28.86518
G1 X76.751 Y79.538 E28.90506
G1 X77.284 Y79.535 E28.94494
G1 X77.804 Y79.42 E28.9848
G1 X78.291 Y79.2 E29.02479
G1 X78.72 Y78.883 E29.06471
G1 X79.073 Y78.485 E29.10452
G1 X79.336 Y78.021 E29.14443
G1 X79.499 Y77.513 E29.18436
G1 X79.55 Y76.982 E29.22428
G1 X79.491 Y76.452 E29.26419
G1 X79.322 Y75.947 E29.30404
G1 X79.053 Y75.486 E29.34398
G1 X78.693 Y75.093 E29.38387
G1 X78.26 Y74.783 E29.42372
G1 X77.771 Y74.569 E29.46366
G1 X77.249 Y74.462 E29.50354
G0 F3600 X76.949 Y74.463
G0 X76.949 Y74.363
G0 X77.783 Y74.531
G0 X78.279 Y74.749
G0 X78.719 Y75.064
G0 X79.085 Y75.463
G0 X84.213 Y84.044
G0 X84.28 Y84.117
G1 F2400 X83.927 Y84.515 E29.54335
G1 X83.664 Y84.979 E29.58326
G1 X83.501 Y85.487 E29.62319
G1 X83.45 Y86.018 E29.66311
G1 X83.509 Y86.548 E29.70302
G1 X83.678 Y87.053 E29.74287
G1 X83.947 Y87.514 E29.78281
G1 X84.307 Y87.907 E29.8227
G1 X84.74 Y88.217 E29.86255
G1 X85.229 Y88.431 E29.90249
G1 X85.751 Y88.538 E29.94237
G1 X86.284 Y88.535 E29.98226
G1 X86.804 Y88.42 E30.02211
G1 X87.291 Y88.2 E30.0621
G1 X87.72 Y87.883 E30.10202
G1 X88.073 Y87.485 E30.14183
G1 X88.336 Y87.021 E30.18175
G1 X88.499 Y86.513 E30.22167
G1 X88.55 Y85.982 E30.26159
G1 X88.491 Y85.452 E30.3015
G1 X88.322 Y84.947 E30.34135
G1 X88.053 Y84.486 E30.3813
G1 X87.693 Y84.093 E30.42118
G1 X87.26 Y83.783 E30.46103
G1 X86.771 Y83.569 E30.50098
G1 X86.249 Y83.462 E30.54085
G1 X85.716 Y83.465 E30.58074
G1 X85.196 Y83.58 E30.6206
G1 X84.709 Y83.8 E30.66059
G1 X84.28 Y84.117 E30.70051
G0 F3600 X84.081 Y84.341
G0 X84.007 Y84.275
G0 X64.927 Y78.061
G0 X64.836 Y78.021
G1 F2400 X64.999 Y77.513 E30.74043
G1 X65.05 Y76.982 E30.78035
G1 X64.991 Y76.452 E30.82026
G1 X64.822 Y75.947 E30.86011
G1 X64.553 Y75.486 E30.90005
G1 X64.193 Y75.093 E30.93994
G1 X63.76 Y74.783 E30.97979
G1 X63.271 Y74.569 E31.01974
G1 X62.749 Y74.462 E31.05961
G1 X62.216 Y74.465 E31.0995
G1 X61.696 Y74.58 E31.13935
G1 X61.209 Y74.8 E31.17935
G1 X60.78 Y75.117 E31.21926
G1 X60.427 Y75.515 E31.25908
G1 X60.164 Y75.979 E31.29899
G1 X60.001 Y76.487 E31.33891
G1 X59.95 Y77.018 E31.37883
G1 X60.009 Y77.548 E31.41874
G1 X60.178 Y78.053 E31.45859
G1 X60.447 Y78.514 E31.49854
G1 X60.807 Y78.907 E31.53842
G1 X61.24 Y79.217 E31.57827
G1 X61.729 Y79.431 E31.61822
G1 X62.251 Y79.538 E31.6581
G1 X62.784 Y79.535 E31.69798
G1 X63.304 Y79.42 E31.73784
G1 X63.791 Y79.2 E31.77783
G1 X64.22 Y78.883 E31.81775
G1 X64.573 Y78.485 E31.85756
G1 X64.836 Y78.021 E31.89747
G0 F3600 X64.927 Y77.736
G0 X65.022 Y77.767
G0 X64.605 Y78.508
G0 X64.246 Y78.912
G0 X63.811 Y79.234
G0 X63.316 Y79.457
G0 X62.788 Y79.574
G0 X62.248 Y79.577
G0 X50.65 Y76.982
G0 X50.55 Y76.982
G1 F2400 X50.491 Y76.452 E31.93738
G1 X50.322 Y75.947 E31.97723
G1 X50.053 Y75.486 E32.01717
G1 X49.693 Y75.093 E32.05706
G1 X49.26 Y74.783 E32.09691
G1 X48.771 Y74.569 E32.13686
G1 X48.249 Y74.462 E32.17673
G1 X47.716 Y74.465 E32.21662
G1 X47.196 Y74.58 E32.25648
G1 X46.709 Y74.8 E32.29647
G1 X46.28 Y75.117 E32.33638
G1 X45.927 Y75.515 E32.3762
G1 X45.664 Y75.979 E32.41611
G1 X45.501 Y76.487 E32.45603
G1 X45.45 Y77.018 E32.49596
G1 X45.509 Y77.548 E32.53586
G1 X45.678 Y78.053 E32.57571
G1 X45.947 Y78.514 E32.61566
G1 X46.307 Y78.907 E32.65554
G1 X46.74 Y79.217 E32.69539
G1 X47.229 Y79.431 E32.73534
G1 X47.751 Y79.538 E32.77522
G1 X48.284 Y79.535 E32.8151
G1 X48.804 Y79.42 E32.85496
G1 X49.291 Y79.2 E32.89495
G1 X49.72 Y78.883 E32.93487
G1 X50.073 Y78.485 E32.97468
G1 X50.336 Y78.021 E33.01459
G1 X50.499 Y77.513 E33.05452
G1 X50.55 Y76.982 E33.09444
G0 F3600 X50.517 Y76.684
G0 X50.616 Y76.674
G0 X50.538 Y77.521
G0 X50.372 Y78.037
G0 X50.105 Y78.508
G0 X49.746 Y78.912
G0 X41.133 Y84.427
G0 X41.053 Y84.486
G1 F2400 X40.693 Y84.093 E33.13432
G1 X40.26 Y83.783 E33.17417
G1 X39.771 Y83.569 E33.21412
G1 X39.249 Y83.462 E33.254
G1 X38.716 Y83.465 E33.29388
G1 X38.196 Y83.58 E33.33374
G1 X37.709 Y83.8 E33.37373
G1 X37.28 Y84.117 E33.41365
G1 X36.927 Y84.515 E33.45346
G1 X36.664 Y84.979 E33.49337
G1 X36.501 Y85.487 E33.5333
G1 X36.45 Y86.018 E33.57322
G1 X36.509 Y86.548 E33.61313
G1 X36.678 Y87.053 E33.65298
G1 X36.947 Y87.514 E33.69292
G1 X37.307 Y87.907 E33.73281
G1 X37.74 Y88.217 E33.77266
G1 X38.229 Y88.431 E33.8126
G1 X38.751 Y88.538 E33.85248
G1 X39.284 Y88.535 E33.89237
G1 X39.804 Y88.42 E33.93222
G1 X40.291 Y88.2 E33.97221
G1 X40.72 Y87.883 E34.01213
G1 X41.073 Y87.485 E34.05194
G1 X41.336 Y87.021 E34.09186
G1 X41.499 Y86.513 E34.13178
G1 X41.55 Y85.982 E34.1717
G1 X41.491 Y85.452 E34.21161
G1 X41.322 Y84.947 E34.25146
G1 X41.053 Y84.486 E34.2914
G0 F3600 X40.85 Y84.265
G0 X40.923 Y84.198
G0 X47.199 Y65.026
G0 X47.229 Y64.931
G1 F2400 X47.751 Y65.038 E34.33128
G1 X48.284 Y65.035 E34.37117
G1 X48.804 Y64.92 E34.41102
G1 X49.291 Y64.7 E34.45101
G1 X49.72 Y64.383 E34.49093
G1 X50.073 Y63.985 E34.53074
G1 X50.336 Y63.521 E34.57066
G1 X50.499 Y63.013 E34.61058
G1 X50.55 Y62.482 E34.6505
G1 X50.491 Y61.952 E34.69041
G1 X50.322 Y61.447 E34.73026
G1 X50.053 Y60.986 E34.77021
G1 X49.693 Y60.593 E34.81009
G1 X49.26 Y60.283 E34.84994
G1 X48.771 Y60.069 E34.88989
G1 X48.249 Y59.962 E34.92976
G1 X47.716 Y59.965 E34.96965
G1 X47.196 Y60.08 E35.00951
G1 X46.709 Y60.3 E35.0495
G1 X46.28 Y60.617 E35.08942
G1 X45.927 Y61.015 E35.12923
G1 X45.664 Y61.479 E35.16914
G1 X45.501 Y61.987 E35.20907
G1 X45.45 Y62.518 E35.24899
G1 X45.509 Y63.048 E35.28889
G1 X45.678 Y63.553 E35.32875
G1 X45.947 Y64.014 E35.36869
G1 X46.307 Y64.407 E35.40857
G1 X46.74 Y64.717 E35.44843
G1 X47.229 Y64.931 E35.48837
G0 F3600 X47.523 Y64.991
G0 X47.503 Y65.089
G0 X36.628 Y84.963
G0 X36.462 Y85.479
G0 X35.971 Y89.429
;TYPE:SKIN
G1 F2400 X35.569 Y89.026 E35.53097
G0 F3600 X35.569 Y88.178
G1 F2400 X36.82 Y89.429 E35.66337
G1 X36.926 Y89.535
G0 F3600 X37.668 Y89.429
G1 F2400 X35.569 Y87.329 E35.88556
G1 X35.463 Y87.223
G0 F3600 X35.569 Y86.481
G1 F2400 X36.681 Y87.592 E36.0032
G1 X36.787 Y87.698
G0 F3600 X37.379 Y88.29
G1 F2400 X38.517 Y89.429 E36.12369
G1 X38.623 Y89.535
G0 F3600 X39.055 Y89.118
G1 F2400 X39.876 Y89.091 E36.19223
G1 X40.621 Y88.987 E36.2747
G1 X40.073 Y88.44
G0 F3600 X40.709 Y88.227
G1 F2400 X41.911 Y89.429 E36.40191
G1 X42.017 Y89.535
G0 F3600 X42.76 Y89.429
G1 F2400 X41.143 Y87.812 E36.57304
G1 X41.037 Y87.706
G0 F3600 X41.484 Y87.305
G1 F2400 X43.608 Y89.429 E36.79783
G1 X43.714 Y89.535
G0 F3600 X44.457 Y89.429
G1 F2400 X41.723 Y86.695 E37.08718
G1 X41.617 Y86.589
G0 F3600 X41.816 Y85.94
G1 F2400 X45.305 Y89.429 E37.45643
G1 X45.411 Y89.535
G0 F3600 X46.154 Y89.429
G1 F2400 X41.575 Y84.85 E37.94104
G1 X41.469 Y84.744
G0 F3600 X40.174 Y83.449
G1 F2400 X35.569 Y78.844 E38.4284
G1 X35.463 Y78.738
G0 F3600 X35.569 Y79.693
G1 F2400 X39.068 Y83.191 E38.79866
G1 X39.174 Y83.297
G0 F3600 X38.306 Y83.278
G1 F2400 X35.569 Y80.541 E39.08832
G1 X35.463 Y80.435
G0 F3600 X35.569 Y81.39
G1 F2400 X37.69 Y83.51 E39.31274
G1 X37.796 Y83.616
G0 F3600 X37.182 Y83.851
G1 F2400 X35.569 Y82.238 E39.48345
G1 X35.463 Y82.132
G0 F3600 X35.569 Y83.087
G1 F2400 X36.768 Y84.286 E39.61035
G1 X36.874 Y84.392
